martinandrovich/hric-system/assets/data/pd-test-panda-2.csv
t, q0, q1, q2, q3, q4, q5, q6, qdot0, qdot1, qdot2, qdot3, qdot4, qdot5, qdot6, tau_des0, tau_des1, tau_des2, tau_des3, tau_des4, tau_des5, tau_des6, g0, g1, g2, g3, g4, g5, g6
0, -0.0554851, -0.0999923, -0.0489015, -0.0998934, -0.0447758, 0.0803345, 0.0618203, -0.000759636, -0.000406302, 0.000468137, -0.000664484, 8.61541e-05, -1.71719e-06, -0.000524717, 0.55865, -1, 0.486674, -1, 0.447327, 1, 1, 5.20417e-18, -0.518822, -0.0656497, -3.12835, 0.00815277, 1.73412, -0.00023698
0.001, -0.0554818, -0.0999904, -0.0489015, -0.0998898, -0.044778, 0.080336, 0.061824, 0.0006072, 0.000378746, 0.000312082, 0.000763436, 5.74361e-05, 0.000507482, 0.000124906, 0.551782, -1.38587, 0.487454, -1.38587, 0.447492, 1.38587, 1.38587, 0, -0.518858, -0.0656483, -3.12837, 0.00815148, 1.73412, -0.000236995
0.002, -0.0554818, -0.0999904, -0.0489015, -0.0998918, -0.0447793, 0.0803352, 0.0618263, 0.0004048, 0.000252497, 0.000208048, -0.000140656, -0.00016516, 6.70536e-05, 0.000591897, 0.552794, -1.77174, 0.487975, -1.77174, 0.448619, 1.77174, 1.77174, 8.67362e-18, -0.51889, -0.0656479, -3.12834, 0.00815281, 1.73412, -0.000237002
0.003, -0.0554818, -0.0999887, -0.0489015, -0.0998896, -0.0447789, 0.080336, 0.061825, 0.000269866, 0.000725144, 0.000138693, 0.00619816, 9.3344e-05, 0.00031597, -0.000114028, 0.553469, -2.15761, 0.488321, -2.15761, 0.447323, 2.15761, 2.15761, 1.73472e-18, -0.518934, -0.065647, -3.12835, 0.00815236, 1.73412, -0.000236991
0.004, -0.0554835, -0.0999892, -0.0489051, -0.0998922, -0.0447802, 0.0803363, 0.0618214, -0.000376901, 0.00104024, -0.00111397, 0.00354281, -0.000344672, -0.000772698, -0.00129672, 0.556719, -2.54348, 0.494621, -2.54348, 0.449526, 2.54348, 2.54348, -6.93889e-18, -0.518959, -0.065645, -3.12831, 0.0081545, 1.73412, -0.000236993
0.005, -0.0554797, -0.0999901, -0.0488994, -0.099891, -0.0447778, 0.0803326, 0.0618271, 0.000305545, 0.00134311, 0.0065718, 0.00451835, -0.00046714, -0.00315999, 0.00358026, 0.553269, -2.92935, 0.456135, -2.92935, 0.450114, 2.92935, 2.92935, -5.20417e-18, -0.518889, -0.0656491, -3.12835, 0.00815211, 1.73412, -0.000236996
0.006, -0.0554806, -0.09999, -0.0489006, -0.099886, -0.0447806, 0.080337, 0.0618405, -0.000353116, -0.000462743, 0.00424059, 0.00683365, -0.00159995, 0.000345907, 0.00687485, 0.556572, -3.31522, 0.467803, -3.31522, 0.455806, 3.31522, 3.31522, 5.20417e-18, -0.518816, -0.0656482, -3.12842, 0.00814899, 1.73412, -0.000237075
0.007, -0.0554799, -0.0999937, -0.048904, -0.0998894, -0.0447784, 0.0803458, 0.0618611, -0.000792222, -0.00387415, 0.00200238, 0.00392734, -0.00150744, 0.00161475, 0.0170243, 0.55876, -3.70109, 0.479028, -3.70109, 0.455321, 3.70109, 3.70109, 1.73472e-18, -0.5187, -0.0656488, -3.12843, 0.00814966, 1.73413, -0.000237202
0.008, -0.0554811, -0.100004, -0.0489056, -0.0998951, -0.0447791, 0.0803624, 0.0619034, -0.00117776, -0.0072036, 0.00106442, -0.000290523, -0.00164922, 0.0112483, 0.0347103, 0.5607, -4.08696, 0.483734, -4.08696, 0.456037, 4.08696, 4.08696, 8.67362e-18, -0.518332, -0.0656536, -3.12849, 0.00814786, 1.73414, -0.000237445
0.009, -0.0554789, -0.100016, -0.0489017, -0.0999085, -0.0447794, 0.0803997, 0.0619729, -0.000135561, -0.00842987, 0.00148116, -0.00471576, -0.00133684, 0.0230178, 0.0495624, 0.555467, -4.47283, 0.481612, -4.47283, 0.454479, 4.47283, 4.47283, -5.20417e-18, -0.517995, -0.0656617, -3.12845, 0.00814917, 1.73416, -0.000237769
0.01, -0.0554807, -0.10003, -0.0489027, -0.0999149, -0.0447799, 0.080453, 0.0620816, -0.000739988, -0.0115086, 0.000591679, -0.0039636, -0.00109468, 0.0346755, 0.0709622, 0.558507, -4.8587, 0.486069, -4.8587, 0.453273, 4.8587, 4.8587, 1.56125e-17, -0.517435, -0.0656692, -3.12855, 0.00814507, 1.73419, -0.000238329
0.011, -0.0554786, -0.100056, -0.0489041, -0.0999333, -0.0447799, 0.08053, 0.0622242, -0.000493325, -0.0141575, -4.1571e-05, -0.00790868, -0.000729785, 0.053073, 0.0996575, 0.557252, -5.24456, 0.489249, -5.24456, 0.451448, 5.24456, 5.24456, -1.73472e-18, -0.516568, -0.0656824, -3.12863, 0.0081427, 1.73424, -0.000239073
0.012, -0.0554817, -0.100083, -0.048906, -0.0999644, -0.0447799, 0.0806384, 0.0624105, -0.000885695, -0.021013, -0.000586737, -0.0155406, -0.000486523, 0.0724108, 0.12623, 0.559245, -5.63043, 0.491994, -5.63043, 0.450231, 5.63043, 5.63043, 2.25514e-17, -0.515842, -0.065695, -3.12851, 0.00814814, 1.73429, -0.000239997
0.013, -0.0554838, -0.10012, -0.0489076, -0.100007, -0.0447825, 0.08078, 0.0626433, -0.00114728, -0.0291817, -0.000880027, -0.0243904, 0.00346335, 0.102332, 0.164761, 0.560574, -6.0163, 0.493477, -6.0163, 0.430508, 6.0163, 6.0163, 8.67362e-18, -0.514898, -0.0657117, -3.12833, 0.00815612, 1.73436, -0.000241149
0.014, -0.0554876, -0.10016, -0.0489076, -0.100064, -0.0447831, 0.0809642, 0.0629267, -0.00197128, -0.0369201, -0.000535727, -0.034569, 0.00249456, 0.131248, 0.206372, 0.564732, -6.40217, 0.491755, -6.40217, 0.435358, 6.40217, 6.19286, -3.46945e-17, -0.514008, -0.0657307, -3.12796, 0.00817103, 1.73445, -0.000242507
0.015, -0.0554893, -0.100215, -0.0489076, -0.100135, -0.0447799, 0.0811889, 0.0632729, -0.001871, -0.0412434, -0.000318933, -0.0499323, 0.00195487, 0.161104, 0.256861, 0.564248, -6.64562, 0.490671, -6.78804, 0.438025, 6.78804, 5.93695, -8.67362e-18, -0.512685, -0.065758, -3.12759, 0.00818702, 1.73456, -0.000244199
0.016, -0.0554893, -0.100275, -0.0489096, -0.100219, -0.044784, 0.0814467, 0.0636882, -0.00124733, -0.0455873, -0.000833573, -0.0647761, 0.000877864, 0.193703, 0.310826, 0.56113, -6.62329, 0.493264, -7.17391, 0.44345, 7.17391, 5.66297, 1.73472e-18, -0.511345, -0.0657848, -3.12705, 0.00820946, 1.73468, -0.000246234
0.017, -0.0554877, -0.100347, -0.0489076, -0.100324, -0.0447847, 0.0817501, 0.0641637, -0.000274742, -0.0531234, 0.000115397, -0.0807235, 0.000749398, 0.230922, 0.366412, 0.55625, -6.58489, 0.488499, -7.55978, 0.4441, 7.55978, 5.38028, 0, -0.509798, -0.0658197, -3.12636, 0.00823796, 1.73483, -0.000248545
0.018, -0.0554855, -0.100431, -0.048906, -0.100442, -0.0447882, 0.0820925, 0.0647153, -0.000183161, -0.0645149, 0.000649866, -0.0946989, -0.000462354, 0.273787, 0.424893, 0.555771, -6.5271, 0.48581, -7.94565, 0.450194, 7.94565, 5.08236, 1.21431e-17, -0.507959, -0.0658597, -3.12561, 0.00826929, 1.73499, -0.000251261
0.019, -0.0554865, -0.100524, -0.0489096, -0.10058, -0.0447883, 0.0825024, 0.0653327, -0.000678919, -0.0751952, -0.000761089, -0.110218, -0.000215898, 0.320913, 0.488457, 0.558259, -6.47276, 0.492901, -8.33152, 0.448962, 8.33152, 4.75837, 1.73472e-18, -0.506011, -0.0659013, -3.12467, 0.00830894, 1.73518, -0.000254332
0.02, -0.0554899, -0.10063, -0.0489096, -0.100747, -0.044789, 0.0829558, 0.0660356, -0.00165904, -0.0841993, -0.000498324, -0.128159, -0.000312038, 0.362076, 0.557141, 0.563194, -6.42669, 0.491587, -8.71739, 0.44945, 8.71739, 4.40792, 2.08167e-17, -0.50398, -0.0659496, -3.12343, 0.0083606, 1.73538, -0.000257818
0.021, -0.0554898, -0.100743, -0.0489076, -0.100934, -0.044789, 0.0834513, 0.0668285, -0.00110603, -0.0924242, 0.0003242, -0.149858, -0.000156085, 0.40929, 0.629842, 0.560428, -6.38443, 0.487455, -9.10326, 0.44867, 9.10326, 4.03649, 6.93889e-18, -0.501905, -0.066002, -3.12197, 0.00842082, 1.73561, -0.00026176
0.022, -0.0554936, -0.10086, -0.0489112, -0.101134, -0.0447883, 0.0840032, 0.0676719, -0.00129416, -0.099105, -0.000985191, -0.169588, 0.000172257, 0.4538, 0.700526, 0.561406, -6.34985, 0.494038, -9.48913, 0.447022, 9.48913, 3.67463, -3.46945e-18, -0.499915, -0.0660519, -3.12033, 0.00848896, 1.73585, -0.000266001
0.023, -0.0554926, -0.100989, -0.0489112, -0.101356, -0.0447845, 0.0846198, 0.0685966, -0.000305963, -0.107742, -0.000652968, -0.188028, 0.000347505, 0.509232, 0.773152, 0.556456, -6.30539, 0.492377, -9.875, 0.446107, 9.875, 3.30226, 8.67362e-18, -0.497797, -0.0661088, -3.11847, 0.00856527, 1.73612, -0.000270668
0.024, -0.0554928, -0.101134, -0.0489096, -0.101616, -0.0447848, 0.0853053, 0.0695784, -0.000203975, -0.120716, 0.00012437, -0.213607, -0.000187227, 0.563196, 0.839631, 0.555948, -6.23906, 0.488474, -10.2609, 0.448784, 10.2609, 2.96004, -1.73472e-18, -0.495475, -0.0661737, -3.11627, 0.00865599, 1.73642, -0.000275665
0.025, -0.0554872, -0.101287, -0.0489023, -0.101898, -0.0447811, 0.0860653, 0.0706321, 0.00107044, -0.130264, 0.00249792, -0.236964, 0.000976685, 0.625646, 0.901803, 0.549519, -6.18979, 0.476534, -10.6467, 0.442928, 10.6467, 2.63865, 0, -0.493269, -0.0662434, -3.11374, 0.00875802, 1.73675, -0.000281029
0.026, -0.0554865, -0.101451, -0.0489019, -0.102198, -0.0447797, 0.0868628, 0.0717505, 0.000713628, -0.140912, 0.00421087, -0.261284, 0.00110426, 0.688199, 0.957624, 0.551297, -6.13491, 0.467964, -11.0326, 0.442276, 11.0326, 2.34836, 1.73472e-18, -0.490801, -0.0663149, -3.11111, 0.00886602, 1.73709, -0.000286873
0.027, -0.0554846, -0.101619, -0.0489, -0.10254, -0.044781, 0.0877401, 0.0729123, 0.00103256, -0.148909, 0.00418048, -0.284402, 0.000304607, 0.749761, 1.02483, 0.549683, -6.09324, 0.468097, -11.4185, 0.446287, 11.0818, 2.00073, -8.67362e-18, -0.488848, -0.0663851, -3.10784, 0.0089994, 1.73745, -0.000292933
0.028, -0.0554792, -0.101802, -0.0488983, -0.1029, -0.0447789, 0.0887051, 0.0741257, 0.00245161, -0.160027, 0.0029817, -0.310941, 0.000888173, 0.81122, 1.07686, 0.542534, -6.03583, 0.474074, -11.8043, 0.443348, 10.7648, 1.72842, 8.67362e-18, -0.486599, -0.0664622, -3.10443, 0.00913776, 1.73786, -0.000299396
0.029, -0.0554756, -0.102002, -0.0488958, -0.1033, -0.0447783, 0.0897353, 0.0753636, 0.00284084, -0.173577, 0.00278344, -0.338947, 0.000800766, 0.885128, 1.13201, 0.540551, -5.96607, 0.475041, -12.1902, 0.443779, 10.385, 1.44028, 8.67362e-18, -0.484159, -0.0665476, -3.10064, 0.00929247, 1.73829, -0.000306101
0.03, -0.0554775, -0.102213, -0.0488887, -0.103721, -0.044777, 0.0908596, 0.0766496, 0.00124428, -0.186969, 0.0042852, -0.366622, 0.000978553, 0.964559, 1.171, 0.548554, -5.89701, 0.46746, -12.5761, 0.442877, 9.97657, 1.23247, -2.25514e-17, -0.481652, -0.0666391, -3.09662, 0.00945464, 1.73875, -0.000313172
0.031, -0.0554722, -0.102426, -0.0488881, -0.104166, -0.0447737, 0.0920606, 0.0779722, 0.00259276, -0.195985, 0.00238213, -0.390531, 0.00174036, 1.04549, 1.20585, 0.541758, -5.8498, 0.476971, -12.962, 0.439036, 9.55993, 1.04499, 1.04083e-17, -0.47944, -0.0667263, -3.09222, 0.00963279, 1.73925, -0.000320593
0.032, -0.0554739, -0.102655, -0.0488838, -0.104649, -0.0447731, 0.0933462, 0.0793081, 0.00117169, -0.208095, 0.00285612, -0.425473, 0.00136589, 1.12197, 1.2436, 0.54888, -5.78695, 0.474557, -13.3478, 0.440902, 9.16466, 0.842878, 1.04083e-17, -0.477099, -0.0668222, -3.08742, 0.00982658, 1.73977, -0.000328228
0.033, -0.0554701, -0.1029, -0.0488835, -0.105178, -0.0447692, 0.0947229, 0.0806735, 0.00133794, -0.223075, 0.00195029, -0.459947, 0.0011496, 1.19927, 1.2726, 0.548011, -5.70961, 0.479084, -13.7337, 0.441944, 8.7644, 0.684234, -1.21431e-17, -0.474837, -0.0669214, -3.08208, 0.0100434, 1.74033, -0.000336209
0.034, -0.0554696, -0.103162, -0.048876, -0.105733, -0.0447682, 0.0961701, 0.0820636, 0.00154157, -0.235096, 0.00309808, -0.488379, 0.000767631, 1.2807, 1.30197, 0.546988, -5.64689, 0.47327, -14.1196, 0.443843, 8.34276, 0.523504, 1.73472e-18, -0.472261, -0.0670316, -3.07655, 0.0102668, 1.74091, -0.000344515
0.035, -0.0554698, -0.103428, -0.0488712, -0.106338, -0.0447666, 0.0977187, 0.0834486, 0.000378102, -0.246046, 0.00586604, -0.525245, 0.000919581, 1.36655, 1.32579, 0.552808, -5.58948, 0.459382, -14.5054, 0.443068, 7.95656, 0.390568, 1.38778e-17, -0.470321, -0.0671386, -3.07022, 0.0105221, 1.74152, -0.000352925
0.036, -0.055464, -0.10371, -0.0488703, -0.106971, -0.0447657, 0.0993172, 0.0848564, 0.00201531, -0.259668, 0.00419061, -0.567654, 0.000851107, 1.45285, 1.34553, 0.544563, -5.51855, 0.46775, -14.8913, 0.443402, 7.57069, 0.277791, 0, -0.468108, -0.0672505, -3.06368, 0.0107876, 1.74214, -0.000361736
0.037, -0.0554638, -0.104002, -0.0488699, -0.107652, -0.0447657, 0.100998, 0.0862625, 0.00134354, -0.270129, 0.00300367, -0.604769, 0.000567925, 1.52185, 1.36407, 0.54792, -5.46332, 0.473681, -15.2772, 0.444817, 7.18482, 0.17099, -1.21431e-17, -0.466224, -0.0673638, -3.05649, 0.0110796, 1.74279, -0.000370715
0.038, -0.0554671, -0.10432, -0.048866, -0.10837, -0.0447586, 0.102784, 0.0876841, -0.000217932, -0.283964, 0.00271671, -0.639817, 0.00633866, 1.60117, 1.37456, 0.555761, -5.39096, 0.475077, -15.663, 0.415893, 6.79895, 0.104332, -2.94903e-17, -0.463798, -0.0674925, -3.04904, 0.0113817, 1.74347, -0.000380104
0.039, -0.0554654, -0.104643, -0.0488653, -0.109106, -0.0447581, 0.10461, 0.0891118, 0.000411524, -0.297514, 0.00192923, -0.670667, 0.00549694, 1.6727, 1.38181, 0.552596, -5.31998, 0.479007, -16.0489, 0.420096, 6.41308, 0.0538217, -5.20417e-18, -0.461406, -0.0676196, -3.0414, 0.0116924, 1.74417, -0.000389799
0.04, -0.0554654, -0.104988, -0.0488598, -0.109891, -0.0447537, 0.106524, 0.0905332, 0.000274349, -0.312539, 0.00313796, -0.706316, 0.00460106, 1.75247, 1.39724, 0.553282, -5.2414, 0.472908, -16.4348, 0.424532, 6.02721, -0.0375352, 6.93889e-18, -0.458843, -0.0677591, -3.03324, 0.0120238, 1.74489, -0.000399716
0.041, -0.0554637, -0.10534, -0.0488556, -0.110687, -0.0447504, 0.108451, 0.0919617, 0.000739711, -0.324265, 0.00280801, -0.73753, 0.00773487, 1.81296, 1.40567, 0.550939, -5.17925, 0.474516, -16.8207, 0.408829, 5.64134, -0.0939964, 1.73472e-18, -0.456112, -0.0679005, -3.02504, 0.0123574, 1.74562, -0.000409966
0.042, -0.0554616, -0.10573, -0.0488568, -0.111534, -0.0447483, 0.110442, 0.0933666, 0.000493141, -0.34287, 0.00127221, -0.773498, 0.00594876, 1.86027, 1.40445, 0.55215, -5.08234, 0.482207, -17.2065, 0.417739, 5.30217, -0.101958, -8.67362e-18, -0.452509, -0.0680571, -3.01656, 0.0127053, 1.74636, -0.000420482
0.043, -0.0554573, -0.106122, -0.0488491, -0.112414, -0.0447473, 0.11247, 0.0947874, 0.00153519, -0.357456, 0.00264874, -0.808507, 0.00458541, 1.90822, 1.41254, 0.546897, -5.00548, 0.475248, -17.5924, 0.424546, 5.04217, -0.156604, 8.67362e-18, -0.449273, -0.0682174, -3.00759, 0.0130717, 1.7471, -0.000431248
0.044, -0.0554534, -0.106553, -0.0488462, -0.113323, -0.0447491, 0.114513, 0.0961987, 0.00222988, -0.381594, 0.00179385, -0.846371, 0.00272477, 1.95754, 1.40138, 0.543385, -4.88049, 0.479493, -17.9783, 0.433867, 4.77511, -0.114925, 1.73472e-18, -0.444769, -0.0683949, -2.99874, 0.0134366, 1.74785, -0.000442406
0.045, -0.0554531, -0.106981, -0.0488505, -0.114283, -0.044749, 0.11664, 0.0975881, 0.000836975, -0.397642, -0.00054632, -0.879113, 0.00205058, 2.0016, 1.3949, 0.550347, -4.79596, 0.491237, -18.0235, 0.437237, 4.53358, -0.0963875, 1.9082e-17, -0.441206, -0.068562, -2.989, 0.0138382, 1.74861, -0.000453632
0.046, -0.0554594, -0.107451, -0.0488461, -0.115297, -0.0447457, 0.11881, 0.0989689, -0.00176207, -0.416671, 0.000301164, -0.917439, 0.00262767, 2.04456, 1.38636, 0.563404, -4.69612, 0.486955, -17.8218, 0.434319, 4.29705, -0.0674963, -1.73472e-17, -0.436562, -0.0687556, -2.97906, 0.0142496, 1.74938, -0.000465152
0.047, -0.0554591, -0.107931, -0.0488451, -0.116343, -0.0447373, 0.120984, 0.100327, -0.00117471, -0.434532, -0.000437016, -0.965576, 0.00469784, 2.09012, 1.37789, 0.560465, -4.60202, 0.490636, -17.5706, 0.423884, 4.04754, -0.0387449, 8.67362e-18, -0.432003, -0.0689507, -2.96872, 0.0146785, 1.75014, -0.000476748
0.048, -0.0554574, -0.108424, -0.0488389, -0.11745, -0.0447276, 0.123228, 0.101686, -0.000226329, -0.451618, 0.00148076, -1.01238, 0.00540078, 2.13786, 1.37363, 0.555705, -4.51165, 0.480985, -17.3256, 0.420272, 3.78637, -0.0310217, 0, -0.427808, -0.0691512, -2.9576, 0.0151392, 1.75091, -0.000488526
0.049, -0.0554537, -0.108948, -0.0488313, -0.118615, -0.0447279, 0.125482, 0.103039, 0.00105554, -0.476678, 0.00340668, -1.06314, 0.0021487, 2.18894, 1.3595, 0.54926, -4.38112, 0.471279, -17.0601, 0.436535, 3.50845, 0.026105, 1.21431e-17, -0.423141, -0.0693637, -2.946, 0.015621, 1.75166, -0.000500509
0.05, -0.0554395, -0.109475, -0.0488216, -0.119855, -0.0447258, 0.127813, 0.104361, 0.00543659, -0.491607, 0.00716317, -1.12301, 0.000640301, 2.23107, 1.35099, 0.527212, -4.30119, 0.4524, -16.7484, 0.444057, 3.27449, 0.0554206, -5.20417e-18, -0.419531, -0.0695726, -2.93321, 0.0161506, 1.7524, -0.00051234
0.051, -0.0554288, -0.110035, -0.0488127, -0.121161, -0.0447289, 0.130202, 0.105688, 0.00650126, -0.508298, 0.00992293, -1.18044, -0.00105735, 2.279, 1.33849, 0.521781, -4.21214, 0.438513, -16.4482, 0.452575, 3.01094, 0.104632, -8.67362e-18, -0.415495, -0.0697931, -2.91985, 0.0167054, 1.75316, -0.000524529
0.052, -0.0554276, -0.110623, -0.0488094, -0.122487, -0.044729, 0.132584, 0.107006, 0.00690116, -0.53357, 0.00707335, -1.2293, -0.000877109, 2.31742, 1.32791, 0.51977, -4.07989, 0.452727, -16.1906, 0.451675, 2.79503, 0.144375, 1.04083e-17, -0.410477, -0.0700252, -2.90661, 0.017259, 1.75391, -0.000537054
0.053, -0.0554293, -0.111215, -0.0488041, -0.123845, -0.0447223, 0.134991, 0.108293, 0.00254104, -0.553005, 0.00505911, -1.27463, 0.00160883, 2.34157, 1.32064, 0.541588, -3.97681, 0.462745, -15.9503, 0.439179, 2.65018, 0.167834, 2.25514e-17, -0.405816, -0.0702577, -2.89291, 0.017831, 1.75465, -0.000549527
0.054, -0.0554274, -0.111831, -0.0487997, -0.125192, -0.0447158, 0.13738, 0.109604, 0.00434889, -0.569873, 0.00307359, -1.30354, 0.0021752, 2.35549, 1.31819, 0.53253, -3.8863, 0.472629, -15.7923, 0.436282, 2.55671, 0.167, -8.67362e-18, -0.399773, -0.0705049, -2.87979, 0.0183812, 1.7554, -0.000562651
0.055, -0.0554295, -0.112467, -0.0487951, -0.126575, -0.0447135, 0.139812, 0.110867, 0.00219117, -0.587484, 0.00168549, -1.32174, 0.00187021, 2.36952, 1.30662, 0.543339, -3.79189, 0.479523, -15.6875, 0.437784, 2.46225, 0.212224, -1.21431e-17, -0.393427, -0.0707587, -2.8664, 0.0189436, 1.75616, -0.000575743
0.056, -0.0554327, -0.113135, -0.0487866, -0.128004, -0.0447156, 0.142289, 0.112147, 0.000558503, -0.611746, 0.00437784, -1.34154, 0.000408985, 2.39065, 1.29824, 0.551534, -3.66391, 0.465977, -15.5742, 0.445112, 2.33183, 0.241314, -1.38778e-17, -0.386335, -0.071028, -2.85275, 0.0195175, 1.75692, -0.000589315
0.057, -0.0554289, -0.113827, -0.0487795, -0.129462, -0.044715, 0.14477, 0.113426, 0.00180687, -0.639026, 0.00638475, -1.37689, 0.00407688, 2.41891, 1.28996, 0.545255, -3.52059, 0.455871, -15.3829, 0.426765, 2.1657, 0.269935, 1.04083e-17, -0.378566, -0.0713077, -2.83902, 0.0200967, 1.75768, -0.000603215
0.058, -0.0554325, -0.114524, -0.0487765, -0.130992, -0.0447145, 0.147276, 0.114674, 0.000169239, -0.664388, 0.00358413, -1.42307, 0.0029099, 2.43737, 1.27958, 0.553478, -3.3868, 0.469844, -15.1367, 0.432595, 2.04836, 0.309329, 8.67362e-18, -0.371746, -0.0715795, -2.82417, 0.0207227, 1.75841, -0.000616887
0.059, -0.0554361, -0.115239, -0.0487679, -0.132572, -0.0447128, 0.149719, 0.115932, -0.000965287, -0.677794, 0.00584569, -1.4812, 0.00267731, 2.43561, 1.26913, 0.559187, -3.31262, 0.45845, -14.8302, 0.433741, 2.0327, 0.349016, 5.20417e-18, -0.364861, -0.07186, -2.80884, 0.0213698, 1.7591, -0.000630585
0.06, -0.0554377, -0.115969, -0.0487608, -0.134239, -0.0447159, 0.15216, 0.117166, -0.0011041, -0.688749, 0.00445218, -1.54348, 0.000922234, 2.42594, 1.26148, 0.559898, -3.25055, 0.465347, -14.5021, 0.442548, 2.05666, 0.3749, 1.04083e-17, -0.358727, -0.0721375, -2.7923, 0.0220677, 1.75975, -0.000643979
0.061, -0.0554341, -0.116713, -0.0487573, -0.135941, -0.0447237, 0.154618, 0.118407, 0.000542534, -0.706801, 0.00162117, -1.59857, -0.0018293, 2.42059, 1.25147, 0.551628, -3.15285, 0.479467, -14.2097, 0.456384, 2.05885, 0.412539, 1.21431e-17, -0.352485, -0.0724149, -2.77542, 0.0227806, 1.76039, -0.000657652
0.062, -0.0554394, -0.11746, -0.0487463, -0.137631, -0.0447282, 0.157059, 0.11965, -0.00134742, -0.71484, 0.00505904, -1.6388, -0.00153523, 2.42266, 1.23942, 0.561131, -3.10519, 0.462168, -13.9916, 0.454958, 2.02409, 0.460366, -1.73472e-18, -0.345913, -0.0726987, -2.75877, 0.0234826, 1.76103, -0.000671547
0.063, -0.0554483, -0.118233, -0.0487406, -0.139385, -0.0447215, 0.159535, 0.120875, -0.00382734, -0.73175, 0.00642932, -1.67706, 0.00059623, 2.42911, 1.23776, 0.57362, -3.0129, 0.455259, -13.7828, 0.444234, 1.96707, 0.456422, 3.46945e-18, -0.339123, -0.0729893, -2.74152, 0.0242131, 1.76167, -0.000685547
0.064, -0.0554553, -0.119022, -0.0487354, -0.141193, -0.0447137, 0.162059, 0.122099, -0.00484116, -0.746123, 0.00370975, -1.71581, 0.00284145, 2.4531, 1.22603, 0.578759, -2.93315, 0.468805, -13.571, 0.432929, 1.82187, 0.502857, -1.56125e-17, -0.332526, -0.073281, -2.7236, 0.0249709, 1.7623, -0.00069973
0.065, -0.0554519, -0.119839, -0.0487224, -0.143015, -0.0447127, 0.164548, 0.123311, -0.00209098, -0.76137, 0.00415206, -1.75126, 0.00218445, 2.46985, 1.22319, 0.564974, -2.84874, 0.466464, -13.3755, 0.436205, 1.71326, 0.504928, 1.73472e-18, -0.324822, -0.0735903, -2.70592, 0.0257196, 1.76293, -0.000714025
0.066, -0.0554452, -0.12064, -0.0487059, -0.144931, -0.0447127, 0.16707, 0.124522, 0.0015928, -0.774877, 0.00856018, -1.80198, 0.000410815, 2.48518, 1.20757, 0.546488, -2.7732, 0.444259, -13.1027, 0.445073, 1.61135, 0.570929, 5.20417e-18, -0.3194, -0.0738808, -2.68642, 0.02654, 1.76351, -0.000727915
0.067, -0.0554336, -0.121456, -0.0486853, -0.146888, -0.0447189, 0.169596, 0.125745, 0.005158, -0.782462, 0.0153276, -1.86404, 0.00148396, 2.50598, 1.20296, 0.528546, -2.72712, 0.410216, -12.7728, 0.439769, 1.48211, 0.581738, 1.56125e-17, -0.313994, -0.074175, -2.66646, 0.0273788, 1.76409, -0.000741977
0.068, -0.0554154, -0.122257, -0.0486725, -0.148863, -0.044733, 0.172189, 0.126954, 0.0144301, -0.784741, 0.0168005, -1.89765, -0.00270193, 2.53424, 1.20243, 0.482003, -2.7077, 0.402722, -12.5851, 0.460839, 1.31487, 0.572283, 2.25514e-17, -0.309583, -0.0744486, -2.64594, 0.0282386, 1.76467, -0.000756138
0.069, -0.0554136, -0.123087, -0.0486591, -0.150826, -0.0447354, 0.174782, 0.128169, 0.00959122, -0.793981, 0.0155185, -1.91705, -0.00105171, 2.55241, 1.20107, 0.50618, -2.65321, 0.408999, -12.4685, 0.452613, 1.19808, 0.56694, -8.67362e-18, -0.303624, -0.0747405, -2.6261, 0.0290735, 1.76527, -0.000770901
0.07, -0.0554334, -0.123938, -0.0486466, -0.152738, -0.0447224, 0.177302, 0.129383, -0.000912441, -0.803006, 0.0151379, -1.90928, 0.00427761, 2.55683, 1.19953, 0.558896, -2.59957, 0.410776, -12.4882, 0.425836, 1.15079, 0.562513, -2.77556e-17, -0.295787, -0.0750505, -2.60748, 0.0298621, 1.76586, -0.000786149
0.071, -0.0554441, -0.124811, -0.0486433, -0.154673, -0.0447112, 0.179846, 0.130584, -0.00495141, -0.824167, 0.0113775, -1.91518, 0.00692488, 2.55992, 1.20172, 0.579198, -2.48504, 0.429546, -12.1903, 0.412487, 1.10989, 0.53954, -1.73472e-17, -0.287277, -0.0753614, -2.58883, 0.030655, 1.76646, -0.000801707
0.072, -0.0554377, -0.125748, -0.0486414, -0.15662, -0.0447036, 0.182383, 0.131801, -0.00131497, -0.857436, 0.00821665, -1.92228, 0.0145445, 2.56819, 1.20692, 0.560952, -2.30932, 0.44533, -11.8826, 0.374313, 1.04315, 0.501368, 3.46945e-18, -0.275907, -0.0757045, -2.57106, 0.0314171, 1.76707, -0.000818115
0.073, -0.0554326, -0.126694, -0.0486265, -0.158674, -0.0447074, 0.184982, 0.133015, 0.00161046, -0.88828, 0.0127902, -1.95784, 0.00755593, 2.58868, 1.21334, 0.546273, -2.14564, 0.422314, -11.5839, 0.409294, 0.914765, 0.457136, 6.93889e-18, -0.265946, -0.0760457, -2.55161, 0.0322439, 1.76766, -0.000834219
0.074, -0.0554226, -0.127648, -0.0486082, -0.160802, -0.0447135, 0.187587, 0.13422, 0.0047254, -0.910635, 0.0152911, -2.00299, 0.00667412, 2.59771, 1.21213, 0.530599, -2.02433, 0.409626, -10.8517, 0.413764, 0.843554, 0.451126, 1.73472e-17, -0.256791, -0.0763835, -2.53107, 0.0331139, 1.76823, -0.000850054
0.075, -0.0554153, -0.128579, -0.0485993, -0.162896, -0.0447177, 0.190117, 0.135416, 0.00500747, -0.918157, 0.0134428, -2.03756, 0.00445091, 2.58389, 1.20168, 0.529116, -1.9774, 0.418778, -9.85173, 0.424922, 0.887328, 0.491437, -6.93889e-18, -0.248151, -0.076701, -2.51075, 0.0339762, 1.76877, -0.000865817
0.076, -0.0554179, -0.12946, -0.0485903, -0.165024, -0.0447168, 0.192631, 0.136597, 0.00164555, -0.903656, 0.0120766, -2.06673, 0.0051555, 2.55365, 1.20047, 0.545951, -2.0411, 0.42552, -8.85173, 0.421391, 1.01342, 0.485657, 0, -0.242484, -0.076983, -2.48902, 0.0348919, 1.76926, -0.000880879
0.077, -0.0554292, -0.130373, -0.048565, -0.167165, -0.0447102, 0.195147, 0.137786, -0.0029334, -0.901883, 0.0164398, -2.09207, 0.0065447, 2.52899, 1.19552, 0.568959, -2.04084, 0.403451, -7.85173, 0.414379, 1.11153, 0.498499, -6.93889e-18, -0.235474, -0.0772945, -2.46761, 0.0357933, 1.76976, -0.000896304
0.078, -0.0554236, -0.131302, -0.0485578, -0.169382, -0.0447049, 0.197632, 0.138957, -0.000152717, -0.905167, 0.0133276, -2.13521, 0.00558341, 2.51428, 1.19017, 0.554999, -2.01512, 0.41894, -6.85173, 0.419132, 1.16025, 0.513573, 0, -0.22894, -0.0775891, -2.44523, 0.0367397, 1.77022, -0.000911419
0.079, -0.0554148, -0.132251, -0.0485429, -0.171673, -0.0447085, 0.200159, 0.140134, 0.00280478, -0.918063, 0.016207, -2.17575, 0.00250973, 2.50437, 1.18596, 0.540125, -1.94116, 0.404394, -5.85174, 0.434536, 1.1845, 0.522857, 6.93889e-18, -0.222749, -0.0778877, -2.42189, 0.0377227, 1.77068, -0.000926524
0.08, -0.0554182, -0.133221, -0.0485238, -0.174009, -0.0447108, 0.202669, 0.141304, 0.000778529, -0.937358, 0.0171198, -2.23823, 0.0010011, 2.50871, 1.17724, 0.550289, -1.83498, 0.399639, -4.85174, 0.442102, 1.13773, 0.554763, -6.93889e-18, -0.216241, -0.0781948, -2.39819, 0.0387209, 1.77111, -0.000941536
0.081, -0.055416, -0.134175, -0.0485123, -0.176341, -0.0447042, 0.20521, 0.142449, 0.000535744, -0.947088, 0.0145891, -2.27303, 0.00190965, 2.51666, 1.16804, 0.551481, -1.77679, 0.412177, -3.85174, 0.437494, 1.07255, 0.589266, 1.04083e-17, -0.210474, -0.0784846, -2.37426, 0.039729, 1.77155, -0.000956532
0.082, -0.05541, -0.135128, -0.0485038, -0.178607, -0.0447063, 0.207793, 0.143607, 0.00213294, -0.946348, 0.0147667, -2.26705, 0.00139098, 2.52974, 1.15743, 0.543435, -1.77096, 0.411205, -2.85174, 0.440108, 0.981319, 0.630768, -1.38778e-17, -0.203702, -0.0787718, -2.35138, 0.0406929, 1.77203, -0.000972438
0.083, -0.0554096, -0.136065, -0.0484828, -0.180782, -0.0447102, 0.21036, 0.144751, 0.00390072, -0.940975, 0.016778, -2.23949, 0.00101573, 2.55319, 1.15616, 0.534592, -1.78846, 0.400939, -1.85174, 0.442024, 0.838427, 0.625656, -3.46945e-18, -0.196167, -0.0790675, -2.32975, 0.0416016, 1.77253, -0.000988668
0.084, -0.0554143, -0.137012, -0.0484623, -0.182974, -0.0447096, 0.212947, 0.145911, 0.00175383, -0.943238, 0.0173964, -2.22006, 0.000302654, 2.564, 1.15591, 0.545374, -1.76767, 0.397641, -0.851741, 0.445583, 0.758496, 0.615313, 6.93889e-18, -0.188402, -0.0793646, -2.30802, 0.042515, 1.77303, -0.00100535
0.085, -0.0554073, -0.137994, -0.0484519, -0.185174, -0.0447226, 0.215529, 0.147052, 0.00313268, -0.959222, 0.0141466, -2.21745, -0.00429223, 2.58232, 1.14628, 0.53841, -1.67794, 0.413786, -0.213468, 0.468688, 0.641068, 0.652085, -3.46945e-18, -0.17917, -0.0796645, -2.2867, 0.0434154, 1.77354, -0.00102231
0.086, -0.0554104, -0.138992, -0.0484411, -0.187428, -0.0447393, 0.218123, 0.148173, 0.0010322, -0.978427, 0.0113355, -2.21684, -0.00845298, 2.58625, 1.14187, 0.548943, -1.57193, 0.427733, 0.138313, 0.489658, 0.595491, 0.66291, -3.46945e-18, -0.170024, -0.0799639, -2.26475, 0.0443411, 1.77403, -0.00103907
0.087, -0.0554224, -0.139997, -0.0484459, -0.18968, -0.0447568, 0.220731, 0.149332, -0.00328253, -0.983017, 0.0046941, -2.22353, -0.0103884, 2.6025, 1.14339, 0.570637, -1.53893, 0.460988, 0.344854, 0.49951, 0.488124, 0.643706, -6.93889e-18, -0.160562, -0.0802477, -2.24294, 0.0452647, 1.77452, -0.00105669
0.088, -0.0554471, -0.140975, -0.0484549, -0.191855, -0.0447538, 0.223303, 0.150471, -0.0103633, -0.979909, -0.000354357, -2.21034, -0.00813539, 2.60213, 1.13633, 0.606288, -1.54469, 0.486321, 0.575025, 0.488215, 0.464277, 0.667633, -3.1225e-17, -0.151058, -0.0805224, -2.222, 0.0461547, 1.77502, -0.00107449
0.089, -0.0554668, -0.141938, -0.0484585, -0.194055, -0.0447511, 0.225899, 0.151599, -0.012692, -0.97625, -0.00330824, -2.2006, -0.00406931, 2.59222, 1.13144, 0.618128, -1.55335, 0.501126, 0.512726, 0.467858, 0.48786, 0.680778, 6.93889e-18, -0.1427, -0.0807868, -2.20036, 0.0470692, 1.77551, -0.0010921
0.09, -0.0554716, -0.142891, -0.0484527, -0.196226, -0.044752, 0.228471, 0.152738, -0.00906344, -0.971299, 0.000469552, -2.1975, -0.00407923, 2.57608, 1.12971, 0.600033, -1.56858, 0.482179, 0.324201, 0.467916, 0.542828, 0.67804, 1.38778e-17, -0.134324, -0.0810535, -2.17906, 0.0479665, 1.776, -0.00110991
0.091, -0.0554642, -0.143826, -0.0484371, -0.198452, -0.0447603, 0.230935, 0.153876, -0.0049471, -0.963089, 0.00536463, -2.20139, 0.00322587, 2.53926, 1.14101, 0.579378, -1.60028, 0.457547, 0.160438, 0.431474, 0.702294, 0.610161, 1.04083e-17, -0.127711, -0.0813087, -2.15655, 0.0489087, 1.77641, -0.00112666
0.092, -0.0554521, -0.144766, -0.0484214, -0.200679, -0.0447718, 0.233411, 0.155014, 0.00110905, -0.949607, 0.00840913, -2.20522, -0.00222767, 2.51106, 1.14004, 0.548975, -1.65828, 0.442168, 0.119976, 0.458856, 0.818538, 0.603664, 1.04083e-17, -0.120844, -0.0815627, -2.13412, 0.0498471, 1.77683, -0.00114365
0.093, -0.0554384, -0.145694, -0.0484218, -0.202828, -0.0447713, 0.235855, 0.156157, 0.00529753, -0.937245, 0.00489213, -2.19448, -0.000182684, 2.49523, 1.14168, 0.527897, -1.71082, 0.459757, 0.154205, 0.448626, 0.87325, 0.584015, -6.93889e-18, -0.113287, -0.0818019, -2.11279, 0.0507455, 1.77726, -0.00116136
0.094, -0.0554397, -0.1466, -0.0484166, -0.204938, -0.0447484, 0.238302, 0.157268, 0.00786194, -0.923579, 0.00428039, -2.16609, 0.00913716, 2.47518, 1.1382, 0.515087, -1.77008, 0.462764, 0.00948669, 0.401798, 0.949022, 0.59029, -2.42861e-17, -0.106062, -0.0820424, -2.09178, 0.0516304, 1.7777, -0.001179
0.095, -0.0554467, -0.147535, -0.0484067, -0.207, -0.044714, 0.240777, 0.15841, 0.00213524, -0.924905, 0.00610027, -2.12965, 0.017164, 2.4745, 1.13663, 0.543791, -1.75411, 0.453565, -0.376383, 0.36132, 0.927691, 0.586748, -6.93889e-18, -0.0966983, -0.0823085, -2.07203, 0.0524664, 1.77816, -0.00119796
0.096, -0.0554345, -0.148487, -0.0483953, -0.209107, -0.0446887, 0.243221, 0.159534, 0.00470847, -0.933731, 0.00724427, -2.12103, 0.0188231, 2.47607, 1.13548, 0.530803, -1.70045, 0.447731, -0.762252, 0.352771, 0.895403, 0.581253, 1.73472e-17, -0.0872229, -0.0825756, -2.05183, 0.0533206, 1.77861, -0.00121655
0.097, -0.0554037, -0.149439, -0.0483817, -0.211279, -0.0446837, 0.24572, 0.160674, 0.0133053, -0.947331, 0.00851181, -2.1293, 0.0107259, 2.48922, 1.1393, 0.48751, -1.62294, 0.441258, -1.14812, 0.393207, 0.80468, 0.550767, 2.77556e-17, -0.0789142, -0.0828274, -2.0305, 0.054216, 1.77904, -0.00123514
0.098, -0.055367, -0.150386, -0.0483567, -0.213466, -0.044699, 0.24825, 0.161807, 0.0197198, -0.9476, 0.0155029, -2.15547, 0.00349738, 2.5164, 1.13781, 0.455071, -1.61212, 0.406053, -1.53399, 0.429503, 0.643486, 0.546842, 6.93889e-18, -0.0710837, -0.0830787, -2.00881, 0.0551188, 1.77948, -0.00125365
0.099, -0.0553452, -0.151295, -0.0483527, -0.215642, -0.0447276, 0.250863, 0.162936, 0.0210484, -0.936425, 0.013144, -2.164, -0.00675949, 2.55513, 1.13721, 0.44821, -1.65891, 0.417807, -1.62933, 0.481073, 0.42371, 0.538597, 2.08167e-17, -0.0649613, -0.0832801, -1.98661, 0.056041, 1.77994, -0.00127251
0.1, -0.0553357, -0.152186, -0.0483623, -0.217759, -0.0447391, 0.253455, 0.16408, 0.0168999, -0.915351, 0.00711808, -2.14682, -0.0105571, 2.57247, 1.13533, 0.468857, -1.75537, 0.448032, -1.5563, 0.500176, 0.311035, 0.536554, -6.93889e-18, -0.0586798, -0.083465, -1.96513, 0.0569382, 1.78039, -0.0012921
0.101, -0.0553657, -0.153072, -0.0483721, -0.219828, -0.0447359, 0.255972, 0.16523, 0.000804135, -0.899335, 0.00310337, -2.12916, -0.0079343, 2.56433, 1.13003, 0.549637, -1.82658, 0.468204, -1.77665, 0.48703, 0.3266, 0.551543, -6.93889e-18, -0.0517641, -0.0836541, -1.94442, 0.0578072, 1.78084, -0.00131194
0.102, -0.0554033, -0.153952, -0.0483909, -0.221922, -0.0447387, 0.258466, 0.16634, -0.0109983, -0.892567, -0.00488828, -2.10515, -0.00468715, 2.54523, 1.12145, 0.609025, -1.85163, 0.508351, -2.16252, 0.470822, 0.397154, 0.583311, 3.46945e-17, -0.0456263, -0.083821, -1.92316, 0.058699, 1.78126, -0.00133114
0.103, -0.0554148, -0.154863, -0.0484162, -0.224009, -0.0447537, 0.260924, 0.167482, -0.0113142, -0.895762, -0.0116088, -2.10998, -0.00782706, 2.53363, 1.12407, 0.610719, -1.82654, 0.542206, -2.54839, 0.486672, 0.430554, 0.558822, 0, -0.0378239, -0.0839916, -1.90256, 0.0595671, 1.78168, -0.0013511
0.104, -0.055425, -0.155776, -0.0484309, -0.226157, -0.0447772, 0.263417, 0.168617, -0.00929971, -0.903734, -0.0109392, -2.12506, -0.0141701, 2.52716, 1.131, 0.600749, -1.77755, 0.539005, -2.93426, 0.518623, 0.437988, 0.512827, 1.04083e-17, -0.0310101, -0.0841609, -1.88093, 0.0604718, 1.78209, -0.00137071
0.105, -0.0554304, -0.156688, -0.0484381, -0.228284, -0.0447984, 0.265885, 0.169762, -0.00891106, -0.908514, -0.0106553, -2.11665, -0.0170085, 2.50854, 1.13548, 0.598859, -1.74453, 0.537657, -2.95866, 0.533027, 0.506405, 0.478953, -1.04083e-17, -0.0238703, -0.084338, -1.85965, 0.0613604, 1.78249, -0.00139058
0.106, -0.0554365, -0.157563, -0.0484593, -0.230298, -0.0448046, 0.268276, 0.170905, -0.00588506, -0.901107, -0.0169258, -2.0923, -0.016172, 2.4793, 1.13775, 0.58379, -1.77282, 0.569222, -3.10342, 0.528905, 0.628686, 0.456171, 0, -0.016588, -0.084494, -1.83968, 0.0622002, 1.78289, -0.00141087
0.107, -0.0554517, -0.158407, -0.0484691, -0.23229, -0.0447883, 0.270633, 0.172017, -0.00998251, -0.888407, -0.0118169, -2.0489, -0.00876263, 2.43331, 1.12949, 0.604429, -1.82788, 0.543776, -3.48929, 0.491696, 0.835109, 0.486344, 3.81639e-17, -0.0103621, -0.0846535, -1.8196, 0.0630422, 1.78328, -0.00143061
0.108, -0.0554576, -0.159281, -0.0484663, -0.234284, -0.0447608, 0.27301, 0.173163, -0.0105726, -0.892198, -0.00715731, -2.03274, 0.00207443, 2.40629, 1.13424, 0.607438, -1.80018, 0.520449, -3.87516, 0.437236, 0.946409, 0.45114, 0, -0.00269665, -0.0848439, -1.8, 0.0638655, 1.78367, -0.0014513
0.109, -0.0554414, -0.160173, -0.0484591, -0.236341, -0.0447351, 0.2754, 0.174275, -0.00163502, -0.900731, -0.00114992, -2.03562, 0.0081678, 2.40454, 1.13043, 0.562589, -1.7486, 0.490341, -4.26103, 0.406512, 0.931246, 0.459085, 4.51028e-17, 0.00470302, -0.085037, -1.7796, 0.0647199, 1.78406, -0.00147142
0.11, -0.0554061, -0.161107, -0.0484378, -0.238515, -0.0447235, 0.277862, 0.175393, 0.00981416, -0.916526, 0.0065201, -2.08037, 0.00633767, 2.4245, 1.12545, 0.50499, -1.66028, 0.451777, -4.6469, 0.415547, 0.806845, 0.472803, -1.38778e-17, 0.0121602, -0.0852472, -1.75792, 0.0656218, 1.78444, -0.00149147
0.111, -0.0553678, -0.162063, -0.0484148, -0.240697, -0.0447178, 0.280347, 0.176516, 0.020529, -0.929384, 0.0111806, -2.12336, 0.0074887, 2.44796, 1.1258, 0.451034, -1.58643, 0.428245, -4.7002, 0.409735, 0.664703, 0.459825, -1.04083e-17, 0.0205055, -0.0854647, -1.73646, 0.0665144, 1.78483, -0.00151203
0.112, -0.0553346, -0.162985, -0.0484028, -0.242868, -0.0447104, 0.282865, 0.177615, 0.0245874, -0.931019, 0.0127516, -2.1387, 0.00663185, 2.4815, 1.12093, 0.430409, -1.56904, 0.42027, -4.0694, 0.413944, 0.471796, 0.473169, 1.04083e-17, 0.0273895, -0.0856497, -1.71459, 0.067423, 1.78522, -0.00153248
0.113, -0.05531, -0.163877, -0.0483881, -0.245, -0.0447053, 0.28535, 0.178718, 0.0232963, -0.913931, 0.0115552, -2.15159, 0.00693928, 2.48883, 1.11245, 0.436619, -1.64556, 0.426104, -3.44529, 0.412357, 0.41032, 0.504572, 0, 0.0335022, -0.0858241, -1.69289, 0.0683213, 1.7856, -0.0015529
0.114, -0.0553036, -0.164761, -0.0483802, -0.247158, -0.0447003, 0.287825, 0.179806, 0.0161764, -0.897918, 0.00832364, -2.15041, 0.00664189, 2.50571, 1.1029, 0.472154, -1.71678, 0.442183, -2.86313, 0.413793, 0.301183, 0.541429, 6.93889e-18, 0.0387976, -0.0859793, -1.67062, 0.0692435, 1.78596, -0.00157295
0.115, -0.0552857, -0.165627, -0.0483787, -0.249329, -0.0447083, 0.290327, 0.180895, 0.0176628, -0.884768, 0.00639431, -2.15019, 0.00296423, 2.51562, 1.09404, 0.464543, -1.77387, 0.451815, -2.52376, 0.432262, 0.226608, 0.574825, 0, 0.0430283, -0.0861084, -1.64782, 0.0701839, 1.78632, -0.00159301
0.116, -0.0552871, -0.166527, -0.0483846, -0.251511, -0.0447289, 0.292779, 0.181989, 0.0105685, -0.883576, 0.00398662, -2.17136, -0.00445371, 2.51749, 1.08753, 0.500028, -1.77083, 0.463913, -2.31874, 0.469557, 0.192745, 0.596421, -2.08167e-17, 0.048654, -0.0862364, -1.62538, 0.0711127, 1.78667, -0.00161328
0.117, -0.0553006, -0.167431, -0.0483993, -0.253713, -0.0447495, 0.295231, 0.183073, -0.000211481, -0.892589, -0.0015996, -2.17652, -0.00968194, 2.50057, 1.08559, 0.554064, -1.71673, 0.491991, -1.8661, 0.495905, 0.252813, 0.595294, -1.38778e-17, 0.0541432, -0.0863486, -1.60268, 0.0720543, 1.78701, -0.00163352
0.118, -0.0553133, -0.168348, -0.0484302, -0.255851, -0.0447651, 0.297641, 0.184152, -0.00394217, -0.903686, -0.0164977, -2.15606, -0.0105313, 2.47366, 1.0809, 0.572844, -1.65207, 0.566791, -1.50838, 0.500308, 0.363248, 0.607981, 6.93889e-18, 0.0613177, -0.0864518, -1.58128, 0.0729512, 1.78736, -0.0016545
0.119, -0.0553417, -0.169265, -0.0484656, -0.257898, -0.0447675, 0.299995, 0.185234, -0.012389, -0.912507, -0.0213655, -2.1226, -0.0110372, 2.44392, 1.07769, 0.615362, -1.59879, 0.591484, -1.60449, 0.502861, 0.488413, 0.613216, 5.55112e-17, 0.0701031, -0.0865621, -1.56146, 0.0737893, 1.78771, -0.00167627
0.12, -0.0553691, -0.170168, -0.0484849, -0.259951, -0.0447656, 0.30239, 0.186302, -0.0164617, -0.912955, -0.0198738, -2.09416, -0.00556325, 2.42978, 1.07913, 0.636, -1.58752, 0.584218, -1.99035, 0.475472, 0.535147, 0.595294, -2.08167e-17, 0.0780883, -0.0866832, -1.54129, 0.0746359, 1.78807, -0.00169793
0.121, -0.0553759, -0.171094, -0.0484939, -0.261992, -0.0447659, 0.304766, 0.187383, -0.010514, -0.914823, -0.0154978, -2.08182, -0.00463454, 2.42621, 1.07781, 0.606329, -1.56893, 0.562428, -2.37622, 0.470832, 0.529253, 0.591097, 0, 0.0873789, -0.0868272, -1.5217, 0.0754575, 1.78843, -0.00172006
0.122, -0.0553653, -0.17202, -0.0485035, -0.264132, -0.0447732, 0.307188, 0.188456, -0.00339189, -0.9187, -0.00912431, -2.09318, -0.00591173, 2.42711, 1.07777, 0.570612, -1.54028, 0.530656, -2.76209, 0.477291, 0.500537, 0.580598, -6.93889e-18, 0.0949772, -0.0869507, -1.50043, 0.0763438, 1.78878, -0.00174157
0.123, -0.0553566, -0.172972, -0.0484934, -0.266321, -0.0447841, 0.30962, 0.189525, -0.000104667, -0.925386, -0.00247405, -2.12173, -0.00779548, 2.42619, 1.06981, 0.554089, -1.49733, 0.497304, -3.14796, 0.486818, 0.480799, 0.609704, 3.46945e-17, 0.102988, -0.087103, -1.47874, 0.0772415, 1.78912, -0.00176289
0.124, -0.0553411, -0.173914, -0.0484946, -0.268441, -0.0447821, 0.312011, 0.190607, 0.00560716, -0.926505, -0.00234709, -2.12229, -0.00467146, 2.42454, 1.0711, 0.525376, -1.48232, 0.496682, -3.14139, 0.471178, 0.465162, 0.592417, -2.08167e-17, 0.111707, -0.0872447, -1.45808, 0.0781036, 1.78946, -0.00178496
0.125, -0.0553328, -0.174833, -0.0484932, -0.270551, -0.0447696, 0.314409, 0.191677, 0.00586136, -0.928156, 6.79858e-05, -2.11599, 0.00201854, 2.41114, 1.07143, 0.524022, -1.46487, 0.484592, -3.12863, 0.437603, 0.508159, 0.580087, 2.08167e-17, 0.119528, -0.0873804, -1.43722, 0.0789724, 1.78979, -0.00180694
0.126, -0.0553207, -0.175773, -0.0484842, -0.272644, -0.0447446, 0.316784, 0.19274, 0.00864584, -0.934741, 0.0031491, -2.11639, 0.00995946, 2.38863, 1.06861, 0.509978, -1.42255, 0.469096, -3.21807, 0.397649, 0.596953, 0.58353, 1.38778e-17, 0.128617, -0.0875403, -1.417, 0.0798179, 1.79013, -0.00182923
0.127, -0.0553, -0.176694, -0.0484742, -0.274767, -0.044723, 0.319119, 0.193805, 0.0137653, -0.93665, 0.00523925, -2.1201, 0.0209237, 2.37227, 1.08365, 0.484173, -1.40378, 0.458546, -3.26677, 0.342612, 0.655416, 0.497659, -3.46945e-17, 0.136362, -0.0876846, -1.39598, 0.0806924, 1.79044, -0.00185085
0.128, -0.0552755, -0.177637, -0.0484655, -0.276942, -0.0447223, 0.321481, 0.194876, 0.0179686, -0.935213, 0.00617252, -2.13601, 0.0131818, 2.35868, 1.08239, 0.462912, -1.40154, 0.453793, -3.23946, 0.381314, 0.699766, 0.49327, -2.77556e-17, 0.144215, -0.08782, -1.37441, 0.081586, 1.79075, -0.00187255
0.129, -0.0552521, -0.17858, -0.0484468, -0.279092, -0.0447195, 0.323785, 0.195942, 0.0203466, -0.930342, 0.00872324, -2.13308, 0.012252, 2.34042, 1.07397, 0.450788, -1.41647, 0.440852, -2.97704, 0.385935, 0.76801, 0.524713, -2.08167e-17, 0.152477, -0.0879714, -1.35327, 0.0824606, 1.79104, -0.00189402
0.13, -0.0552352, -0.179479, -0.0484412, -0.281245, -0.0447251, 0.326141, 0.197002, 0.0190973, -0.917232, 0.00876042, -2.13982, 0.00723657, 2.33678, 1.06634, 0.456865, -1.47303, 0.44061, -2.86118, 0.411068, 0.762663, 0.552258, 2.77556e-17, 0.158592, -0.0880759, -1.33132, 0.0833643, 1.79133, -0.00191544
0.131, -0.0552355, -0.180362, -0.0484427, -0.283281, -0.0447239, 0.328514, 0.198058, 0.00996104, -0.902463, 0.00412091, -2.1085, 0.0069487, 2.34386, 1.05985, 0.50255, -1.53804, 0.463823, -2.68604, 0.412496, 0.703541, 0.574153, 6.93889e-18, 0.165928, -0.0881778, -1.31109, 0.0842022, 1.79166, -0.00193816
0.132, -0.0552505, -0.181253, -0.0484518, -0.285342, -0.0447185, 0.330802, 0.199112, -0.00105168, -0.900701, -0.00132631, -2.09007, 0.00833651, 2.33489, 1.05566, 0.557763, -1.53795, 0.491149, -3.06184, 0.405502, 0.725523, 0.58459, 2.08167e-17, 0.173193, -0.0882665, -1.29058, 0.0850559, 1.79195, -0.00196029
0.133, -0.0552641, -0.182149, -0.0484576, -0.287422, -0.0447218, 0.333137, 0.200173, -0.00732882, -0.905619, -0.00312738, -2.08264, 0.0063351, 2.33383, 1.04754, 0.589285, -1.5044, 0.500213, -3.44771, 0.415542, 0.707434, 0.614575, 1.38778e-17, 0.180387, -0.0883535, -1.26981, 0.0859161, 1.79225, -0.00198282
0.134, -0.0552635, -0.183085, -0.0484719, -0.289515, -0.0447371, 0.335442, 0.201236, -0.00521656, -0.920266, -0.00620335, -2.08401, -0.00118684, 2.33169, 1.04838, 0.578718, -1.4218, 0.515735, -3.83358, 0.453305, 0.695085, 0.599748, 0, 0.189321, -0.0884376, -1.24952, 0.0867611, 1.79255, -0.0020057
0.135, -0.0552644, -0.184036, -0.0484818, -0.291719, -0.0447554, 0.337797, 0.202279, -0.00379531, -0.938159, -0.00650518, -2.12406, -0.00796, 2.33111, 1.05038, 0.57162, -1.32283, 0.517344, -4.14467, 0.487354, 0.674418, 0.579314, 6.93889e-18, 0.197019, -0.0885135, -1.22755, 0.0876703, 1.79283, -0.0020278
0.136, -0.0552711, -0.184979, -0.0484903, -0.293904, -0.0447808, 0.340228, 0.203336, -0.00467085, -0.941039, -0.00541798, -2.13671, -0.0129636, 2.35546, 1.05161, 0.576065, -1.299, 0.511993, -3.71753, 0.512626, 0.528376, 0.56255, 6.245e-17, 0.204643, -0.0885841, -1.20576, 0.0885688, 1.79314, -0.00205083
0.137, -0.0552837, -0.185902, -0.0485088, -0.295991, -0.0447859, 0.342622, 0.204385, -0.00650583, -0.933853, -0.0108514, -2.12822, -0.01257, 2.37363, 1.04496, 0.585366, -1.3257, 0.539345, -3.25999, 0.510709, 0.413583, 0.585331, 1.38778e-17, 0.212971, -0.0886468, -1.1853, 0.0894209, 1.79345, -0.00207462
0.138, -0.0553023, -0.186796, -0.0485134, -0.298098, -0.0447803, 0.344988, 0.205432, -0.00952602, -0.91935, -0.00691649, -2.11999, -0.004994, 2.37516, 1.05039, 0.600654, -1.38927, 0.519717, -3.11, 0.472773, 0.38227, 0.547693, -1.38778e-17, 0.219633, -0.0887159, -1.16404, 0.0902995, 1.79374, -0.00209762
0.139, -0.0553042, -0.187695, -0.0485123, -0.300175, -0.0447758, 0.347256, 0.206484, -0.0082803, -0.907101, -0.00302705, -2.10531, -0.00142559, 2.34871, 1.04921, 0.594444, -1.44153, 0.500259, -3.14492, 0.454886, 0.491859, 0.543112, 2.77556e-17, 0.227024, -0.0887976, -1.14339, 0.0911534, 1.79401, -0.00212038
0.14, -0.0552939, -0.188603, -0.0485091, -0.302312, -0.0447796, 0.349516, 0.207536, -0.000990446, -0.909522, -0.00229329, -2.11348, -0.00220983, 2.32033, 1.05283, 0.557891, -1.42034, 0.496557, -3.39288, 0.458846, 0.611175, 0.514494, -1.38778e-17, 0.233878, -0.0888724, -1.12188, 0.0920385, 1.79426, -0.00214262
0.141, -0.0552776, -0.189549, -0.0484932, -0.30451, -0.0447818, 0.35179, 0.208583, 0.00503387, -0.922328, 0.00405041, -2.13318, -0.00333333, 2.30372, 1.05274, 0.527607, -1.34686, 0.46468, -3.41909, 0.464485, 0.671483, 0.504436, 1.38778e-17, 0.241466, -0.0889733, -1.09995, 0.092939, 1.79451, -0.00216474
0.142, -0.0552634, -0.190491, -0.0484808, -0.306675, -0.0447692, 0.35402, 0.209647, 0.00741773, -0.933938, 0.00604951, -2.14985, 0.0109324, 2.27936, 1.05813, 0.515545, -1.27938, 0.454561, -3.13116, 0.39303, 0.770946, 0.466855, -6.93889e-18, 0.249493, -0.089074, -1.07856, 0.0938224, 1.79475, -0.00218733
0.143, -0.0552516, -0.191404, -0.0484676, -0.30879, -0.0447473, 0.35627, 0.210686, 0.0103021, -0.932539, 0.00735695, -2.13808, 0.0151827, 2.26904, 1.05074, 0.501005, -1.27724, 0.447891, -2.697, 0.371559, 0.80007, 0.493408, 0, 0.256935, -0.0891704, -1.0575, 0.0946918, 1.795, -0.00221003
0.144, -0.055251, -0.1923, -0.0484552, -0.310868, -0.0447121, 0.358538, 0.211743, 0.00530079, -0.917753, 0.0102237, -2.1181, 0.0212645, 2.26494, 1.04874, 0.526006, -1.34222, 0.433434, -2.61197, 0.340798, 0.797888, 0.492858, -1.38778e-17, 0.264174, -0.0892646, -1.03679, 0.0955489, 1.79526, -0.00223355
0.145, -0.0552342, -0.193197, -0.0484351, -0.312995, -0.044678, 0.360766, 0.212762, 0.00720729, -0.905028, 0.0116896, -2.11679, 0.028034, 2.25893, 1.03925, 0.516306, -1.39687, 0.425903, -2.86819, 0.30661, 0.805649, 0.530098, 2.77556e-17, 0.270689, -0.0893632, -1.01529, 0.0964346, 1.7955, -0.00225571
0.146, -0.0552026, -0.194091, -0.0484158, -0.315169, -0.0446775, 0.363072, 0.213806, 0.0157476, -0.90067, 0.0146358, -2.12438, 0.0165541, 2.26734, 1.03806, 0.473289, -1.40972, 0.410979, -3.0457, 0.364005, 0.740517, 0.52564, -2.08167e-17, 0.276186, -0.0894362, -0.992875, 0.0973467, 1.79574, -0.00227819
0.147, -0.0551689, -0.195027, -0.0484033, -0.317384, -0.0446935, 0.365435, 0.214847, 0.0221068, -0.908159, 0.0143215, -2.15014, 0.00778432, 2.30627, 1.03472, 0.441155, -1.36291, 0.412425, -3.03765, 0.408013, 0.522236, 0.531904, 0, 0.283009, -0.0895015, -0.970463, 0.0982596, 1.79599, -0.00230133
0.148, -0.0551537, -0.195957, -0.0483902, -0.319636, -0.044719, 0.36786, 0.215854, 0.019573, -0.915019, 0.014383, -2.18623, -0.00251535, 2.34793, 1.02701, 0.453672, -1.31931, 0.411987, -2.63512, 0.459767, 0.289684, 0.560405, -6.93889e-18, 0.288857, -0.0895524, -0.947278, 0.0991988, 1.79624, -0.00232402
0.149, -0.0551567, -0.19689, -0.0484074, -0.321813, -0.0447214, 0.370242, 0.216861, 0.0109112, -0.920022, 0.0013245, -2.17663, 0.000224683, 2.35586, 1.01605, 0.497011, -1.28498, 0.477452, -1.83084, 0.446091, 0.226228, 0.605135, 0, 0.296116, -0.089567, -0.925438, 0.100101, 1.79651, -0.00234787
0.15, -0.0551982, -0.197805, -0.0484194, -0.323904, -0.0447288, 0.372557, 0.217862, -0.00714895, -0.921008, -0.00204191, -2.15723, 0.000991056, 2.35354, 1.00855, 0.587727, -1.27089, 0.494404, -1.48514, 0.442332, 0.214704, 0.632629, -3.46945e-17, 0.304024, -0.0895919, -0.904772, 0.100954, 1.79676, -0.00237181
0.151, -0.0552234, -0.198704, -0.0484331, -0.326014, -0.0447393, 0.374823, 0.218875, -0.0145305, -0.924027, -0.00612378, -2.13571, -0.000505492, 2.31866, 1.00864, 0.624886, -1.2468, 0.51495, -1.57229, 0.44992, 0.366424, 0.622019, 6.93889e-18, 0.310851, -0.089599, -0.883537, 0.101828, 1.797, -0.00239521
0.152, -0.0552324, -0.199628, -0.0484522, -0.328085, -0.0447543, 0.37705, 0.219886, -0.0176071, -0.925133, -0.00955684, -2.11358, -0.00443294, 2.2869, 1.00723, 0.64036, -1.23203, 0.532307, -1.95787, 0.469708, 0.502947, 0.618968, 1.38778e-17, 0.319561, -0.0896085, -0.863392, 0.102662, 1.79724, -0.00241919
0.153, -0.0552299, -0.200557, -0.0484512, -0.330227, -0.0447843, 0.379334, 0.220868, -0.0100341, -0.927586, -0.00481604, -2.12244, -0.0125377, 2.26976, 1.00189, 0.60247, -1.21048, 0.508592, -2.34374, 0.510531, 0.5658, 0.63583, -6.93889e-18, 0.327242, -0.0896367, -0.842083, 0.10353, 1.79748, -0.00244224
0.154, -0.0552335, -0.201494, -0.048451, -0.332365, -0.0448047, 0.381656, 0.221866, -0.00617702, -0.928678, -0.00118589, -2.11791, -0.0149688, 2.28431, 0.998697, 0.58322, -1.19565, 0.49044, -2.63648, 0.522891, 0.469849, 0.641833, -6.93889e-18, 0.335395, -0.089667, -0.820985, 0.104393, 1.79772, -0.00246624
0.155, -0.0552325, -0.202411, -0.048457, -0.334419, -0.044793, 0.383887, 0.222848, -0.00493932, -0.921575, -0.000594419, -2.10325, -0.00485767, 2.26776, 0.98609, 0.577022, -1.222, 0.487542, -2.88624, 0.472218, 0.530299, 0.695052, -6.93889e-18, 0.344035, -0.0896995, -0.80101, 0.105221, 1.79796, -0.00249032
0.156, -0.0552431, -0.203301, -0.0484501, -0.33645, -0.0447673, 0.386071, 0.223823, -0.00645374, -0.910879, 0.00272052, -2.07596, 0.00680794, 2.23309, 0.988794, 0.5847, -1.26658, 0.470898, -3.26579, 0.413634, 0.68178, 0.671782, 6.245e-17, 0.351818, -0.0897508, -0.781, 0.106047, 1.79818, -0.00251384
0.157, -0.0552426, -0.204218, -0.0484293, -0.33847, -0.0447383, 0.388251, 0.22481, -0.00340186, -0.912599, 0.00906978, -2.06069, 0.0219897, 2.21484, 0.988225, 0.569435, -1.2488, 0.438944, -3.65166, 0.337434, 0.75123, 0.664758, -2.77556e-17, 0.361099, -0.0898407, -0.761647, 0.106846, 1.79841, -0.002538
0.158, -0.0552024, -0.205129, -0.0484148, -0.340537, -0.0447244, 0.390433, 0.225783, 0.0105646, -0.921296, 0.0103054, -2.06185, 0.0219855, 2.21236, 0.989399, 0.499201, -1.19621, 0.432622, -4.03753, 0.337317, 0.741827, 0.649157, -1.38778e-17, 0.369261, -0.0899, -0.741373, 0.107678, 1.79863, -0.00256141
0.159, -0.0551591, -0.206073, -0.0483847, -0.342702, -0.044714, 0.392675, 0.226758, 0.026101, -0.934573, 0.0177551, -2.09022, 0.0218613, 2.21754, 0.987371, 0.421085, -1.12039, 0.395072, -4.4234, 0.337833, 0.693503, 0.649543, -1.38778e-17, 0.377318, -0.0899834, -0.719955, 0.108549, 1.79884, -0.00258462
0.16, -0.055131, -0.207022, -0.0483509, -0.344895, -0.0447082, 0.394916, 0.22775, 0.0293157, -0.938836, 0.023589, -2.13992, 0.0159163, 2.23367, 0.985307, 0.404731, -1.08958, 0.365564, -4.411, 0.3675, 0.590465, 0.649951, -6.93889e-18, 0.385191, -0.0900677, -0.698169, 0.109432, 1.79905, -0.00260784
0.161, -0.0551052, -0.207935, -0.0483446, -0.347062, -0.0447065, 0.397228, 0.228728, 0.0296132, -0.930719, 0.0200571, -2.1489, 0.0114649, 2.26453, 0.986536, 0.402986, -1.12104, 0.38316, -3.63627, 0.38974, 0.413047, 0.634021, -4.16334e-17, 0.391681, -0.0900817, -0.676168, 0.110329, 1.79927, -0.0026317
0.162, -0.0551031, -0.208841, -0.0483477, -0.349185, -0.0446876, 0.399489, 0.229707, 0.0192255, -0.915708, 0.0119318, -2.15268, 0.0154385, 2.2609, 0.982502, 0.454904, -1.18703, 0.423818, -3.02179, 0.369684, 0.40859, 0.644396, 0, 0.398628, -0.090085, -0.654821, 0.111207, 1.79948, -0.0026559
0.163, -0.0551131, -0.209729, -0.0483403, -0.35133, -0.0446845, 0.401677, 0.230681, 0.0108222, -0.902076, 0.00776091, -2.14825, 0.0120951, 2.24179, 0.989652, 0.49702, -1.24631, 0.444598, -2.5862, 0.38637, 0.482262, 0.598909, -6.93889e-18, 0.404317, -0.0900894, -0.632787, 0.112103, 1.79967, -0.00267867
0.164, -0.0551063, -0.210613, -0.0483481, -0.353477, -0.0447063, 0.403914, 0.231667, 0.00736957, -0.89231, -7.53839e-05, -2.14546, 0.00126902, 2.23662, 0.984708, 0.514216, -1.2863, 0.483858, -2.387, 0.440718, 0.485706, 0.613766, -1.38778e-17, 0.409761, -0.0900483, -0.610625, 0.113001, 1.79986, -0.00270208
0.165, -0.0550982, -0.211532, -0.048355, -0.355628, -0.0447429, 0.406126, 0.232662, 0.00847554, -0.900444, -0.00435846, -2.156, -0.0110569, 2.23952, 0.984893, 0.508604, -1.23645, 0.505343, -2.30775, 0.502714, 0.449105, 0.602895, 1.38778e-17, 0.416789, -0.0900138, -0.588977, 0.113878, 1.80005, -0.00272581
0.166, -0.0551101, -0.212441, -0.0483629, -0.357822, -0.0447644, 0.408315, 0.23364, 0.00330435, -0.909286, -0.0066936, -2.15845, -0.0132382, 2.22589, 0.987379, 0.53458, -1.18314, 0.517097, -2.09637, 0.513835, 0.495352, 0.58069, 0, 0.42266, -0.0899686, -0.56646, 0.114791, 1.80023, -0.00274866
0.167, -0.055141, -0.213358, -0.0483757, -0.359966, -0.0447757, 0.410489, 0.234613, -0.00484336, -0.916409, -0.00825459, -2.14974, -0.009962, 2.20277, 0.981485, 0.575627, -1.13836, 0.52503, -1.92878, 0.497567, 0.589208, 0.600424, 4.85723e-17, 0.429768, -0.0899252, -0.544933, 0.115672, 1.80041, -0.00277227
0.168, -0.0551707, -0.214262, -0.0483978, -0.362013, -0.04478, 0.412603, 0.235614, -0.0178698, -0.915741, -0.0118737, -2.12462, -0.00500145, 2.1788, 0.989262, 0.641056, -1.13266, 0.543347, -1.96024, 0.472807, 0.687937, 0.551535, 1.38778e-17, 0.43789, -0.0898723, -0.52485, 0.116501, 1.8006, -0.00279701
0.169, -0.0551843, -0.215159, -0.0484045, -0.36406, -0.0447609, 0.414708, 0.236587, -0.0146299, -0.912846, -0.00830886, -2.08546, 0.00410932, 2.14393, 0.98952, 0.624992, -1.13816, 0.52559, -2.34611, 0.427062, 0.841253, 0.540511, 1.38778e-17, 0.445742, -0.089855, -0.504676, 0.117334, 1.80078, -0.00282124
0.17, -0.0551835, -0.216081, -0.0483946, -0.366114, -0.0447607, 0.416895, 0.237551, -0.00904136, -0.910728, -0.00317889, -2.08102, 0.0104275, 2.15541, 0.982169, 0.597042, -1.13953, 0.49984, -2.73198, 0.395469, 0.761965, 0.56762, -6.93889e-18, 0.45462, -0.0898713, -0.48478, 0.118145, 1.80098, -0.00284615
0.171, -0.0551489, -0.217007, -0.0483809, -0.368228, -0.0447693, 0.41915, 0.238536, 0.00796257, -0.921104, 0.00365782, -2.08619, 0.00323549, 2.20204, 0.989843, 0.511676, -1.07839, 0.46552, -3.11784, 0.431516, 0.506282, 0.519404, -5.55112e-17, 0.462671, -0.0898802, -0.463911, 0.11899, 1.80118, -0.00287134
0.172, -0.0551127, -0.217955, -0.0483657, -0.370423, -0.044769, 0.421437, 0.239508, 0.018121, -0.929115, 0.00714257, -2.11322, 0.00233683, 2.22938, 0.983378, 0.460522, -1.02886, 0.447944, -3.50371, 0.436005, 0.346698, 0.542012, 6.93889e-18, 0.470369, -0.0898875, -0.442015, 0.119877, 1.80137, -0.00289613
0.173, -0.0550966, -0.21888, -0.0483433, -0.372564, -0.0447548, 0.423638, 0.240485, 0.0186549, -0.92346, 0.013695, -2.12695, 0.0065671, 2.22778, 0.983031, 0.457691, -1.04788, 0.414958, -3.49118, 0.414712, 0.332704, 0.533978, 6.93889e-18, 0.477915, -0.0899135, -0.420675, 0.120742, 1.80155, -0.00292064
0.174, -0.0550898, -0.219756, -0.0483395, -0.374659, -0.0447363, 0.425821, 0.241467, 0.0145609, -0.911141, 0.00866906, -2.11966, 0.0118819, 2.21963, 0.989485, 0.478094, -1.10072, 0.44005, -3.27148, 0.387954, 0.351594, 0.491889, -6.93889e-18, 0.483896, -0.0898865, -0.399303, 0.121612, 1.80173, -0.00294527
0.175, -0.0550848, -0.220652, -0.0483278, -0.376716, -0.0447223, 0.42795, 0.242435, 0.0109351, -0.905099, 0.00777691, -2.1061, 0.0132015, 2.18668, 0.981991, 0.496172, -1.12196, 0.444393, -3.24921, 0.381215, 0.495045, 0.519672, 2.77556e-17, 0.491493, -0.0898876, -0.378922, 0.122442, 1.8019, -0.00296989
0.176, -0.0550655, -0.22156, -0.0483282, -0.37881, -0.0447123, 0.430027, 0.243411, 0.0139505, -0.91024, 0.00232106, -2.09111, 0.011371, 2.16342, 0.989094, 0.480902, -1.08718, 0.471677, -3.44478, 0.390268, 0.590586, 0.474399, 5.55112e-17, 0.499044, -0.0898557, -0.358118, 0.123293, 1.80206, -0.00299406
0.177, -0.0550504, -0.222476, -0.048319, -0.380944, -0.0447153, 0.432141, 0.244389, 0.0148852, -0.9131, 0.00474471, -2.10421, 0.00426927, 2.13986, 0.98659, 0.476078, -1.06372, 0.459466, -3.7963, 0.425807, 0.687237, 0.477146, 0, 0.506237, -0.0898328, -0.336737, 0.124158, 1.80221, -0.00301808
0.178, -0.0550426, -0.223405, -0.0483105, -0.383081, -0.0447324, 0.434224, 0.245371, 0.0100526, -0.920313, 0.00769707, -2.12197, -0.00355377, 2.12012, 0.984484, 0.500164, -1.01837, 0.444619, -3.80985, 0.465093, 0.76512, 0.477854, 0, 0.514024, -0.0898048, -0.315521, 0.125014, 1.80236, -0.00304199
0.179, -0.0550506, -0.224321, -0.0483225, -0.385254, -0.0447303, 0.436344, 0.24633, 0.00143925, -0.919775, 0.000339692, -2.13911, -0.000794366, 2.11342, 0.976186, 0.543309, -1.01189, 0.481526, -3.54412, 0.451275, 0.777411, 0.509748, 2.77556e-17, 0.520605, -0.0897231, -0.293483, 0.125913, 1.80251, -0.00306581
0.18, -0.0550659, -0.225226, -0.0483409, -0.387334, -0.0447271, 0.438478, 0.24731, -0.00621222, -0.911014, -0.00598896, -2.12355, 0.00194006, 2.11697, 0.976757, 0.58172, -1.04665, 0.513354, -3.11636, 0.43757, 0.738341, 0.497101, 1.38778e-17, 0.528221, -0.0896353, -0.272852, 0.12676, 1.80267, -0.00309131
0.181, -0.0550844, -0.226113, -0.048353, -0.389418, -0.0447259, 0.440582, 0.248277, -0.0115155, -0.899377, -0.00788859, -2.11302, 0.00218768, 2.11143, 0.978058, 0.608422, -1.09597, 0.522973, -3.09383, 0.43632, 0.744992, 0.480925, -2.77556e-17, 0.534879, -0.0895502, -0.251827, 0.127617, 1.80283, -0.00311597
0.182, -0.0550831, -0.226998, -0.0483531, -0.39151, -0.0447308, 0.442729, 0.249249, -0.00678099, -0.892799, -0.00439934, -2.09716, 1.43447e-06, 2.12253, 0.976039, 0.584735, -1.12001, 0.505527, -3.24255, 0.447301, 0.668034, 0.481296, -2.77556e-17, 0.541312, -0.0894852, -0.230636, 0.128474, 1.80298, -0.00314088
0.183, -0.0550678, -0.227911, -0.0483559, -0.393602, -0.0447473, 0.444886, 0.250228, 0.00151066, -0.896614, -0.00277531, -2.09279, -0.00648325, 2.14862, 0.981227, 0.543125, -1.09181, 0.497435, -3.57872, 0.479889, 0.51601, 0.445566, -4.16334e-17, 0.549075, -0.0894165, -0.209903, 0.129312, 1.80315, -0.00316649
0.184, -0.055058, -0.228851, -0.0483541, -0.395786, -0.0447586, 0.447082, 0.251181, 0.00467218, -0.916631, -0.00252971, -2.12701, -0.00843933, 2.16701, 0.974008, 0.527219, -0.982313, 0.49619, -3.85263, 0.489783, 0.402076, 0.472132, -4.16334e-17, 0.556601, -0.0893513, -0.18806, 0.130194, 1.8033, -0.00319139
0.185, -0.0550667, -0.22981, -0.0483539, -0.397991, -0.0447732, 0.449293, 0.252146, -0.000307736, -0.936055, -0.00120803, -2.1492, -0.00951095, 2.17555, 0.970181, 0.552206, -0.875607, 0.489579, -3.49262, 0.495287, 0.337287, 0.481618, -5.55112e-17, 0.564623, -0.0892806, -0.166161, 0.131078, 1.80346, -0.00321674
0.186, -0.055075, -0.230753, -0.0483754, -0.400082, -0.0447708, 0.451456, 0.253101, -0.00309686, -0.940633, -0.0086363, -2.13402, -0.00775096, 2.18087, 0.960679, 0.566235, -0.843289, 0.526936, -2.92894, 0.486463, 0.289044, 0.519582, 0, 0.573864, -0.0891763, -0.145974, 0.13191, 1.80362, -0.00324324
0.187, -0.055096, -0.231661, -0.0483807, -0.402163, -0.0447563, 0.453603, 0.254037, -0.00905905, -0.932911, -0.00706024, -2.11785, 8.00677e-05, 2.17058, 0.957514, 0.596255, -0.872814, 0.519108, -2.81716, 0.447163, 0.319046, 0.526043, 5.55112e-17, 0.58163, -0.0891018, -0.125374, 0.132752, 1.80378, -0.00326885
0.188, -0.0551002, -0.232561, -0.0483706, -0.404209, -0.0447546, 0.455761, 0.254986, -0.00909872, -0.918879, -0.00125257, -2.09996, -0.000436139, 2.15839, 0.951221, 0.596495, -0.933977, 0.489969, -2.99805, 0.449726, 0.358404, 0.548015, 2.77556e-17, 0.589556, -0.0890595, -0.105219, 0.133566, 1.80393, -0.00329488
0.189, -0.0550647, -0.233464, -0.0483672, -0.406305, -0.044763, 0.457896, 0.255911, 0.00670076, -0.911804, 0.000317222, -2.0943, -0.00464214, 2.1547, 0.939316, 0.517143, -0.960323, 0.482086, -3.38392, 0.470841, 0.355515, 0.598289, 1.38778e-17, 0.596761, -0.0889861, -0.084243, 0.134411, 1.80408, -0.00331973
0.19, -0.0550393, -0.234375, -0.048353, -0.408478, -0.0447656, 0.460037, 0.256832, 0.0124645, -0.910996, 0.00490376, -2.11751, -0.00562926, 2.14607, 0.937098, 0.48807, -0.955249, 0.459012, -3.70955, 0.475802, 0.377255, 0.600171, 2.77556e-17, 0.603093, -0.0889279, -0.062114, 0.135297, 1.80421, -0.0033437
0.191, -0.055038, -0.235302, -0.0483297, -0.410645, -0.0447608, 0.462082, 0.257768, 0.0101831, -0.913743, 0.0110341, -2.13921, -0.00170339, 2.11958, 0.931778, 0.499465, -0.932246, 0.428126, -3.55136, 0.456125, 0.489225, 0.617415, 2.77556e-17, 0.610256, -0.0888999, -0.0403503, 0.13617, 1.80433, -0.00336726
0.192, -0.0550428, -0.236191, -0.0483346, -0.41278, -0.0447522, 0.464116, 0.258664, 0.00342656, -0.907637, 0.00427074, -2.13689, 0.00287682, 2.08148, 0.925252, 0.533295, -0.953883, 0.461992, -3.11933, 0.433138, 0.659409, 0.64108, 0, 0.616156, -0.0887925, -0.018491, 0.137055, 1.80445, -0.00339036
0.193, -0.0550403, -0.237089, -0.0483438, -0.414838, -0.0447339, 0.466149, 0.259581, 0.00120116, -0.90814, -0.000696454, -2.11208, 0.00836041, 2.04881, 0.919994, 0.544397, -0.942393, 0.48692, -2.88969, 0.405537, 0.802449, 0.658203, 0, 0.623811, -0.088693, 0.00187279, 0.137889, 1.80458, -0.00341522
0.194, -0.0550377, -0.238008, -0.048338, -0.41695, -0.0447149, 0.468163, 0.260482, 0.000336375, -0.917703, 0.00128608, -2.11241, 0.010948, 2.04074, 0.91129, 0.548695, -0.88539, 0.47695, -3.13165, 0.392409, 0.82264, 0.692714, -2.77556e-17, 0.631557, -0.0886263, 0.022805, 0.138741, 1.8047, -0.00343911
0.195, -0.055013, -0.238926, -0.0483342, -0.419077, -0.044712, 0.470223, 0.261383, 0.00734651, -0.92008, 0.00205417, -2.10885, 0.00576854, 2.04678, 0.91099, 0.513398, -0.864323, 0.473072, -3.27513, 0.418278, 0.771831, 0.685205, -4.16334e-17, 0.638963, -0.0885413, 0.0440471, 0.139599, 1.80482, -0.0034632
0.196, -0.0549848, -0.239872, -0.0483269, -0.421229, -0.0447227, 0.472298, 0.262292, 0.0156566, -0.927346, 0.00377507, -2.12668, -0.0016083, 2.05696, 0.909599, 0.471565, -0.818529, 0.464394, -3.41823, 0.455268, 0.700205, 0.68307, 0, 0.647328, -0.0884623, 0.0652297, 0.14045, 1.80495, -0.00348762
0.197, -0.054982, -0.240814, -0.0483216, -0.423463, -0.0447273, 0.474426, 0.263185, 0.0096212, -0.933126, 0.00427453, -2.16776, -0.00326381, 2.08678, 0.907089, 0.501714, -0.78021, 0.461844, -3.23085, 0.463592, 0.529793, 0.686687, -1.38778e-17, 0.654051, -0.0883602, 0.0879083, 0.14136, 1.80507, -0.00351134
0.198, -0.0549878, -0.241747, -0.048332, -0.425608, -0.044726, 0.476576, 0.264085, 0.00496681, -0.934064, -0.00133047, -2.16872, 0.000181603, 2.10572, 0.904209, 0.525044, -0.766193, 0.489973, -2.48184, 0.446352, 0.41359, 0.692087, 4.16334e-17, 0.661842, -0.0882297, 0.109221, 0.142226, 1.8052, -0.00353685
0.199, -0.0550108, -0.242663, -0.0483549, -0.427713, -0.0447246, 0.478668, 0.264991, -0.00628907, -0.925845, -0.00803578, -2.14751, 0.00227913, 2.10575, 0.910256, 0.581554, -0.798127, 0.523728, -2.00698, 0.43585, 0.39252, 0.652795, 0, 0.669529, -0.0880646, 0.13012, 0.143079, 1.80532, -0.00356236
0.2, -0.0550275, -0.243546, -0.0483645, -0.429818, -0.0447334, 0.480728, 0.26589, -0.0109289, -0.910967, -0.0139211, -2.12215, -0.000863234, 2.09588, 0.900056, 0.60492, -0.863688, 0.55325, -2.04276, 0.45165, 0.421288, 0.694803, 2.77556e-17, 0.675606, -0.0879154, 0.151586, 0.143943, 1.80544, -0.00358664
0.201, -0.055033, -0.244449, -0.0483857, -0.431907, -0.0447432, 0.482725, 0.266818, -0.00936842, -0.907229, -0.0182397, -2.12205, -0.00471911, 2.06823, 0.907933, 0.597172, -0.873348, 0.575056, -2.42863, 0.471027, 0.539543, 0.646137, 1.38778e-17, 0.682956, -0.0877411, 0.172421, 0.144788, 1.80555, -0.00361152
0.202, -0.055026, -0.245349, -0.0483896, -0.434057, -0.0447735, 0.484752, 0.267719, -0.00319058, -0.909485, -0.0128057, -2.12512, -0.0135611, 2.05027, 0.910595, 0.566213, -0.853066, 0.547924, -2.69466, 0.515541, 0.609096, 0.623816, 4.16334e-17, 0.689077, -0.0875886, 0.194389, 0.145661, 1.80565, -0.00363495
0.203, -0.0550361, -0.246276, -0.0483934, -0.43624, -0.0447901, 0.486793, 0.268632, -0.00375666, -0.918238, -0.00846481, -2.13502, -0.0135883, 2.04789, 0.908546, 0.569144, -0.800031, 0.526258, -2.81063, 0.515842, 0.600568, 0.624927, 0, 0.695947, -0.0874413, 0.21645, 0.146545, 1.80575, -0.00365898
0.204, -0.0550552, -0.247199, -0.0484048, -0.438361, -0.0447942, 0.488807, 0.269554, -0.00825074, -0.913604, -0.0108586, -2.14162, -0.0126605, 2.03612, 0.907818, 0.591806, -0.813966, 0.538341, -2.72912, 0.511244, 0.639306, 0.619351, 6.93889e-17, 0.703715, -0.0872863, 0.237498, 0.147396, 1.80586, -0.00368398
0.205, -0.0550721, -0.248086, -0.0484179, -0.440437, -0.0447829, 0.490842, 0.270445, -0.0101582, -0.902343, -0.0138491, -2.1134, -0.00320404, 2.03042, 0.900767, 0.601512, -0.861409, 0.553425, -2.57716, 0.46385, 0.647449, 0.645695, -5.55112e-17, 0.710461, -0.0871262, 0.258403, 0.148245, 1.80597, -0.00370899
0.206, -0.0550789, -0.24898, -0.0484161, -0.442443, -0.0447608, 0.492856, 0.271361, -0.00727259, -0.893919, -0.011176, -2.08112, 0.00452084, 2.02007, 0.90229, 0.587152, -0.894586, 0.540042, -2.91939, 0.425003, 0.679032, 0.628921, 5.55112e-17, 0.718832, -0.0870255, 0.277932, 0.14904, 1.80608, -0.0037353
0.207, -0.0550567, -0.249869, -0.0483997, -0.444494, -0.0447624, 0.494854, 0.272269, 0.00456689, -0.889533, -0.00472245, -2.07189, 0.00102989, 2.01323, 0.908585, 0.527733, -0.907626, 0.507609, -3.30526, 0.442475, 0.693293, 0.58837, -1.38778e-17, 0.726156, -0.0869422, 0.298347, 0.149853, 1.80619, -0.00376016
0.208, -0.0550145, -0.250789, -0.0483755, -0.446588, -0.0447633, 0.496928, 0.273178, 0.0178318, -0.896081, 0.00373478, -2.06988, -0.00229338, 2.03551, 0.901888, 0.460986, -0.865686, 0.465082, -3.69113, 0.4591, 0.561157, 0.612761, 1.38778e-17, 0.734237, -0.0868802, 0.318984, 0.150673, 1.8063, -0.00378582
0.209, -0.0549828, -0.251741, -0.0483567, -0.448742, -0.04476, 0.49899, 0.274089, 0.0243759, -0.911189, 0.00969455, -2.10536, -0.00141574, 2.06006, 0.905124, 0.427948, -0.780625, 0.435095, -4.07699, 0.454679, 0.417781, 0.587473, -4.16334e-17, 0.742833, -0.0868016, 0.340095, 0.151517, 1.8064, -0.00381128
0.21, -0.0549764, -0.252658, -0.0483442, -0.450879, -0.0447514, 0.501044, 0.274991, 0.0185277, -0.919714, 0.00922894, -2.10756, 0.00262514, 2.05248, 0.902785, 0.457125, -0.728833, 0.437297, -3.96449, 0.434388, 0.435129, 0.590149, -6.93889e-17, 0.749989, -0.0866967, 0.361536, 0.152375, 1.8065, -0.00383635
0.211, -0.0549808, -0.253577, -0.0483476, -0.452946, -0.0447378, 0.503084, 0.275895, 0.0105691, -0.920848, 0.00303014, -2.10604, 0.0075464, 2.04435, 0.906028, 0.496962, -0.713974, 0.468325, -3.86157, 0.409646, 0.45537, 0.564893, 2.77556e-17, 0.758447, -0.0865601, 0.381732, 0.153195, 1.80661, -0.00386272
0.212, -0.0549897, -0.254489, -0.048354, -0.455024, -0.0447196, 0.505031, 0.276794, 0.00125351, -0.919862, -0.00227061, -2.09198, 0.0104039, 2.01561, 0.90575, 0.543629, -0.709783, 0.494893, -3.82174, 0.395177, 0.57958, 0.557288, -2.77556e-17, 0.766446, -0.0864101, 0.40219, 0.154027, 1.8067, -0.00388783
0.213, -0.0549807, -0.255369, -0.0483537, -0.457124, -0.0447197, 0.506994, 0.27771, 0.00240738, -0.90732, -0.00215651, -2.0879, 0.00560812, 1.98753, 0.90481, 0.537771, -0.763694, 0.494319, -4.01431, 0.419156, 0.700365, 0.552836, -2.77556e-17, 0.772452, -0.086253, 0.423631, 0.154883, 1.80679, -0.00391228
0.214, -0.0549573, -0.256276, -0.048353, -0.459218, -0.0447341, 0.508954, 0.278624, 0.00844462, -0.903288, -0.00150215, -2.08273, -0.00259769, 1.98355, 0.909371, 0.50735, -0.774783, 0.491041, -4.19557, 0.46033, 0.700659, 0.520885, -8.32667e-17, 0.779911, -0.0860981, 0.44448, 0.155714, 1.80687, -0.00393716
0.215, -0.0549553, -0.257185, -0.0483407, -0.461394, -0.0447521, 0.510928, 0.279523, 0.00468099, -0.901583, 0.00368312, -2.11298, -0.00717924, 1.98138, 0.907389, 0.526148, -0.774217, 0.464991, -4.38669, 0.483417, 0.69176, 0.521804, 2.77556e-17, 0.786, -0.0859567, 0.466739, 0.156591, 1.80695, -0.0039606
0.216, -0.054971, -0.258104, -0.048345, -0.463595, -0.0447513, 0.512914, 0.280435, -0.00253261, -0.906037, 0.00121272, -2.14177, -0.00327686, 1.96778, 0.906239, 0.562373, -0.74276, 0.477386, -4.03712, 0.463897, 0.739906, 0.518441, -2.77556e-17, 0.792152, -0.0857698, 0.48925, 0.157491, 1.80703, -0.00398477
0.217, -0.0549932, -0.259008, -0.048361, -0.465691, -0.0447466, 0.514891, 0.281327, -0.00915323, -0.899306, -0.00450843, -2.13008, 0.000854753, 1.96167, 0.904495, 0.595698, -0.76737, 0.506153, -3.3781, 0.443192, 0.750705, 0.51824, -8.32667e-17, 0.799432, -0.0855633, 0.510187, 0.158338, 1.80712, -0.00401006
0.218, -0.055011, -0.259872, -0.0483758, -0.467801, -0.044739, 0.51686, 0.282232, -0.0112832, -0.887784, -0.00720211, -2.12837, 0.00357836, 1.95616, 0.909359, 0.606526, -0.81634, 0.519768, -3.15387, 0.429498, 0.758588, 0.484863, -1.38778e-17, 0.804499, -0.0853425, 0.532066, 0.159218, 1.80719, -0.00403468
0.219, -0.055019, -0.260776, -0.0483681, -0.469898, -0.0447369, 0.518816, 0.283141, -0.00920382, -0.893095, -0.00129023, -2.12076, 0.00217513, 1.9528, 0.903846, 0.596209, -0.780746, 0.490132, -3.04241, 0.436494, 0.755818, 0.503343, 4.16334e-17, 0.811723, -0.0851995, 0.553031, 0.160053, 1.80727, -0.00405975
0.22, -0.0549891, -0.26168, -0.0483654, -0.472034, -0.0447504, 0.520791, 0.284042, 0.00561832, -0.90685, 0.000334799, -2.11698, -0.00442131, 1.97487, 0.902585, 0.5218, -0.702929, 0.48198, -3.09145, 0.469611, 0.625688, 0.500637, 0, 0.818264, -0.0850234, 0.57468, 0.160911, 1.80735, -0.00408429
0.221, -0.0549661, -0.26261, -0.0483527, -0.474253, -0.0447646, 0.522838, 0.284963, 0.0120508, -0.920637, 0.00383387, -2.1505, -0.00813947, 1.9953, 0.905646, 0.489407, -0.624703, 0.464358, -3.18002, 0.488344, 0.503071, 0.476121, -5.55112e-17, 0.82458, -0.0848648, 0.597353, 0.161802, 1.80743, -0.00410919
0.222, -0.0549694, -0.263547, -0.0483415, -0.476439, -0.0447661, 0.524887, 0.285869, 0.0119631, -0.926351, 0.00607594, -2.16338, -0.00502236, 2.0203, 0.905814, 0.489878, -0.586758, 0.453036, -2.71692, 0.472773, 0.357606, 0.466225, 1.38778e-17, 0.831869, -0.0847145, 0.61929, 0.162673, 1.80751, -0.00413474
0.223, -0.0549817, -0.264426, -0.048357, -0.478564, -0.044754, 0.526938, 0.286764, 0.00570359, -0.91365, -0.00189354, -2.1472, 0.0020749, 2.03152, 0.901161, 0.521299, -0.641469, 0.493038, -2.23384, 0.437165, 0.280968, 0.480534, -6.93889e-17, 0.837397, -0.0844795, 0.641183, 0.163553, 1.8076, -0.00416066
0.224, -0.0550022, -0.265315, -0.0483546, -0.480605, -0.044741, 0.528956, 0.287674, -0.00369608, -0.900198, 0.00234416, -2.11973, 0.00616269, 2.02838, 0.90153, 0.568503, -0.699843, 0.471825, -2.1869, 0.416597, 0.27649, 0.469587, 6.93889e-17, 0.844844, -0.0843182, 0.661436, 0.164365, 1.80768, -0.00418769
0.225, -0.0550009, -0.266212, -0.0483507, -0.482677, -0.0447356, 0.530891, 0.288564, -0.00196298, -0.894561, 0.00302092, -2.09744, 0.014156, 2.01018, 0.899094, 0.559824, -0.719057, 0.468402, -2.57276, 0.376576, 0.348175, 0.472874, -5.55112e-17, 0.852187, -0.0841521, 0.682075, 0.165189, 1.80776, -0.00421296
0.226, -0.0549656, -0.267108, -0.0483487, -0.484764, -0.0447466, 0.532837, 0.289483, 0.0114098, -0.893045, 0.00285235, -2.08774, 0.00986212, 1.98373, 0.908167, 0.492607, -0.71767, 0.469225, -2.95863, 0.398155, 0.460928, 0.418311, -9.71445e-17, 0.859195, -0.0839659, 0.703016, 0.166018, 1.80783, -0.00423855
0.227, -0.0549416, -0.268039, -0.0483361, -0.486875, -0.0447621, 0.534793, 0.290381, 0.016055, -0.900419, 0.00621925, -2.09344, 0.000823149, 1.97635, 0.895511, 0.469142, -0.671495, 0.452265, -3.3445, 0.443506, 0.478296, 0.472611, -8.32667e-17, 0.867461, -0.0838142, 0.723765, 0.166836, 1.8079, -0.00426398
0.228, -0.0549409, -0.268952, -0.0483202, -0.48902, -0.0447624, 0.536775, 0.291268, 0.0129262, -0.905649, 0.00954208, -2.10875, -0.00647366, 1.972, 0.895526, 0.484778, -0.636212, 0.435492, -3.69867, 0.479993, 0.480227, 0.463669, -6.93889e-17, 0.874289, -0.0836653, 0.74541, 0.16769, 1.80797, -0.00428892
0.229, -0.0549622, -0.269867, -0.0483251, -0.491122, -0.0447457, 0.538745, 0.292155, 0.000777023, -0.911815, 0.00412098, -2.10848, -0.000998496, 1.96461, 0.893204, 0.545737, -0.596236, 0.462646, -3.67983, 0.45245, 0.497471, 0.466409, -1.38778e-17, 0.881931, -0.0834646, 0.766274, 0.16853, 1.80805, -0.00431501
0.23, -0.0549801, -0.270748, -0.0483294, -0.493183, -0.0447275, 0.540643, 0.293012, -0.00622071, -0.904788, 0.000394204, -2.08892, 0.00572121, 1.95558, 0.883704, 0.580904, -0.622565, 0.481323, -3.67256, 0.418669, 0.523634, 0.505337, 4.16334e-17, 0.888664, -0.0832625, 0.786993, 0.169363, 1.80811, -0.00433973
0.231, -0.054979, -0.271608, -0.04833, -0.495276, -0.0447234, 0.542548, 0.293883, -0.00391147, -0.894064, -0.000898822, -2.08831, 0.00295006, 1.93133, 0.877381, 0.569347, -0.667583, 0.487794, -3.96987, 0.432483, 0.625851, 0.528241, -1.38778e-17, 0.893826, -0.0830502, 0.808651, 0.170222, 1.80817, -0.00436377
0.232, -0.054956, -0.272501, -0.0483237, -0.49734, -0.0447301, 0.544456, 0.294748, 0.00582848, -0.891225, 0.00119762, -2.07623, -0.00333528, 1.92763, 0.87072, 0.520417, -0.672843, 0.477249, -4.16194, 0.463977, 0.625245, 0.552897, 6.93889e-17, 0.901094, -0.0828689, 0.829228, 0.171035, 1.80823, -0.00438857
0.233, -0.0549301, -0.273419, -0.0483108, -0.499501, -0.0447385, 0.546427, 0.295589, 0.0128344, -0.901912, 0.00499971, -2.104, -0.0072427, 1.93613, 0.867618, 0.485129, -0.610228, 0.458109, -4.46636, 0.483598, 0.563049, 0.56, -2.77556e-17, 0.907857, -0.0826925, 0.851076, 0.171894, 1.8083, -0.00441263
0.234, -0.054926, -0.274353, -0.0483034, -0.5017, -0.0447482, 0.548425, 0.296439, 0.0117114, -0.909736, 0.00576489, -2.12854, -0.00782143, 1.95517, 0.858829, 0.490703, -0.561766, 0.45421, -4.22468, 0.486589, 0.447869, 0.595445, 4.16334e-17, 0.914735, -0.0824909, 0.873307, 0.172769, 1.80836, -0.00443704
0.235, -0.0549457, -0.275279, -0.0483191, -0.503822, -0.0447426, 0.550357, 0.297268, 0.000434222, -0.908981, -0.00208189, -2.13702, -0.00124529, 1.96177, 0.855057, 0.547285, -0.556283, 0.4936, -3.69751, 0.453653, 0.395552, 0.606019, -2.77556e-17, 0.922572, -0.0822315, 0.894325, 0.173616, 1.80842, -0.00446189
0.236, -0.0549794, -0.27616, -0.0483288, -0.505904, -0.0447298, 0.55226, 0.298101, -0.0118063, -0.898863, -0.00555339, -2.11065, 0.00517288, 1.93948, 0.854419, 0.608825, -0.598059, 0.511055, -3.24278, 0.421434, 0.487939, 0.600878, -6.93889e-17, 0.928918, -0.0819877, 0.915434, 0.174462, 1.80848, -0.0044863
0.237, -0.0549975, -0.277052, -0.0483262, -0.507974, -0.0447227, 0.554151, 0.298939, -0.014089, -0.891072, -0.00313747, -2.10158, 0.00422096, 1.92036, 0.842147, 0.62042, -0.628096, 0.498949, -3.37066, 0.426122, 0.56466, 0.653856, 0, 0.936023, -0.081786, 0.936119, 0.175285, 1.80854, -0.00451085
0.238, -0.0549701, -0.277935, -0.0483258, -0.510072, -0.0447349, 0.55601, 0.299759, -0.00123896, -0.888195, -0.00208567, -2.09771, 0.00181076, 1.89438, 0.838315, 0.555896, -0.633655, 0.493687, -3.5891, 0.438295, 0.675975, 0.664823, 2.77556e-17, 0.942157, -0.081556, 0.957485, 0.176126, 1.80859, -0.00453384
0.239, -0.0549425, -0.278852, -0.0483132, -0.512228, -0.0447567, 0.557903, 0.300592, 0.0095975, -0.898936, 0.00279013, -2.10959, -0.00265061, 1.89303, 0.838704, 0.501438, -0.570785, 0.469181, -3.78306, 0.46082, 0.66378, 0.654545, 5.55112e-17, 0.948929, -0.0813576, 0.979279, 0.176975, 1.80864, -0.00455696
0.24, -0.0549433, -0.279791, -0.0483023, -0.514416, -0.0447688, 0.559784, 0.301413, 0.0112681, -0.913071, 0.00548273, -2.14476, -0.0128953, 1.8942, 0.829265, 0.493092, -0.490722, 0.455609, -3.71876, 0.512164, 0.639106, 0.693524, 1.38778e-17, 0.956242, -0.0811552, 1.00122, 0.177835, 1.80869, -0.00457985
0.241, -0.0549577, -0.280697, -0.0483069, -0.51659, -0.0447599, 0.561704, 0.302216, 0.00209392, -0.917913, 0.000688011, -2.14838, -0.007896, 1.90359, 0.819522, 0.539107, -0.457446, 0.479629, -3.1364, 0.487079, 0.572994, 0.734214, -4.16334e-17, 0.962214, -0.0809001, 1.02349, 0.178721, 1.80874, -0.0046031
0.242, -0.054974, -0.281596, -0.0483217, -0.518677, -0.044739, 0.563614, 0.30303, -0.00477891, -0.908047, -0.00492195, -2.1365, 0.00196291, 1.89867, 0.821038, 0.573635, -0.497786, 0.507826, -2.72294, 0.437576, 0.578457, 0.718496, 1.38778e-17, 0.969334, -0.0806295, 1.04436, 0.179564, 1.80879, -0.00462804
0.243, -0.0549905, -0.282484, -0.0483195, -0.520773, -0.0447185, 0.565463, 0.303842, -0.00879151, -0.901411, -0.00272307, -2.12103, 0.00692376, 1.89212, 0.819146, 0.593863, -0.522089, 0.496811, -2.6524, 0.412566, 0.592745, 0.719829, 5.55112e-17, 0.975775, -0.0804101, 1.06557, 0.18041, 1.80884, -0.00465162
0.244, -0.0549642, -0.283382, -0.0483015, -0.522861, -0.0447238, 0.567337, 0.304657, 0.00369272, -0.896325, 0.00412501, -2.09922, 0.00480385, 1.8803, 0.81959, 0.531178, -0.538537, 0.46239, -2.84783, 0.423218, 0.633117, 0.709456, 4.16334e-17, 0.982835, -0.0802361, 1.08648, 0.181228, 1.80889, -0.00467532
0.245, -0.054919, -0.2843, -0.0482938, -0.524948, -0.0447442, 0.569223, 0.305482, 0.0185593, -0.897712, 0.00460685, -2.09957, -0.000655382, 1.89393, 0.826749, 0.456394, -0.522417, 0.459904, -3.2337, 0.450719, 0.546063, 0.665414, 6.93889e-17, 0.990889, -0.0800219, 1.10704, 0.182031, 1.80894, -0.00469974
0.246, -0.0549013, -0.285209, -0.0482787, -0.52713, -0.0447482, 0.571139, 0.306287, 0.0196804, -0.898238, 0.00715512, -2.11999, -0.00187903, 1.89568, 0.819408, 0.450611, -0.510703, 0.447011, -3.53604, 0.456877, 0.518189, 0.69407, -5.55112e-17, 0.996819, -0.0798161, 1.12941, 0.182904, 1.80898, -0.00472268
0.247, -0.0549162, -0.286137, -0.0482751, -0.529259, -0.0447442, 0.57307, 0.307119, 0.00881581, -0.904639, 0.00421372, -2.12994, -0.00231339, 1.91023, 0.824342, 0.505083, -0.469416, 0.461683, -3.40653, 0.459009, 0.42612, 0.661079, 4.16334e-17, 1.00462, -0.0795868, 1.15052, 0.18374, 1.80903, -0.00474792
0.248, -0.0549426, -0.287043, -0.0482923, -0.53135, -0.0447317, 0.574956, 0.307923, -0.00163867, -0.906044, -0.00489308, -2.11669, 0.00420957, 1.911, 0.823008, 0.557619, -0.453329, 0.507388, -3.17336, 0.426269, 0.403398, 0.659714, 4.16334e-17, 1.01202, -0.0792873, 1.17133, 0.184577, 1.80908, -0.00477273
0.249, -0.0549684, -0.287923, -0.0482932, -0.533441, -0.0447236, 0.576827, 0.308746, -0.00982543, -0.900348, -0.00567466, -2.10259, 0.00597585, 1.89628, 0.815801, 0.598811, -0.473011, 0.511306, -3.23478, 0.417357, 0.458269, 0.687521, -1.38778e-17, 1.01812, -0.0790336, 1.19262, 0.18542, 1.80912, -0.00479692
0.25, -0.0549575, -0.288804, -0.048289, -0.535532, -0.0447289, 0.578666, 0.309582, -0.00198699, -0.896314, -0.00378291, -2.10638, 0.00958407, 1.87138, 0.820519, 0.55951, -0.48437, 0.501805, -3.49001, 0.399369, 0.564411, 0.655563, 5.55112e-17, 1.02429, -0.0787902, 1.21387, 0.186252, 1.80916, -0.00482077
0.251, -0.0549161, -0.289676, -0.0482835, -0.53765, -0.0447582, 0.580462, 0.310406, 0.0136981, -0.890219, -0.00187219, -2.10348, -0.00328869, 1.85155, 0.824206, 0.48067, -0.506125, 0.492196, -3.5884, 0.464025, 0.645602, 0.628893, -1.38778e-17, 1.02954, -0.0785289, 1.23578, 0.187097, 1.8092, -0.00484283
0.252, -0.0549006, -0.290576, -0.0482675, -0.539823, -0.044779, 0.582301, 0.311242, 0.014135, -0.893848, 0.00227846, -2.12737, -0.00879828, 1.85113, 0.826508, 0.478331, -0.478984, 0.471283, -3.69349, 0.491781, 0.629316, 0.609025, 0, 1.03517, -0.078303, 1.25815, 0.187959, 1.80923, -0.00486536
0.253, -0.0549187, -0.291488, -0.0482599, -0.541979, -0.0447656, 0.584113, 0.312049, 0.00514109, -0.8981, 0.00580476, -2.14576, 0.00105654, 1.84313, 0.823348, 0.523482, -0.448599, 0.453576, -3.38938, 0.442374, 0.651197, 0.616746, -5.55112e-17, 1.04174, -0.078068, 1.27999, 0.188822, 1.80926, -0.00488818
0.254, -0.0549521, -0.292382, -0.0482674, -0.544078, -0.0447455, 0.585952, 0.31288, -0.00850297, -0.899091, 0.000507232, -2.13036, 0.0105414, 1.84339, 0.827949, 0.592036, -0.434707, 0.480137, -2.91869, 0.394748, 0.631499, 0.585437, 6.93889e-17, 1.04838, -0.0777853, 1.30116, 0.189667, 1.8093, -0.00491279
0.255, -0.0549634, -0.293267, -0.0482814, -0.546123, -0.0447237, 0.587773, 0.31371, -0.00953551, -0.89234, -0.00291092, -2.1058, 0.0144138, 1.82285, 0.821581, 0.597311, -0.459614, 0.497369, -2.86727, 0.375168, 0.715986, 0.608981, -9.71445e-17, 1.05554, -0.0774856, 1.32154, 0.190487, 1.80934, -0.00493803
0.256, -0.0549547, -0.294174, -0.0482691, -0.548198, -0.0447172, 0.589542, 0.31453, -0.001949, -0.89192, 0.00198479, -2.09222, 0.0133817, 1.81286, 0.823428, 0.559292, -0.452643, 0.472767, -3.21481, 0.380264, 0.748249, 0.591543, -1.38778e-17, 1.06325, -0.0772747, 1.34205, 0.191294, 1.80937, -0.00496169
0.257, -0.0549141, -0.295073, -0.0482555, -0.550313, -0.0447284, 0.591364, 0.315361, 0.0135373, -0.895396, 0.00524166, -2.09672, 0.00249048, 1.81428, 0.825353, 0.481455, -0.426267, 0.456346, -3.60068, 0.434832, 0.722928, 0.573612, -1.38778e-17, 1.06988, -0.077046, 1.36342, 0.192122, 1.8094, -0.00498524
0.258, -0.0548814, -0.296, -0.0482435, -0.552439, -0.0447408, 0.593236, 0.316186, 0.0197348, -0.903649, 0.0066885, -2.10629, -0.00313724, 1.84098, 0.819339, 0.45014, -0.375741, 0.448993, -3.80542, 0.463094, 0.57069, 0.595429, 0, 1.07763, -0.0768125, 1.3845, 0.192941, 1.80944, -0.0050098
0.259, -0.0548848, -0.296907, -0.0482402, -0.554626, -0.0447429, 0.595151, 0.317007, 0.0123059, -0.911563, 0.00397768, -2.13445, -0.00534324, 1.8739, 0.818898, 0.487318, -0.327099, 0.462513, -3.78335, 0.474145, 0.386951, 0.589426, -2.77556e-17, 1.08337, -0.0765298, 1.40698, 0.19382, 1.80947, -0.00503383
0.26, -0.0549161, -0.297777, -0.0482541, -0.556723, -0.0447231, 0.597029, 0.31783, -0.00189886, -0.900437, -0.00316132, -2.13157, 0.0045114, 1.88342, 0.818476, 0.558655, -0.374026, 0.498348, -3.33515, 0.424674, 0.320551, 0.5833, -8.32667e-17, 1.08891, -0.0762001, 1.42852, 0.194678, 1.80951, -0.00505889
0.263, -0.0549226, -0.300415, -0.0482776, -0.563016, -0.0447523, 0.602455, 0.320322, 0.00600129, -0.884152, -0.00664056, -2.11024, -0.00375445, 1.84241, 0.832382, 0.519219, -0.429071, 0.515978, -3.33515, 0.466295, 0.471372, 0.48885, 1.38778e-17, 1.10672, -0.0752259, 1.49276, 0.197191, 1.80959, -0.00513063
0.264, -0.0549033, -0.301308, -0.0482707, -0.565183, -0.0447857, 0.604305, 0.321137, 0.0118259, -0.888344, -0.00141744, -2.12352, -0.0125857, 1.84604, 0.828808, 0.489904, -0.399178, 0.489794, -3.33515, 0.510785, 0.434698, 0.49857, -2.77556e-17, 1.11213, -0.0749293, 1.51515, 0.198047, 1.80962, -0.00515343
0.265, -0.0549183, -0.30221, -0.0482624, -0.567318, -0.0447888, 0.606152, 0.321973, 0.00275567, -0.889763, 0.00205466, -2.13064, -0.0113915, 1.84455, 0.832628, 0.535404, -0.383065, 0.472351, -3.22874, 0.504845, 0.423681, 0.471112, -4.16334e-17, 1.1185, -0.0746601, 1.53682, 0.198889, 1.80965, -0.00517779
0.266, -0.0549387, -0.303106, -0.0482735, -0.569443, -0.0447747, 0.607954, 0.322789, 0.000583903, -0.885096, -0.00222704, -2.12822, -0.00467463, 1.83101, 0.83064, 0.546467, -0.397439, 0.49387, -3.05341, 0.47112, 0.473379, 0.472893, 2.77556e-17, 1.1248, -0.0743214, 1.55839, 0.199745, 1.80967, -0.00520181
0.267, -0.0549631, -0.303973, -0.0482842, -0.571516, -0.0447515, 0.609748, 0.323619, -0.00670286, -0.876436, -0.00499432, -2.10719, 0.00511306, 1.81701, 0.826826, 0.583145, -0.432074, 0.507813, -2.98309, 0.42195, 0.525445, 0.483663, -1.38778e-17, 1.13056, -0.0739908, 1.57957, 0.200588, 1.8097, -0.0052265
0.268, -0.0549568, -0.304848, -0.0482753, -0.573564, -0.0447363, 0.611534, 0.324461, -0.00104108, -0.874858, -0.000347247, -2.08454, 0.0156424, 1.80361, 0.833598, 0.554773, -0.431211, 0.484489, -3.26448, 0.369151, 0.574589, 0.441384, -2.77556e-17, 1.13717, -0.0737404, 1.60017, 0.201397, 1.80972, -0.00525146
0.269, -0.0549143, -0.305751, -0.0482575, -0.575642, -0.0447438, 0.613325, 0.325286, 0.0123861, -0.879555, 0.00571731, -2.07804, 0.00572907, 1.7986, 0.836438, 0.487212, -0.39869, 0.453988, -3.65035, 0.418793, 0.581724, 0.418933, 8.32667e-17, 1.14463, -0.0735127, 1.6208, 0.202193, 1.80975, -0.00527578
0.27, -0.0548658, -0.306657, -0.0482445, -0.577781, -0.0447542, 0.615185, 0.32612, 0.0296894, -0.890403, 0.00743792, -2.09045, -0.00121396, 1.81158, 0.830288, 0.400211, -0.335396, 0.445255, -4.03622, 0.453611, 0.498193, 0.44134, -2.77556e-17, 1.15113, -0.0732475, 1.64246, 0.203028, 1.80977, -0.00530036
0.271, -0.0548511, -0.307587, -0.0482311, -0.579943, -0.0447508, 0.617052, 0.326954, 0.0251791, -0.910184, 0.0115816, -2.12052, 0.00101057, 1.8432, 0.827321, 0.422616, -0.227187, 0.424402, -4.16965, 0.442455, 0.321442, 0.44784, -2.77556e-17, 1.15839, -0.0729892, 1.66411, 0.203869, 1.8098, -0.00532536
0.272, -0.0548674, -0.308479, -0.0482441, -0.582075, -0.0447362, 0.618881, 0.32777, 0.0136308, -0.913852, 0.00260016, -2.11973, 0.00696382, 1.83559, 0.819157, 0.48052, -0.199934, 0.46944, -3.7874, 0.412543, 0.341179, 0.480496, 2.77556e-17, 1.16432, -0.0726236, 1.68589, 0.204732, 1.80982, -0.00534994
0.273, -0.0548934, -0.309348, -0.0482715, -0.584132, -0.0447184, 0.620675, 0.328592, 0.000850494, -0.901069, -0.00753616, -2.11188, 0.0122, 1.82067, 0.814713, 0.544682, -0.255152, 0.520396, -3.56493, 0.386184, 0.397849, 0.494491, -2.77556e-17, 1.17049, -0.0722096, 1.70674, 0.205567, 1.80984, -0.00537532
0.274, -0.0549105, -0.310214, -0.0482769, -0.586195, -0.0447148, 0.622394, 0.329411, -0.00603449, -0.892243, -0.00608339, -2.09591, 0.0089016, 1.7906, 0.819006, 0.579277, -0.290622, 0.513186, -3.54939, 0.40264, 0.531, 0.464842, -1.38778e-17, 1.17638, -0.0718749, 1.72776, 0.20639, 1.80986, -0.00539881
0.275, -0.0548931, -0.31107, -0.0482743, -0.588294, -0.0447292, 0.62415, 0.330231, 0.00257974, -0.880468, -0.00218199, -2.08886, 0.00356032, 1.78232, 0.816419, 0.536033, -0.340937, 0.493653, -3.78642, 0.429491, 0.554889, 0.469578, 8.32667e-17, 1.18115, -0.0715506, 1.74959, 0.207229, 1.80987, -0.00542163
0.276, -0.05486, -0.311955, -0.0482774, -0.59039, -0.0447614, 0.625894, 0.331052, 0.0140728, -0.879145, -0.00137189, -2.09799, -0.00866101, 1.77059, 0.816257, 0.478236, -0.33871, 0.489633, -4.04073, 0.490919, 0.59605, 0.462181, -6.93889e-17, 1.18733, -0.071198, 1.7709, 0.208045, 1.80989, -0.00544479
0.277, -0.0548605, -0.312854, -0.0482733, -0.592556, -0.0447794, 0.627633, 0.331842, 0.00915764, -0.886148, 0.00156034, -2.12178, -0.0188105, 1.7555, 0.811078, 0.502817, -0.294707, 0.474931, -4.05602, 0.541847, 0.654141, 0.480166, -9.71445e-17, 1.19301, -0.0708678, 1.79314, 0.2089, 1.8099, -0.00546649
0.278, -0.0548966, -0.313755, -0.0482852, -0.594688, -0.0447758, 0.629389, 0.332646, -0.00647536, -0.887898, -0.00253249, -2.13499, -0.0127264, 1.74948, 0.806986, 0.581343, -0.276939, 0.495514, -3.69827, 0.511391, 0.666665, 0.492598, -2.77556e-17, 1.19942, -0.0704863, 1.81474, 0.209749, 1.80992, -0.00549001
0.279, -0.0549313, -0.31463, -0.0483101, -0.596791, -0.0447627, 0.631104, 0.333423, -0.0152139, -0.877371, -0.0105624, -2.11954, -0.00254508, 1.74458, 0.795973, 0.625382, -0.320824, 0.535913, -3.2746, 0.460353, 0.674045, 0.539888, 2.77556e-17, 1.20503, -0.0700523, 1.83631, 0.210606, 1.80993, -0.00551279
0.28, -0.0549391, -0.315489, -0.0483117, -0.598877, -0.0447469, 0.632835, 0.334205, -0.0117264, -0.872411, -0.00701541, -2.10844, 0.00270681, 1.73806, 0.792064, 0.608023, -0.337035, 0.518194, -3.25286, 0.433935, 0.689291, 0.551609, 1.11022e-16, 1.21017, -0.0697182, 1.85785, 0.21145, 1.80994, -0.00553558
0.281, -0.0549168, -0.316353, -0.0482965, -0.600956, -0.0447462, 0.634546, 0.334991, -0.000203156, -0.866206, 0.00128203, -2.10374, 0.00299911, 1.72722, 0.788716, 0.550184, -0.359427, 0.476555, -3.41085, 0.432466, 0.726414, 0.560487, 1.38778e-17, 1.21565, -0.0694489, 1.87919, 0.212271, 1.80995, -0.00555781
0.282, -0.05486, -0.317224, -0.0482834, -0.603061, -0.0447612, 0.636313, 0.335754, 0.0196596, -0.871509, 0.00625193, -2.09785, -0.00509191, 1.74102, 0.783364, 0.450302, -0.324192, 0.451574, -3.58046, 0.473071, 0.639742, 0.579624, -2.77556e-17, 1.22107, -0.0691566, 1.90084, 0.213097, 1.80997, -0.00557997
0.283, -0.0548426, -0.318134, -0.048275, -0.605214, -0.0447661, 0.638124, 0.336525, 0.0207911, -0.887307, 0.00659186, -2.12881, -0.00572068, 1.76428, 0.780169, 0.444471, -0.236105, 0.449791, -3.77549, 0.476265, 0.505307, 0.587888, 4.16334e-17, 1.2275, -0.0688429, 1.92267, 0.213938, 1.80998, -0.00560315
0.284, -0.0548542, -0.319054, -0.0482761, -0.60738, -0.0447555, 0.639895, 0.33727, 0.010094, -0.899854, 0.00937644, -2.13913, -0.00753757, 1.772, 0.769676, 0.498072, -0.164175, 0.435879, -3.41746, 0.485243, 0.449014, 0.632898, 0, 1.23415, -0.0684926, 1.94456, 0.214796, 1.81, -0.00562565
0.285, -0.0548889, -0.319929, -0.0483003, -0.60948, -0.0447372, 0.641674, 0.338033, -0.00764078, -0.903869, -0.00158001, -2.11872, -0.00261596, 1.77519, 0.77275, 0.587093, -0.135344, 0.490903, -3.03823, 0.460452, 0.415283, 0.609895, 8.32667e-17, 1.23985, -0.068048, 1.96604, 0.215651, 1.81001, -0.0056495
0.286, -0.0549133, -0.320802, -0.0483183, -0.611511, -0.0447214, 0.643397, 0.338787, -0.0147346, -0.897361, -0.00604494, -2.09719, 0.00209551, 1.75176, 0.767409, 0.622806, -0.159163, 0.513408, -3.12048, 0.436736, 0.515198, 0.629063, -8.32667e-17, 1.24659, -0.0676428, 1.98639, 0.216459, 1.81002, -0.00567336
0.287, -0.0548978, -0.321673, -0.0483102, -0.613603, -0.0447314, 0.645072, 0.339538, -0.00431659, -0.888443, -0.0001175, -2.09429, -0.000270497, 1.73431, 0.761105, 0.570561, -0.19504, 0.48369, -3.50328, 0.448666, 0.585721, 0.653077, 2.77556e-17, 1.2522, -0.067323, 2.00781, 0.21728, 1.81003, -0.00569448
0.288, -0.0548472, -0.322545, -0.0483101, -0.615701, -0.0447597, 0.646795, 0.34029, 0.0149172, -0.883327, -0.00120203, -2.08738, -0.0116125, 1.73021, 0.759064, 0.473885, -0.211898, 0.489111, -3.78304, 0.50566, 0.588978, 0.655761, 5.55112e-17, 1.25774, -0.0669537, 2.02935, 0.2181, 1.81004, -0.00571611
0.289, -0.054823, -0.32343, -0.0483014, -0.617832, -0.044791, 0.648495, 0.341049, 0.0176765, -0.884029, 0.00328075, -2.10218, -0.0260735, 1.72315, 0.763663, 0.459847, -0.199534, 0.466611, -4.06151, 0.578277, 0.607254, 0.625179, 8.32667e-17, 1.26333, -0.0666137, 2.05123, 0.218927, 1.81005, -0.00573704
0.29, -0.0548495, -0.324303, -0.0482974, -0.619999, -0.04478, 0.650208, 0.341787, 0.00386097, -0.878328, 0.00387991, -2.12518, -0.0119669, 1.72115, 0.757112, 0.52919, -0.219317, 0.463575, -4.0042, 0.507635, 0.600122, 0.650552, -5.55112e-17, 1.26771, -0.0662623, 2.07393, 0.219806, 1.81005, -0.0057577
0.291, -0.0548872, -0.325175, -0.0483157, -0.622087, -0.0447611, 0.651925, 0.342541, -0.00873509, -0.870874, -0.00340559, -2.1199, -0.00399313, 1.71208, 0.751399, 0.592548, -0.247863, 0.500185, -3.61391, 0.467577, 0.628328, 0.671578, -8.32667e-17, 1.27342, -0.0658299, 2.09528, 0.220651, 1.81006, -0.0057807
0.292, -0.05491, -0.326039, -0.048332, -0.624181, -0.0447492, 0.65362, 0.343282, -0.0129268, -0.86913, -0.00769256, -2.10656, 0.00036355, 1.71132, 0.750681, 0.613734, -0.247943, 0.521782, -3.45579, 0.445674, 0.615137, 0.667762, -2.77556e-17, 1.27865, -0.0653971, 2.11685, 0.221499, 1.81007, -0.00580274
0.293, -0.0548967, -0.326913, -0.0483286, -0.626289, -0.044744, 0.655319, 0.344034, -0.0023916, -0.870776, -0.00642345, -2.10271, -0.000819907, 1.7091, 0.748768, 0.560925, -0.230969, 0.515403, -3.5646, 0.451539, 0.609284, 0.669804, -2.77556e-17, 1.28415, -0.065047, 2.13849, 0.222336, 1.81007, -0.00582457
0.294, -0.0548512, -0.327794, -0.0483115, -0.628379, -0.0447595, 0.656993, 0.344805, 0.015766, -0.87056, 0.00137461, -2.10324, -0.00439783, 1.70036, 0.756331, 0.469682, -0.223238, 0.476242, -3.69085, 0.469585, 0.636257, 0.624274, -8.32667e-17, 1.29024, -0.0647523, 2.15972, 0.22314, 1.81008, -0.00584629
0.295, -0.0548172, -0.328673, -0.0483033, -0.630519, -0.0447744, 0.658716, 0.345558, 0.0219533, -0.872219, 0.00423107, -2.11244, -0.00986205, 1.71257, 0.75404, 0.438406, -0.206158, 0.461877, -3.76008, 0.497054, 0.557944, 0.628201, 0, 1.29535, -0.0644023, 2.18186, 0.223981, 1.81008, -0.00586765
0.296, -0.0548269, -0.329566, -0.0482947, -0.632659, -0.0447683, 0.66048, 0.346314, 0.00941324, -0.878526, 0.0050747, -2.12419, -0.00306633, 1.72466, 0.747343, 0.501203, -0.165694, 0.457574, -3.66072, 0.463014, 0.479864, 0.654125, 2.77556e-17, 1.30116, -0.0640661, 2.20374, 0.224824, 1.81009, -0.00589039
0.297, -0.0548624, -0.33046, -0.0483157, -0.634776, -0.0447443, 0.66219, 0.347059, -0.00826707, -0.88318, -0.00388176, -2.12488, 0.00858097, 1.71649, 0.751619, 0.589959, -0.133483, 0.502566, -3.41823, 0.404538, 0.503605, 0.6253, 5.55112e-17, 1.30744, -0.0636046, 2.22518, 0.225677, 1.81009, -0.00591341
0.298, -0.0548959, -0.331316, -0.0483317, -0.636839, -0.0447312, 0.663865, 0.34782, -0.0189704, -0.88206, -0.00805972, -2.09679, 0.0109514, 1.70593, 0.754884, 0.643811, -0.130524, 0.523615, -3.2587, 0.392555, 0.539672, 0.601354, 0, 1.3128, -0.0631635, 2.24636, 0.226508, 1.8101, -0.00593617
0.299, -0.0548958, -0.332195, -0.0483249, -0.638872, -0.0447394, 0.665497, 0.348589, -0.0119297, -0.886995, -0.0024705, -2.07739, 0.0120832, 1.66786, 0.755446, 0.608607, -0.0970495, 0.495601, -3.59427, 0.386978, 0.713707, 0.590859, 5.55112e-17, 1.31984, -0.0628283, 2.2666, 0.227284, 1.8101, -0.00595869
0.3, -0.0548483, -0.333074, -0.0483241, -0.640964, -0.0447624, 0.667112, 0.349342, 0.0102867, -0.892278, -0.000490839, -2.07497, -0.000484918, 1.65059, 0.755504, 0.497049, -0.0618475, 0.485695, -3.98014, 0.450048, 0.783895, 0.583038, -1.11022e-16, 1.32578, -0.0624396, 2.28789, 0.228093, 1.8101, -0.00597942
0.301, -0.0548095, -0.333983, -0.0483125, -0.643083, -0.0447822, 0.668796, 0.350108, 0.0198881, -0.897733, 0.00381117, -2.09906, -0.00688963, 1.65495, 0.760156, 0.448655, -0.0254903, 0.464069, -4.36601, 0.48227, 0.745249, 0.552124, -5.55112e-17, 1.33271, -0.0621007, 2.30913, 0.228897, 1.81011, -0.00600148
0.302, -0.0548157, -0.334897, -0.0482986, -0.645247, -0.0447828, 0.670487, 0.350861, 0.0122228, -0.900185, 0.0072454, -2.12376, -0.00242251, 1.66935, 0.76294, 0.487043, -0.00409041, 0.446759, -4.2393, 0.459941, 0.656365, 0.530675, -2.77556e-17, 1.33911, -0.0617712, 2.33106, 0.229735, 1.81011, -0.00602302
0.303, -0.0548534, -0.335785, -0.0483112, -0.647397, -0.0447567, 0.672181, 0.351617, -0.00623346, -0.896761, 0.000632975, -2.12618, 0.0102109, 1.6781, 0.761429, 0.579701, -0.0123246, 0.479947, -3.78026, 0.396512, 0.595645, 0.530668, 0, 1.34454, -0.0613251, 2.35316, 0.230605, 1.81011, -0.00604542
0.304, -0.0548792, -0.336642, -0.0483286, -0.649476, -0.0447327, 0.673852, 0.352369, -0.0139677, -0.879375, -0.00609006, -2.12127, 0.0159734, 1.66966, 0.751898, 0.61863, -0.0906799, 0.513737, -3.46098, 0.36746, 0.621119, 0.5708, 8.32667e-17, 1.34968, -0.0608641, 2.37458, 0.23145, 1.81011, -0.00606811
0.305, -0.0548763, -0.337497, -0.0483284, -0.651571, -0.0447247, 0.675483, 0.353118, -0.00794751, -0.865786, -0.00351516, -2.10658, 0.0163594, 1.66695, 0.753695, 0.5885, -0.150077, 0.50086, -3.3406, 0.36545, 0.61838, 0.554321, -2.77556e-17, 1.35442, -0.0604736, 2.39632, 0.232288, 1.81011, -0.00608917
0.306, -0.0548474, -0.338355, -0.0483144, -0.65367, -0.0447406, 0.677165, 0.353881, 0.00595632, -0.861979, 0.00247332, -2.10037, 0.00698717, 1.67079, 0.754079, 0.518692, -0.16054, 0.470777, -3.49351, 0.41247, 0.582375, 0.544774, 0, 1.35922, -0.0601344, 2.41809, 0.233106, 1.81011, -0.00611064
0.307, -0.0547993, -0.339242, -0.0483097, -0.655777, -0.0447562, 0.678858, 0.354643, 0.0205784, -0.865928, 0.00396222, -2.10496, -0.00103198, 1.68376, 0.759645, 0.445101, -0.131921, 0.463286, -3.68322, 0.452722, 0.5006, 0.50933, 2.77556e-17, 1.3653, -0.0597506, 2.43949, 0.233919, 1.81011, -0.00613293
0.308, -0.0547987, -0.340138, -0.0482996, -0.657951, -0.0447667, 0.680614, 0.355386, 0.0151584, -0.876859, 0.00625573, -2.12601, -0.00294649, 1.7138, 0.755485, 0.472195, -0.068312, 0.451718, -3.72894, 0.4624, 0.332844, 0.522698, 0, 1.37061, -0.0593792, 2.46192, 0.234768, 1.81011, -0.00615482
0.309, -0.0548329, -0.341019, -0.0483086, -0.660071, -0.0447607, 0.682364, 0.356132, -0.000665277, -0.878557, 0.000547432, -2.13279, 0.00390338, 1.72861, 0.747029, 0.551656, -0.0510054, 0.480349, -3.43215, 0.42809, 0.241281, 0.557517, 8.32667e-17, 1.3762, -0.0589312, 2.48363, 0.235609, 1.81011, -0.00617807
0.31, -0.0548778, -0.34189, -0.048329, -0.662135, -0.0447484, 0.684008, 0.356877, -0.0158195, -0.875026, -0.00734044, -2.10043, 0.00924099, 1.70434, 0.749381, 0.627875, -0.0599535, 0.519992, -3.14516, 0.401279, 0.346175, 0.538314, 5.55112e-17, 1.38222, -0.0584395, 2.50456, 0.236431, 1.81011, -0.00620078
0.311, -0.054888, -0.342733, -0.0483318, -0.664206, -0.0447487, 0.685636, 0.357637, -0.015624, -0.872378, -0.00545256, -2.08479, 0.00596867, 1.68754, 0.749918, 0.627, -0.0647569, 0.510581, -3.46841, 0.417644, 0.413916, 0.528024, 2.77556e-17, 1.38685, -0.0580197, 2.52606, 0.237254, 1.8101, -0.00622234
0.312, -0.0548511, -0.343589, -0.0483187, -0.66626, -0.0447686, 0.68728, 0.358391, 0.00370669, -0.869911, -0.000800511, -2.07583, -0.0036332, 1.65964, 0.749799, 0.529978, -0.0685334, 0.487189, -3.85428, 0.465852, 0.536982, 0.521083, -8.32667e-17, 1.39234, -0.057674, 2.54707, 0.238041, 1.8101, -0.00624394
0.313, -0.0547949, -0.34446, -0.0483022, -0.668372, -0.0447902, 0.688918, 0.35914, 0.0225289, -0.87948, 0.00449625, -2.08126, -0.0109627, 1.65462, 0.747357, 0.435304, -0.011978, 0.460541, -4.24015, 0.502716, 0.545691, 0.525799, 8.32667e-17, 1.39754, -0.0573303, 2.56883, 0.238853, 1.8101, -0.0062645
0.314, -0.0547833, -0.345363, -0.0482823, -0.670526, -0.0447938, 0.690605, 0.359884, 0.0240335, -0.891851, 0.00939159, -2.1169, -0.0161196, 1.66643, 0.744002, 0.427666, 0.058908, 0.435865, -4.43666, 0.528536, 0.469755, 0.535128, -2.77556e-17, 1.40356, -0.0570077, 2.59076, 0.23968, 1.8101, -0.00628598
0.317, -0.0548433, -0.347976, -0.0483088, -0.676904, -0.0447092, 0.695569, 0.362112, -0.00621684, -0.872033, -0.00491368, -2.11768, 0.0133106, 1.6505, 0.74761, 0.579517, -0.0140631, 0.507657, -4.43666, 0.380539, 0.499781, 0.494806, 1.11022e-16, 1.41845, -0.055645, 2.6567, 0.24226, 1.81008, -0.00635187
0.318, -0.0548212, -0.348819, -0.0482926, -0.679, -0.044718, 0.697147, 0.362856, 0.0046261, -0.862435, 0.00209745, -2.11019, 0.00539636, 1.62395, 0.745439, 0.525081, -0.0536163, 0.472438, -3.99525, 0.420198, 0.61676, 0.49823, -2.77556e-17, 1.4226, -0.0552992, 2.67864, 0.243082, 1.81008, -0.00637145
0.319, -0.0547675, -0.349687, -0.0482856, -0.681105, -0.0447384, 0.6988, 0.363619, 0.0216567, -0.861942, 0.00443061, -2.10137, -0.0057649, 1.62735, 0.749311, 0.439391, -0.0473969, 0.460703, -3.83982, 0.476209, 0.583237, 0.471242, 8.32667e-17, 1.42779, -0.0548974, 2.70032, 0.243893, 1.81007, -0.00639301
0.32, -0.0547493, -0.350575, -0.0482753, -0.683229, -0.0447493, 0.700448, 0.364358, 0.0256986, -0.86718, 0.00597039, -2.10842, -0.00717758, 1.64239, 0.748613, 0.419, -0.012331, 0.452901, -3.88053, 0.483381, 0.491543, 0.467339, -1.38778e-16, 1.43358, -0.0545159, 2.72198, 0.244709, 1.81006, -0.00641419
0.321, -0.0547785, -0.351461, -0.0482748, -0.685393, -0.04475, 0.702102, 0.365112, 0.00800824, -0.870222, 0.0040155, -2.13059, -0.00632153, 1.6485, 0.7513, 0.507743, 0.0117399, 0.46267, -3.79667, 0.479108, 0.444442, 0.446356, 8.32667e-17, 1.4386, -0.0540755, 2.74436, 0.245562, 1.81006, -0.00643543
0.322, -0.0548219, -0.352341, -0.0482992, -0.68746, -0.0447421, 0.703722, 0.365864, -0.0108311, -0.86786, -0.00620556, -2.1121, 0.000249383, 1.63111, 0.746397, 0.602374, 0.00873041, 0.51402, -3.40291, 0.446174, 0.515206, 0.463358, -2.77556e-17, 1.445, -0.0535295, 2.76516, 0.246375, 1.81005, -0.00645841
0.323, -0.0548499, -0.353219, -0.0483112, -0.68954, -0.0447377, 0.705252, 0.366607, -0.0160769, -0.864364, -0.00764369, -2.10258, 0.00209838, 1.60898, 0.744107, 0.628883, 2.94662e-05, 0.52133, -3.44656, 0.436886, 0.610555, 0.467374, -2.77556e-17, 1.45112, -0.0530418, 2.7862, 0.247188, 1.81004, -0.00647918
0.324, -0.0548472, -0.354082, -0.048308, -0.691651, -0.0447444, 0.706815, 0.367361, -0.0103538, -0.865796, -0.0038745, -2.09576, -0.00183135, 1.59086, 0.742908, 0.600242, 0.0158186, 0.502453, -3.62035, 0.456601, 0.685532, 0.465828, 1.11022e-16, 1.45594, -0.0526154, 2.80806, 0.248014, 1.81004, -0.00649932
0.325, -0.0547937, -0.354948, -0.0482961, -0.693742, -0.0447684, 0.708411, 0.368116, 0.0131375, -0.864827, 0.00216105, -2.1026, -0.00709172, 1.58527, 0.747239, 0.48225, 0.0196326, 0.472156, -3.83229, 0.483143, 0.697486, 0.436633, -2.77556e-17, 1.46122, -0.0522296, 2.82954, 0.248812, 1.81003, -0.00651994
0.326, -0.0547605, -0.355815, -0.0482843, -0.695901, -0.0447855, 0.710047, 0.368849, 0.02061, -0.871501, 0.00562515, -2.11472, -0.00986416, 1.60985, 0.745363, 0.444555, 0.061669, 0.454717, -3.85693, 0.497176, 0.558235, 0.438683, 2.77556e-17, 1.46539, -0.0518285, 2.85217, 0.249654, 1.81002, -0.00653969
0.327, -0.0547738, -0.356697, -0.0482719, -0.698069, -0.0447667, 0.711675, 0.369582, 0.00986138, -0.878319, 0.013399, -2.14126, 0.00211775, 1.61163, 0.741594, 0.498431, 0.104587, 0.415724, -3.6849, 0.437079, 0.533049, 0.450193, 2.77556e-17, 1.47015, -0.0514503, 2.87466, 0.250513, 1.81001, -0.00656017
0.328, -0.0548141, -0.357591, -0.0482797, -0.700221, -0.0447384, 0.713245, 0.370283, -0.00955429, -0.885966, 0.00592057, -2.14991, 0.0117469, 1.59861, 0.731907, 0.595913, 0.151758, 0.453194, -3.16964, 0.38865, 0.582445, 0.49162, 8.32667e-17, 1.47576, -0.0509719, 2.89667, 0.251372, 1.81, -0.00658019
0.329, -0.0548342, -0.358446, -0.0483034, -0.702333, -0.044717, 0.714814, 0.371005, -0.013849, -0.876661, -0.00457616, -2.12885, 0.0236134, 1.59137, 0.727465, 0.617587, 0.113782, 0.505914, -2.71973, 0.329104, 0.602974, 0.506605, 2.77556e-17, 1.48019, -0.050405, 2.91865, 0.252231, 1.81, -0.0066008
