martinandrovich/hric-system/assets/data/pd-test-panda-1.csv
t, q0, q1, q2, q3, q4, q5, q6, qdot0, qdot1, qdot2, qdot3, qdot4, qdot5, qdot6, tau_des0, tau_des1, tau_des2, tau_des3, tau_des4, tau_des5, tau_des6, g0, g1, g2, g3, g4, g5, g6
0, -0.0594229, -0.111485, -0.0498649, -0.0983866, -0.0447275, 0.0862344, 0.0612178, 0.000632639, -0.00033056, 0.000181054, -0.00318937, -0.000121105, -0.000534809, -0.000588837, 0.591066, -1, 0.497744, -1, 0.447881, 1, 1, -2.42861e-17, 0.0453738, -0.072712, -3.33706, 0.000421148, 1.74373, -0.00029519
0.001, -0.0594205, -0.111483, -0.0498633, -0.0983866, -0.0447283, 0.0862358, 0.0612201, 0.00107137, 0.000336439, 0.000677514, -0.00240947, -0.000318096, 0.000118178, 0.000353428, 0.588848, -1, 0.495245, -1, 0.448873, 1, 1, -1.04083e-17, 0.0452948, -0.0727117, -3.33703, 0.000421857, 1.74373, -0.000295183
0.002, -0.0594223, -0.111483, -0.0498666, -0.0983866, -0.0447276, 0.0862358, 0.0612186, 6.46348e-05, 0.000224292, -0.000661948, -0.00181873, 2.52952e-05, 7.87855e-05, -0.000273008, 0.5939, -1, 0.501976, -1, 0.447149, 1, 1, -8.67362e-18, 0.0452931, -0.0727099, -3.33703, 0.000422471, 1.74373, -0.000295196
0.003, -0.0594222, -0.111483, -0.0498666, -0.0983878, -0.0447283, 0.0862358, 0.0612194, 4.30898e-05, 0.000149528, -0.000441298, -0.00248543, -0.000220495, 5.25237e-05, 8.92617e-05, 0.594007, -1.38587, 0.500873, -1.38587, 0.448385, 1.38587, 1.38587, 1.73472e-18, 0.045273, -0.0727096, -3.33701, 0.000423316, 1.74373, -0.000295199
0.004, -0.0594222, -0.111485, -0.0498686, -0.0983871, -0.0447269, 0.0862351, 0.0612201, 0.00613553, -0.000457126, -0.000943813, -0.00177644, 0.000293812, -0.000202343, 0.000296867, 0.563545, -1.77174, 0.503405, -1.77174, 0.4458, 1.77174, 1.77174, 1.38778e-17, 0.0453634, -0.0727099, -3.33705, 0.000422164, 1.74373, -0.000295226
0.005, -0.0594239, -0.111483, -0.0498666, -0.0983836, -0.0447256, 0.0862351, 0.061223, 0.00404244, 0.000901675, 2.04054e-05, -0.000160283, 0.000636684, -0.000134895, 0.00118126, 0.574027, -2.15761, 0.498564, -2.15761, 0.444073, 2.15761, 2.15761, -6.93889e-18, 0.0453533, -0.0727106, -3.33708, 0.000420214, 1.74373, -0.000295229
0.006, -0.0594239, -0.111482, -0.0498686, -0.0983873, -0.0447283, 0.0862362, 0.0612203, 0.00307663, 0.00115793, -0.00063601, -0.000730878, -0.000457163, -0.000802007, -0.00117919, 0.578856, -2.54348, 0.501866, -2.54348, 0.449568, 2.54348, 2.54348, 1.21431e-17, 0.0452439, -0.072708, -3.337, 0.000423767, 1.74373, -0.000295215
0.007, -0.0594217, -0.111489, -0.0498645, -0.0983886, -0.0447264, 0.0862346, 0.0612247, 0.00233735, -0.00285115, 0.000225607, -0.00237765, -0.000745585, 0.0022348, 0.00254866, 0.582531, -2.92935, 0.497517, -2.92935, 0.450992, 2.92935, 2.92935, -8.67362e-18, 0.0455183, -0.0727146, -3.33709, 0.000420159, 1.74373, -0.000295242
0.008, -0.059421, -0.111487, -0.0498621, -0.0983892, -0.0447286, 0.0862371, 0.0612411, 0.00487854, -0.00295515, 0.000707217, -0.00310857, -0.00158213, 0.00263344, 0.0101402, 0.569818, -3.31522, 0.495085, -3.31522, 0.455196, 3.31522, 3.31522, 1.04083e-17, 0.0454507, -0.0727147, -3.33705, 0.000420927, 1.74373, -0.000295318
0.009, -0.0594223, -0.111491, -0.0498619, -0.0983875, -0.0447263, 0.0862431, 0.0612644, 0.00246575, -0.00322665, 0.00359653, -0.00155943, -0.00146165, 0.00326277, 0.0147433, 0.581894, -3.70109, 0.480636, -3.70109, 0.454571, 3.70109, 3.70109, 5.20417e-18, 0.0456426, -0.0727175, -3.33714, 0.000417575, 1.74374, -0.000295472
0.01, -0.059421, -0.1115, -0.0498649, -0.098391, -0.0447264, 0.0862668, 0.0613126, 0.00448952, -0.00603062, 0.000894867, -0.00116932, -0.00141524, 0.00880957, 0.0269729, 0.571763, -4.08696, 0.494175, -4.08696, 0.45434, 4.08696, 4.08696, 1.9082e-17, 0.0460195, -0.072721, -3.33722, 0.000415032, 1.74375, -0.000295807
0.011, -0.0594217, -0.111513, -0.0498662, -0.0984022, -0.044726, 0.0863036, 0.0613846, 0.00292966, -0.00770446, 0.000142279, -0.00396308, -0.000943496, 0.0217103, 0.0464367, 0.579569, -4.47283, 0.49795, -4.47283, 0.451977, 4.47283, 4.47283, 1.21431e-17, 0.0464146, -0.0727268, -3.33723, 0.000415512, 1.74377, -0.000296263
0.012, -0.0594181, -0.111532, -0.0498659, -0.0984217, -0.0447253, 0.0863539, 0.0615022, 0.00343682, -0.0116685, 0.00024134, -0.0105365, -0.000425547, 0.0300662, 0.0751569, 0.576997, -4.8587, 0.497452, -4.8587, 0.44938, 4.8587, 4.8587, 5.20417e-18, 0.0469682, -0.0727364, -3.33719, 0.000417662, 1.7438, -0.000296992
0.013, -0.0594196, -0.111554, -0.0498658, -0.0984407, -0.0447271, 0.0864301, 0.0616523, 0.00201197, -0.0134685, 0.000270758, -0.0116792, -0.000927958, 0.0459008, 0.105004, 0.584137, -5.24456, 0.497305, -5.24456, 0.451911, 5.24456, 5.24456, -5.20417e-18, 0.0476723, -0.0727473, -3.33721, 0.000417688, 1.74384, -0.00029792
0.014, -0.0594213, -0.11158, -0.0498658, -0.0984721, -0.0447277, 0.0865346, 0.0618493, 0.000992674, -0.0166101, 0.000262904, -0.0154423, -0.000822089, 0.0677869, 0.140034, 0.589249, -5.63043, 0.497344, -5.63043, 0.451388, 5.63043, 5.63043, 2.08167e-17, 0.048335, -0.0727591, -3.33707, 0.00042411, 1.74388, -0.000299106
0.015, -0.0594234, -0.11162, -0.0498658, -0.098516, -0.0447271, 0.086669, 0.0620988, 0.000817914, -0.0239659, 0.000237068, -0.0242644, -0.000344609, 0.0907236, 0.179393, 0.590144, -6.0163, 0.497473, -6.0163, 0.448994, 6.0163, 6.0163, 3.46945e-18, 0.0494568, -0.0727788, -3.33694, 0.000430601, 1.74395, -0.000300638
0.016, -0.0594294, -0.111661, -0.0498675, -0.0985742, -0.0447291, 0.0868417, 0.062392, -0.00110086, -0.0297312, -0.000352417, -0.0340808, -0.000873999, 0.12317, 0.219593, 0.599798, -6.40217, 0.500437, -6.40217, 0.451661, 6.40217, 6.1321, 1.38778e-17, 0.0503517, -0.0727954, -3.33657, 0.000447067, 1.74403, -0.0003024
0.017, -0.0594294, -0.111715, -0.0498675, -0.0986376, -0.0447284, 0.0870483, 0.0627515, -0.0012957, -0.038817, -0.000200183, -0.0439565, -0.000379216, 0.155926, 0.268838, 0.600773, -6.54274, 0.499676, -6.78804, 0.449181, 6.78804, 5.88228, -3.46945e-18, 0.0517848, -0.0728212, -3.33632, 0.000458779, 1.74412, -0.000304593
0.018, -0.0594269, -0.111777, -0.0498711, -0.0987219, -0.0447298, 0.0872877, 0.0631712, -0.000148318, -0.0478818, -0.00131381, -0.0581994, -0.00069362, 0.188148, 0.324752, 0.59501, -6.4968, 0.50528, -7.17391, 0.450766, 7.17391, 5.59851, 6.93889e-18, 0.0532196, -0.0728468, -3.33583, 0.000481064, 1.74423, -0.000307163
0.019, -0.0594266, -0.11185, -0.0498691, -0.0988254, -0.0447336, 0.0875783, 0.0636632, -4.94775e-05, -0.0555834, -0.000206706, -0.0741694, -0.00175093, 0.224081, 0.382216, 0.594514, -6.45756, 0.499725, -7.55978, 0.456091, 7.55978, 5.30627, -2.08167e-17, 0.0548511, -0.0728799, -3.33519, 0.000508939, 1.74436, -0.000310136
0.02, -0.0594266, -0.111935, -0.0498691, -0.0989453, -0.0447342, 0.0879021, 0.064235, 4.06568e-06, -0.0669848, -0.000123138, -0.0909625, -0.00137074, 0.257482, 0.443453, 0.594245, -6.39971, 0.499307, -7.94565, 0.454196, 7.94565, 4.99437, -1.21431e-17, 0.0567549, -0.0729178, -3.33446, 0.000541437, 1.7445, -0.000313633
0.021, -0.0594266, -0.112025, -0.0498728, -0.0990898, -0.044735, 0.0882822, 0.0648689, 3.04985e-05, -0.0737759, -0.00127752, -0.113034, -0.00115119, 0.298596, 0.509359, 0.594113, -6.36485, 0.505115, -8.33152, 0.453106, 8.33152, 4.6585, -2.08167e-17, 0.0584881, -0.072954, -3.33339, 0.000588328, 1.74466, -0.0003175
0.022, -0.059428, -0.112126, -0.0498711, -0.0992542, -0.044735, 0.0887131, 0.0655843, -0.00116525, -0.0792267, -0.000286618, -0.130356, -0.000767457, 0.346343, 0.575158, 0.600107, -6.33659, 0.500144, -8.71739, 0.451187, 8.71739, 4.32235, 5.20417e-18, 0.0603745, -0.0729976, -3.33214, 0.00064171, 1.74484, -0.000321846
0.023, -0.0594273, -0.112235, -0.0498747, -0.0994337, -0.0447356, 0.0891798, 0.0663897, -0.000761204, -0.0886202, -0.00139132, -0.146037, -0.000715088, 0.390444, 0.648394, 0.598079, -6.28853, 0.505704, -9.10326, 0.450931, 9.10326, 3.94812, 6.93889e-18, 0.0623893, -0.073041, -3.33077, 0.000701584, 1.74504, -0.000326813
0.024, -0.0594292, -0.112357, -0.0498747, -0.0996429, -0.0447342, 0.0897206, 0.0672333, -0.000495746, -0.10014, -0.000922905, -0.166215, -3.59161e-05, 0.444568, 0.708329, 0.596771, -6.22971, 0.503362, -9.48913, 0.447522, 9.48913, 3.64, 8.67362e-18, 0.0644834, -0.0730915, -3.32908, 0.000773736, 1.74526, -0.000331997
0.025, -0.059433, -0.112487, -0.0498711, -0.0998696, -0.0447342, 0.0903123, 0.0681732, -0.00208494, -0.108848, 0.000594636, -0.185769, -2.39441e-05, 0.495197, 0.776495, 0.604755, -6.18487, 0.495738, -9.875, 0.447462, 9.875, 3.28978, 1.73472e-18, 0.0666708, -0.0731468, -3.32722, 0.000852317, 1.7455, -0.000337794
0.026, -0.0594257, -0.112628, -0.0498747, -0.100122, -0.044735, 0.0909734, 0.0691553, 0.0015863, -0.119497, -0.000807392, -0.205976, -0.000253322, 0.54935, 0.848462, 0.586326, -6.13022, 0.502784, -10.2609, 0.448616, 10.2609, 2.92012, -2.42861e-17, 0.0688791, -0.073201, -3.32507, 0.000943955, 1.74577, -0.000343935
0.027, -0.0594299, -0.112782, -0.0498711, -0.100404, -0.0447323, 0.0917064, 0.070217, -0.00014395, -0.129475, 0.000670122, -0.230245, 0.000712738, 0.611387, 0.916336, 0.595019, -6.07878, 0.49536, -10.6467, 0.443759, 10.6467, 2.57013, -1.73472e-18, 0.0712578, -0.0732656, -3.32264, 0.001046, 1.74606, -0.000350582
0.028, -0.0594227, -0.112939, -0.0498691, -0.100717, -0.0447323, 0.0925003, 0.071351, 0.00167098, -0.138297, 0.00109783, -0.255543, 0.000475159, 0.672941, 0.984982, 0.585872, -6.03311, 0.493202, -11.0326, 0.444947, 11.0326, 2.21556, 3.46945e-18, 0.0731872, -0.073326, -3.3197, 0.00116882, 1.74637, -0.000357702
0.029, -0.0594184, -0.113113, -0.0498675, -0.101048, -0.0447304, 0.0933744, 0.0725065, 0.00232319, -0.15174, 0.0012898, -0.279923, 0.000961032, 0.742068, 1.04065, 0.582568, -5.96415, 0.492226, -11.4185, 0.442499, 11.0639, 1.92569, -1.73472e-17, 0.0756194, -0.0733955, -3.31672, 0.00129351, 1.74672, -0.000365092
0.03, -0.0594182, -0.113294, -0.0498638, -0.101411, -0.0447278, 0.0943086, 0.0737168, 0.00155088, -0.159318, 0.00206712, -0.309204, 0.00511384, 0.813617, 1.08963, 0.586427, -5.92445, 0.488303, -11.8043, 0.421709, 10.6968, 1.66865, -5.20417e-18, 0.0778431, -0.0734671, -3.3133, 0.00143562, 1.74708, -0.000372875
0.031, -0.0594164, -0.113484, -0.0498586, -0.101801, -0.0447248, 0.0953437, 0.0749623, 0.0015923, -0.169741, 0.00314194, -0.333595, 0.0044432, 0.882362, 1.13761, 0.586203, -5.87044, 0.482876, -12.1902, 0.425032, 10.3427, 1.41629, 5.20417e-18, 0.0799705, -0.0735416, -3.30954, 0.00159107, 1.74749, -0.000380963
0.032, -0.0594159, -0.113692, -0.0498586, -0.102221, -0.0447212, 0.0964627, 0.0762544, 0.000505894, -0.183394, 0.00209509, -0.363888, 0.00433949, 0.963149, 1.18191, 0.59163, -5.80009, 0.48811, -12.5761, 0.425514, 9.92759, 1.18188, 1.04083e-17, 0.082479, -0.0736215, -3.30557, 0.00175636, 1.74792, -0.000389558
0.033, -0.0594099, -0.113911, -0.0498511, -0.102667, -0.0447237, 0.0976406, 0.0775766, 0.00210138, -0.195084, 0.00316031, -0.391111, 0.00331566, 1.04019, 1.22725, 0.583592, -5.73945, 0.48271, -12.962, 0.430658, 9.53061, 0.941986, 1.38778e-17, 0.0850149, -0.0737081, -3.30129, 0.00193272, 1.74838, -0.000398442
0.034, -0.0594064, -0.114138, -0.0498504, -0.103144, -0.0447202, 0.0989159, 0.0789073, 0.0025152, -0.206949, 0.00210714, -0.417924, 0.00281566, 1.12306, 1.2631, 0.581487, -5.67786, 0.487969, -13.3478, 0.433123, 9.1035, 0.749401, 5.20417e-18, 0.0873561, -0.0737928, -3.29659, 0.00212702, 1.74886, -0.000407557
0.035, -0.0594058, -0.11438, -0.0498502, -0.103655, -0.0447175, 0.100277, 0.0802624, 0.00112049, -0.219077, 0.00140495, -0.451136, 0.00264468, 1.19671, 1.2889, 0.588456, -5.6148, 0.491477, -13.7337, 0.433952, 8.72164, 0.606856, -2.08167e-17, 0.0898248, -0.0738828, -3.29155, 0.00233586, 1.74938, -0.000417023
0.036, -0.0594034, -0.114639, -0.049846, -0.104209, -0.0447173, 0.101707, 0.0816455, 0.00130417, -0.232965, 0.0015864, -0.483446, 0.0018556, 1.28654, 1.30991, 0.587513, -5.54276, 0.490528, -14.1196, 0.437895, 8.2976, 0.487965, 6.93889e-18, 0.0924219, -0.0739813, -3.28607, 0.00256227, 1.74992, -0.000426843
0.037, -0.0593995, -0.1149, -0.0498417, -0.104791, -0.0447153, 0.103238, 0.0830253, 0.00207615, -0.240839, 0.00226413, -0.512102, 0.00195069, 1.35715, 1.32899, 0.583615, -5.50078, 0.487096, -14.5054, 0.437399, 7.91173, 0.378764, -5.20417e-18, 0.0945931, -0.0740777, -3.28012, 0.00280672, 1.75049, -0.0004368
0.038, -0.0593957, -0.115182, -0.0498398, -0.105433, -0.0447139, 0.104839, 0.0844269, 0.00194112, -0.254482, 0.00206632, -0.55334, 0.00179329, 1.43946, 1.34694, 0.584251, -5.42975, 0.488066, -14.8913, 0.438173, 7.52586, 0.275012, -6.93889e-18, 0.0967077, -0.0741789, -3.27348, 0.00308109, 1.75107, -0.000447097
0.039, -0.0593949, -0.115482, -0.0498397, -0.106096, -0.0447126, 0.10653, 0.0858221, 0.00129424, -0.269482, 0.00137761, -0.59379, 0.00167535, 1.52338, 1.36394, 0.587478, -5.35175, 0.491509, -15.2772, 0.438749, 7.13999, 0.176042, -1.73472e-18, 0.0993101, -0.0742879, -3.26676, 0.00335915, 1.75169, -0.000457684
0.04, -0.0593959, -0.115789, -0.0498358, -0.106806, -0.0447048, 0.108283, 0.0872318, -0.00025068, -0.279307, 0.00147526, -0.635853, 0.00267204, 1.58563, 1.37349, 0.595212, -5.29955, 0.490982, -15.663, 0.433688, 6.75412, 0.114194, -2.60209e-17, 0.101472, -0.0743997, -3.25937, 0.0036642, 1.75231, -0.000468498
0.041, -0.0593934, -0.116111, -0.0498294, -0.107556, -0.0447064, 0.11008, 0.0886643, 0.00038978, -0.296039, 0.00528596, -0.66995, 0.000921688, 1.65633, 1.3893, 0.591985, -5.21267, 0.471864, -16.0489, 0.442455, 6.36825, 0.0208618, -2.08167e-17, 0.103654, -0.074516, -3.25154, 0.003987, 1.75294, -0.000479688
0.042, -0.0593915, -0.116457, -0.049832, -0.108339, -0.0447086, 0.111937, 0.0900679, 0.000816731, -0.308142, 0.00257557, -0.708658, -0.000216792, 1.70634, 1.39748, 0.589831, -5.1487, 0.485443, -16.4348, 0.44817, 6.05692, -0.0340815, -3.46945e-18, 0.1064, -0.074638, -3.24353, 0.00432042, 1.75359, -0.000491063
0.043, -0.0593893, -0.116811, -0.0498262, -0.10915, -0.0447092, 0.11383, 0.0914844, 0.00360139, -0.324206, 0.00376661, -0.740536, -0.000369542, 1.7699, 1.39522, 0.575886, -5.06484, 0.479429, -16.8207, 0.448939, 5.72014, -0.03698, 1.73472e-17, 0.109063, -0.0747671, -3.2352, 0.00466569, 1.75425, -0.000502702
0.044, -0.0593955, -0.117195, -0.0498316, -0.110001, -0.0447078, 0.115795, 0.0928813, 0.000335649, -0.343805, 0.00080017, -0.778082, 0.000203707, 1.83224, 1.39579, 0.592277, -4.96301, 0.494315, -17.2065, 0.446059, 5.38882, -0.0537817, 1.73472e-18, 0.112462, -0.074904, -3.22666, 0.00502306, 1.75493, -0.000514653
0.045, -0.0594005, -0.117601, -0.0498316, -0.110867, -0.0447045, 0.117804, 0.0942974, -0.00134839, -0.36426, 0.000642301, -0.812192, 0.00122782, 1.87419, 1.40188, 0.600747, -4.85667, 0.495104, -17.5924, 0.440906, 5.15898, -0.0984149, -6.93889e-18, 0.116672, -0.0750563, -3.21824, 0.00537564, 1.75563, -0.000527115
0.046, -0.0594021, -0.11802, -0.0498296, -0.111778, -0.0446987, 0.119837, 0.0957051, -0.00131243, -0.384064, 0.00115946, -0.846591, 0.00275653, 1.92268, 1.39922, 0.600583, -4.75346, 0.492499, -17.9783, 0.433205, 4.89621, -0.0991635, -1.38778e-17, 0.120723, -0.0752133, -3.20926, 0.00575172, 1.75632, -0.000539697
0.047, -0.0594021, -0.118457, -0.0498275, -0.112712, -0.0446923, 0.121937, 0.0970766, -0.000767469, -0.398339, 0.000834201, -0.87595, 0.00756346, 1.9696, 1.39396, 0.597858, -4.67772, 0.494104, -18.0551, 0.409105, 4.64062, -0.0865916, 1.73472e-17, 0.125214, -0.0753783, -3.20019, 0.0061321, 1.75703, -0.000552387
0.048, -0.0593973, -0.118911, -0.0498215, -0.113708, -0.0446886, 0.124061, 0.098458, 0.00188902, -0.417553, 0.00236529, -0.913554, 0.00631326, 2.01912, 1.38675, 0.584527, -4.57711, 0.486388, -17.8571, 0.415319, 4.37175, -0.0643329, -1.56125e-17, 0.129512, -0.0755495, -3.19036, 0.00654391, 1.75773, -0.000565293
0.049, -0.0593853, -0.11939, -0.0498123, -0.114773, -0.0446844, 0.126278, 0.0998086, 0.00484628, -0.434946, 0.00458097, -0.96368, 0.00470428, 2.07772, 1.3797, 0.569621, -4.48535, 0.475219, -17.5958, 0.423323, 4.05659, -0.0426136, 6.93889e-18, 0.133867, -0.0757309, -3.1798, 0.00698619, 1.75844, -0.000578232
0.05, -0.0593757, -0.119893, -0.0498048, -0.115868, -0.0446812, 0.128538, 0.101157, 0.00559625, -0.45135, 0.00484305, -1.00784, 0.00403336, 2.1303, 1.36764, 0.565776, -4.3983, 0.473833, -17.3641, 0.426645, 3.77108, 0.00422586, 1.04083e-17, 0.138778, -0.0759213, -3.16909, 0.00743638, 1.75917, -0.000591534
0.051, -0.0593674, -0.120401, -0.0497967, -0.117038, -0.0446789, 0.130804, 0.102501, 0.00552808, -0.475044, 0.00501131, -1.05971, 0.00349741, 2.1859, 1.35214, 0.566034, -4.27475, 0.47291, -17.093, 0.429301, 3.47042, 0.0682858, -1.04083e-17, 0.142755, -0.0761072, -3.15726, 0.00793318, 1.75987, -0.000604795
0.052, -0.0593568, -0.120937, -0.0497859, -0.118248, -0.0446749, 0.133133, 0.103805, 0.00859308, -0.491585, 0.00832796, -1.11216, 0.00265824, 2.24271, 1.33632, 0.550603, -4.18669, 0.456219, -16.8187, 0.433458, 3.1631, 0.134312, -1.04083e-17, 0.14735, -0.0763072, -3.14519, 0.00844031, 1.76058, -0.000618097
0.053, -0.059353, -0.121495, -0.0497782, -0.119531, -0.0446771, 0.135488, 0.105125, 0.00600776, -0.510241, 0.00950931, -1.16584, 0.000779484, 2.28341, 1.32344, 0.563491, -4.08782, 0.450236, -16.5374, 0.442873, 2.93603, 0.185549, -5.20417e-18, 0.151817, -0.0765094, -3.13229, 0.00898421, 1.76128, -0.00063171
0.054, -0.0593491, -0.122062, -0.0497792, -0.120856, -0.044676, 0.137846, 0.106433, 0.00674526, -0.535123, 0.00749247, -1.21082, 0.000826307, 2.3195, 1.31623, 0.559764, -3.95775, 0.46033, -16.2993, 0.442628, 2.73199, 0.208502, 8.67362e-18, 0.155983, -0.0767059, -3.11883, 0.00955323, 1.76196, -0.000645407
0.055, -0.0593466, -0.122653, -0.0497745, -0.122207, -0.0446804, 0.140237, 0.107717, 0.0068285, -0.553344, 0.0050445, -1.26327, 0.000162031, 2.34123, 1.31075, 0.559323, -3.86073, 0.472523, -16.0235, 0.445994, 2.59943, 0.223065, -2.77556e-17, 0.16087, -0.0769163, -3.10533, 0.0101242, 1.76264, -0.000659249
0.056, -0.0593458, -0.123263, -0.0497698, -0.123591, -0.0446789, 0.142618, 0.109006, 0.00400973, -0.573441, 0.00326094, -1.29713, -9.03614e-05, 2.36195, 1.30761, 0.573409, -3.75415, 0.481394, -15.8404, 0.447241, 2.47201, 0.225899, -5.20417e-18, 0.166124, -0.0771349, -3.09161, 0.0107057, 1.76332, -0.00067335
0.057, -0.0593564, -0.123893, -0.0497707, -0.124962, -0.0446749, 0.145058, 0.11028, 0.00148624, -0.590712, 0.000102173, -1.32055, 0.00105406, 2.38285, 1.30742, 0.586133, -3.66149, 0.497196, -15.7096, 0.441479, 2.34312, 0.214079, 1.38778e-17, 0.172513, -0.0773621, -3.0784, 0.0112683, 1.76402, -0.000687967
0.058, -0.0593563, -0.124556, -0.0497626, -0.12639, -0.0446727, 0.147482, 0.111553, 0.00292391, -0.611892, 0.000880726, -1.34427, 0.0014028, 2.3884, 1.29778, 0.578943, -3.54897, 0.493223, -15.5767, 0.439713, 2.29116, 0.249568, 1.21431e-17, 0.179505, -0.0776077, -3.0648, 0.011848, 1.76471, -0.000702698
0.059, -0.0593581, -0.125234, -0.0497579, -0.127845, -0.0446694, 0.149852, 0.112826, 0.00143821, -0.640311, 0.000222187, -1.37255, 0.000951644, 2.38206, 1.28643, 0.58639, -3.40008, 0.496468, -15.4207, 0.441936, 2.29914, 0.293571, 1.38778e-17, 0.18688, -0.0778574, -3.05107, 0.012436, 1.76536, -0.000717587
0.06, -0.0593465, -0.125949, -0.0497532, -0.129333, -0.0446736, 0.152249, 0.114072, 0.0075436, -0.665969, -0.000264801, -1.41327, -0.00111648, 2.37987, 1.27934, 0.555747, -3.26465, 0.498856, -15.2023, 0.452318, 2.28612, 0.316581, 2.25514e-17, 0.195363, -0.0781219, -3.03733, 0.013026, 1.76602, -0.000732651
0.061, -0.0593439, -0.126681, -0.0497394, -0.130902, -0.0446797, 0.154615, 0.11533, 0.00623482, -0.69151, 0.00481237, -1.46495, -0.00290521, 2.37315, 1.27175, 0.562265, -3.12962, 0.473332, -14.9282, 0.461323, 2.29608, 0.341933, 8.67362e-18, 0.203416, -0.0783936, -3.0226, 0.0136574, 1.76664, -0.000747659
0.062, -0.0593414, -0.127433, -0.0497376, -0.132541, -0.0446802, 0.157052, 0.116562, 0.00464326, -0.708302, 0.00178575, -1.52281, -0.00213332, 2.38758, 1.26026, 0.570198, -3.03814, 0.488447, -14.6225, 0.457469, 2.19956, 0.387061, -1.56125e-17, 0.211204, -0.07866, -3.00699, 0.0143277, 1.76726, -0.000762707
0.063, -0.0593418, -0.128197, -0.0497309, -0.134227, -0.0446756, 0.159509, 0.117805, 0.00234691, -0.724063, 0.00144606, -1.58743, 0.00010887, 2.40085, 1.25545, 0.581684, -2.95169, 0.490079, -14.2825, 0.446212, 2.1086, 0.398707, -1.04083e-17, 0.218789, -0.0789309, -2.99081, 0.015021, 1.76787, -0.000777962
0.064, -0.059346, -0.128937, -0.0497207, -0.135958, -0.044673, 0.161968, 0.119051, -0.000574472, -0.726503, 0.00171253, -1.63982, 0.000924192, 2.42034, 1.24935, 0.596332, -2.93209, 0.488644, -14.0033, 0.442109, 1.9866, 0.416735, -6.93889e-18, 0.224511, -0.0791825, -2.97349, 0.0157581, 1.76845, -0.00079301
0.065, -0.059343, -0.129691, -0.0497078, -0.137689, -0.0446685, 0.164475, 0.120253, 0.000471962, -0.731459, 0.00249186, -1.6787, 0.00214493, 2.44067, 1.2377, 0.59107, -2.89978, 0.484618, -13.7916, 0.43596, 1.85986, 0.462967, -8.67362e-18, 0.230837, -0.0794423, -2.95638, 0.0164866, 1.76905, -0.000808078
0.066, -0.0593319, -0.130459, -0.0496894, -0.139477, -0.0446645, 0.166985, 0.121491, 0.0033455, -0.741302, 0.00786989, -1.71207, 0.00166951, 2.45072, 1.23369, 0.576591, -2.84288, 0.457544, -13.6068, 0.438298, 1.78453, 0.470638, -1.56125e-17, 0.236928, -0.0797066, -2.93856, 0.0172436, 1.76963, -0.000823483
0.067, -0.0593168, -0.131243, -0.0496724, -0.141314, -0.0446701, 0.169471, 0.122688, 0.00707873, -0.749702, 0.0104476, -1.74525, 0.00244129, 2.4643, 1.2265, 0.557775, -2.79305, 0.444486, -13.4225, 0.434494, 1.69173, 0.494576, -2.77556e-17, 0.242954, -0.0799699, -2.92019, 0.0180245, 1.77019, -0.000838501
0.068, -0.0593001, -0.132053, -0.0496617, -0.143181, -0.0446816, 0.172002, 0.123915, 0.0120056, -0.762714, 0.0100501, -1.78308, -0.00124462, 2.47837, 1.22985, 0.532973, -2.71988, 0.446366, -13.2147, 0.453039, 1.59608, 0.465607, 6.93889e-18, 0.249759, -0.0802371, -2.90176, 0.0188101, 1.77076, -0.000854263
0.069, -0.0592991, -0.132864, -0.0496416, -0.145123, -0.0446868, 0.174484, 0.125134, 0.00911036, -0.776889, 0.0121619, -1.83607, -0.0114179, 2.48468, 1.22842, 0.547439, -2.6409, 0.435607, -12.9303, 0.503957, 1.53973, 0.460564, 1.21431e-17, 0.255334, -0.0805025, -2.88209, 0.0196449, 1.77127, -0.000869503
0.07, -0.0593023, -0.133706, -0.0496385, -0.147078, -0.0446888, 0.177008, 0.126334, 0.00562221, -0.795234, 0.00779357, -1.88064, -0.00773477, 2.4921, 1.22499, 0.564912, -2.54075, 0.457418, -12.688, 0.485562, 1.47736, 0.465689, 1.56125e-17, 0.262171, -0.0807695, -2.86273, 0.020473, 1.77181, -0.000885227
0.071, -0.059304, -0.134535, -0.049639, -0.14906, -0.0446874, 0.179542, 0.127544, 0.00141581, -0.803461, 0.00440852, -1.9107, -0.00473155, 2.49466, 1.21995, 0.585961, -2.49132, 0.474348, -12.5179, 0.470532, 1.43923, 0.478771, 6.93889e-18, 0.26797, -0.0810208, -2.8427, 0.0213276, 1.77233, -0.00090104
0.072, -0.0593094, -0.135363, -0.0496348, -0.151017, -0.0446806, 0.182055, 0.128764, -0.00331103, -0.80923, 0.00393839, -1.91659, -0.002149, 2.50979, 1.22376, 0.609649, -2.4542, 0.476656, -12.4688, 0.457551, 1.33844, 0.447536, -1.04083e-17, 0.274101, -0.081276, -2.82305, 0.0221656, 1.77285, -0.000917182
0.073, -0.0593182, -0.136209, -0.0496203, -0.152937, -0.0446694, 0.184589, 0.129959, -0.00648895, -0.817187, 0.00722554, -1.92058, 0.00997314, 2.51538, 1.21873, 0.625627, -2.40596, 0.460075, -12.2904, 0.396828, 1.28516, 0.460735, 2.08167e-17, 0.281697, -0.0815529, -2.80433, 0.0229646, 1.77339, -0.000933659
0.074, -0.0593127, -0.137082, -0.0496024, -0.154883, -0.0446661, 0.187101, 0.131183, -0.00350028, -0.831864, 0.0081748, -1.9245, 0.00788718, 2.53357, 1.22079, 0.610629, -2.32384, 0.45515, -11.8607, 0.407225, 1.16912, 0.438221, 1.38778e-17, 0.290181, -0.0818414, -2.78562, 0.0237639, 1.77392, -0.000950616
0.075, -0.0592918, -0.138007, -0.0495845, -0.156908, -0.0446695, 0.189626, 0.132375, 0.00371466, -0.859518, 0.0104815, -1.94971, 0.00441521, 2.54172, 1.22221, 0.574345, -2.17632, 0.443438, -11.5364, 0.424619, 1.10312, 0.419197, -1.38778e-17, 0.299799, -0.0821471, -2.76644, 0.0245862, 1.77445, -0.000967471
0.076, -0.059276, -0.138974, -0.0495713, -0.158982, -0.0446739, 0.192122, 0.133578, 0.00680377, -0.893031, 0.0109113, -1.98173, 0.00175181, 2.52763, 1.21945, 0.558741, -1.99909, 0.441156, -10.948, 0.43798, 1.14858, 0.420966, -3.46945e-18, 0.31066, -0.082465, -2.74718, 0.0254163, 1.77495, -0.000984666
0.077, -0.0592637, -0.139926, -0.049555, -0.161147, -0.0446796, 0.194602, 0.134781, 0.00696933, -0.920098, 0.00924226, -2.03849, -0.00986744, 2.52527, 1.2139, 0.55779, -1.85423, 0.449338, -10.0924, 0.496134, 1.1356, 0.436696, 6.93889e-18, 0.319261, -0.0827621, -2.72613, 0.0263165, 1.77541, -0.00100124
0.078, -0.0592576, -0.140851, -0.0495432, -0.163269, -0.044679, 0.19713, 0.135963, 0.00785634, -0.923106, 0.00816418, -2.06711, -0.00588121, 2.52298, 1.21383, 0.553295, -1.82994, 0.454611, -9.09238, 0.476196, 1.12176, 0.425181, -2.77556e-17, 0.327292, -0.0830426, -2.70535, 0.0272043, 1.77589, -0.00101802
0.079, -0.0592598, -0.141749, -0.049527, -0.165426, -0.0446703, 0.199623, 0.137135, 0.00509925, -0.920674, 0.00995484, -2.09204, -0.00110918, 2.51765, 1.19786, 0.567102, -1.83312, 0.445496, -8.09238, 0.452248, 1.12346, 0.493335, 3.46945e-18, 0.333436, -0.0833057, -2.68354, 0.0281309, 1.77633, -0.00103424
0.08, -0.0592618, -0.142662, -0.0494994, -0.167637, -0.0446518, 0.202163, 0.138294, 0.00157795, -0.914839, 0.0146378, -2.12442, 0.00411585, 2.51994, 1.18882, 0.584729, -1.85317, 0.421805, -7.09238, 0.425939, 1.08661, 0.52695, -2.42861e-17, 0.339437, -0.0835813, -2.66109, 0.0290821, 1.77677, -0.00105037
0.081, -0.0592454, -0.143595, -0.0494848, -0.16987, -0.0446464, 0.204725, 0.139451, 0.00495231, -0.913461, 0.0157447, -2.16686, 0.0029352, 2.52433, 1.17206, 0.567692, -1.85073, 0.416124, -6.09238, 0.431788, 1.03908, 0.599179, 1.73472e-17, 0.345981, -0.083847, -2.63857, 0.0300387, 1.77721, -0.00106688
0.082, -0.0592216, -0.144532, -0.0494571, -0.1722, -0.0446549, 0.207244, 0.140623, 0.0124506, -0.924054, 0.0208796, -2.22186, 0.00103556, 2.52454, 1.16587, 0.529963, -1.78839, 0.390173, -5.09238, 0.441371, 1.01283, 0.618383, 4.51028e-17, 0.351137, -0.0841092, -2.61451, 0.0310543, 1.77761, -0.00108281
0.083, -0.0592078, -0.145493, -0.0494328, -0.174528, -0.0446738, 0.209832, 0.141775, 0.0136472, -0.937463, 0.0201974, -2.26176, -0.00621372, 2.53624, 1.15954, 0.523842, -1.71174, 0.393341, -4.09239, 0.477806, 0.928463, 0.638537, -2.08167e-17, 0.357413, -0.0843757, -2.59085, 0.0320545, 1.77803, -0.00109919
0.084, -0.0591929, -0.146436, -0.0494241, -0.176846, -0.0446891, 0.212436, 0.14292, 0.0139508, -0.946228, 0.0168393, -2.28084, -0.00829482, 2.54937, 1.14755, 0.522175, -1.65848, 0.410044, -3.09239, 0.488365, 0.836771, 0.687029, 6.93889e-18, 0.362999, -0.0846155, -2.56704, 0.0330621, 1.77846, -0.00111577
0.085, -0.0591969, -0.147375, -0.0494256, -0.179066, -0.0446918, 0.215002, 0.144051, 0.00527597, -0.938332, 0.0117695, -2.25146, -0.00494812, 2.55144, 1.14631, 0.565589, -1.68858, 0.435409, -2.09239, 0.471658, 0.800768, 0.681909, 1.04083e-17, 0.369997, -0.0848541, -2.5448, 0.034009, 1.7789, -0.00113295
0.086, -0.0592172, -0.148316, -0.0494132, -0.18121, -0.0446826, 0.217552, 0.145186, -0.00597405, -0.934509, 0.0134306, -2.2233, 0.0013507, 2.54344, 1.14323, 0.622042, -1.69828, 0.426979, -1.09239, 0.440073, 0.815258, 0.685956, -1.73472e-17, 0.378416, -0.085117, -2.52389, 0.0348995, 1.77936, -0.00115074
0.087, -0.0592325, -0.149285, -0.0493976, -0.183375, -0.0446809, 0.220042, 0.146334, -0.011194, -0.947837, 0.0156214, -2.19506, 0.00206482, 2.52751, 1.14687, 0.648295, -1.62195, 0.415868, -0.311216, 0.436485, 0.869983, 0.656312, 3.46945e-18, 0.387838, -0.0853913, -2.50311, 0.0357862, 1.7798, -0.00116868
0.088, -0.0592211, -0.150292, -0.0493894, -0.18556, -0.0446867, 0.222608, 0.147465, -0.00419419, -0.969756, 0.0123935, -2.18721, 0.00217872, 2.53709, 1.14793, 0.613182, -1.50228, 0.431926, -0.267443, 0.435974, 0.796448, 0.63969, 2.77556e-17, 0.398697, -0.0856711, -2.48259, 0.0366654, 1.78027, -0.00118723
0.089, -0.0592133, -0.151321, -0.0493807, -0.187821, -0.0447003, 0.225212, 0.148594, -0.000251951, -0.995045, 0.011158, -2.20923, -0.00330406, 2.54919, 1.14473, 0.593392, -1.36554, 0.438017, -0.36161, 0.463523, 0.709873, 0.644377, -3.46945e-18, 0.409307, -0.085948, -2.46113, 0.0375826, 1.78072, -0.00120576
0.09, -0.0592113, -0.152305, -0.049373, -0.190054, -0.0447088, 0.227765, 0.149732, 0.000556937, -0.991264, 0.00780713, -2.21261, -0.00493088, 2.55992, 1.13997, 0.589328, -1.37461, 0.454694, -0.0795594, 0.471743, 0.63071, 0.656784, -1.38778e-17, 0.418244, -0.0861996, -2.43941, 0.0385071, 1.78116, -0.0012241
0.091, -0.0592161, -0.153274, -0.0493612, -0.192212, -0.0447085, 0.230298, 0.150859, -0.00182269, -0.979325, 0.00687311, -2.19096, -0.0101804, 2.55242, 1.14357, 0.601274, -1.42462, 0.459246, 0.145782, 0.497987, 0.642899, 0.627559, 3.46945e-18, 0.427742, -0.0864556, -2.41871, 0.039389, 1.7816, -0.00124278
0.092, -0.0592153, -0.154224, -0.0493567, -0.1944, -0.044704, 0.232773, 0.151998, -0.00112057, -0.968273, 0.00670823, -2.19324, -0.00412522, 2.5329, 1.14356, 0.597756, -1.47037, 0.460026, -0.0500202, 0.467666, 0.715726, 0.616222, -2.77556e-17, 0.435879, -0.0866875, -2.39722, 0.0403039, 1.782, -0.00126117
0.093, -0.0592045, -0.155162, -0.0493475, -0.196612, -0.0447005, 0.235269, 0.153112, 0.00285034, -0.957878, 0.00901688, -2.19518, -0.00146593, 2.51341, 1.13626, 0.577793, -1.51297, 0.448391, -0.135109, 0.454335, 0.788222, 0.641543, -3.46945e-18, 0.442997, -0.0869104, -2.37511, 0.0412405, 1.7824, -0.00127918
0.094, -0.0592027, -0.156121, -0.0493266, -0.198839, -0.0446933, 0.237748, 0.154251, 0.00251022, -0.955245, 0.0116631, -2.21116, 0.000214759, 2.48515, 1.13201, 0.579476, -1.51654, 0.43495, -0.157413, 0.44586, 0.904737, 0.651437, -2.08167e-17, 0.450896, -0.0871534, -2.3531, 0.0421715, 1.78279, -0.00129756
0.095, -0.0591864, -0.157052, -0.0493018, -0.201071, -0.0446958, 0.240209, 0.155389, 0.00952912, -0.946658, 0.0138471, -2.22177, -0.00227734, 2.4764, 1.12636, 0.544218, -1.55018, 0.423782, 0.0755048, 0.458344, 0.923873, 0.668275, -1.04083e-17, 0.457356, -0.0873786, -2.33054, 0.0431204, 1.78316, -0.00131561
0.096, -0.0591713, -0.157969, -0.0493016, -0.203239, -0.0446918, 0.242711, 0.156519, 0.0138345, -0.929632, 0.0105569, -2.20986, -0.000824391, 2.46971, 1.12438, 0.52254, -1.62613, 0.440231, 0.382452, 0.45104, 0.932302, 0.666872, -1.73472e-17, 0.464208, -0.0875755, -2.3088, 0.0440412, 1.78356, -0.00133451
0.097, -0.0591641, -0.158864, -0.0492928, -0.20537, -0.0446731, 0.245149, 0.157647, 0.0134157, -0.916443, 0.0108065, -2.17784, 0.00537918, 2.45983, 1.12134, 0.524563, -1.68313, 0.438896, 0.387061, 0.419835, 0.957339, 0.670805, 0, 0.47063, -0.0877756, -2.28733, 0.0449488, 1.78394, -0.00135325
0.098, -0.0591639, -0.159783, -0.0492782, -0.207491, -0.0446574, 0.247623, 0.15877, 0.0114594, -0.912772, 0.00971389, -2.16109, 0.00866848, 2.4523, 1.12071, 0.534342, -1.69229, 0.444213, 0.00119128, 0.403232, 0.970235, 0.662724, 1.73472e-17, 0.478384, -0.0879928, -2.26643, 0.0458329, 1.78433, -0.00137255
0.099, -0.0591514, -0.160713, -0.049267, -0.209585, -0.0446606, 0.250161, 0.159906, 0.0106775, -0.922085, 0.0107139, -2.13841, 0.0046147, 2.46654, 1.12517, 0.538126, -1.63643, 0.439101, -0.384678, 0.423533, 0.87364, 0.629094, 3.46945e-18, 0.4871, -0.088207, -2.24612, 0.0466917, 1.78476, -0.0013928
0.1, -0.059131, -0.161651, -0.0492628, -0.211741, -0.044673, 0.252679, 0.161049, 0.0123896, -0.935503, 0.00605925, -2.13926, -0.00217094, 2.48505, 1.13276, 0.529362, -1.55995, 0.462332, -0.770548, 0.457584, 0.755934, 0.579701, 2.42861e-17, 0.495138, -0.088403, -2.22491, 0.0475882, 1.78516, -0.00141286
0.101, -0.0591226, -0.16259, -0.0492532, -0.213899, -0.0446998, 0.255249, 0.162168, 0.0117776, -0.942692, 0.00766475, -2.15098, -0.0097316, 2.51062, 1.12681, 0.532338, -1.51462, 0.454208, -1.15642, 0.495656, 0.602372, 0.598271, -2.42861e-17, 0.503166, -0.0885977, -2.20365, 0.0484827, 1.78558, -0.00143295
0.102, -0.0591219, -0.163486, -0.0492655, -0.216018, -0.0447271, 0.257816, 0.16329, 0.00791779, -0.930942, 0.00228434, -2.14242, -0.017962, 2.52192, 1.12137, 0.55163, -1.56441, 0.481233, -1.4668, 0.537082, 0.520193, 0.614242, 1.04083e-17, 0.509767, -0.0887447, -2.18232, 0.0493822, 1.78599, -0.00145329
0.103, -0.0591418, -0.164378, -0.0492821, -0.218095, -0.0447314, 0.260324, 0.164437, -0.00406981, -0.914889, -0.0047884, -2.11915, -0.01195, 2.52178, 1.12828, 0.611767, -1.63576, 0.516763, -1.78951, 0.507064, 0.495813, 0.568188, -1.38778e-17, 0.516908, -0.088893, -2.16165, 0.0502584, 1.78638, -0.00147423
0.104, -0.0591692, -0.165277, -0.049295, -0.220144, -0.0447337, 0.262842, 0.165567, -0.0107937, -0.903448, -0.00746172, -2.09516, -0.00631211, 2.51593, 1.13425, 0.645661, -1.68397, 0.530259, -2.17538, 0.478898, 0.499884, 0.527058, -1.73472e-17, 0.524833, -0.0890501, -2.14155, 0.0511113, 1.78679, -0.00149544
0.105, -0.0591866, -0.166168, -0.0493125, -0.222249, -0.0447326, 0.265294, 0.166706, -0.012497, -0.898586, -0.00984701, -2.09819, -0.00315364, 2.49566, 1.13374, 0.654351, -1.69937, 0.54236, -2.56125, 0.463094, 0.576708, 0.518223, 2.77556e-17, 0.531517, -0.0891878, -2.12044, 0.0520063, 1.78716, -0.00151612
0.106, -0.0591888, -0.167072, -0.0493229, -0.224335, -0.044742, 0.267765, 0.167822, -0.00720305, -0.896541, -0.00810783, -2.09289, -0.00617746, 2.4736, 1.13188, 0.627903, -1.70056, 0.533768, -2.94712, 0.478308, 0.662326, 0.51636, -3.46945e-18, 0.539058, -0.0893363, -2.09981, 0.052879, 1.78754, -0.00153695
0.107, -0.0591817, -0.167986, -0.0493241, -0.226479, -0.0447576, 0.270195, 0.16896, -0.000916582, -0.894861, -0.00220089, -2.10528, -0.0107604, 2.44418, 1.1304, 0.5964, -1.69981, 0.504245, -3.33299, 0.501378, 0.785107, 0.512369, -2.42861e-17, 0.546168, -0.0894886, -2.07839, 0.0537806, 1.78789, -0.00155752
0.108, -0.0591691, -0.168865, -0.0493261, -0.228607, -0.044766, 0.272584, 0.170115, 0.00494789, -0.887582, -0.0025336, -2.11035, -0.00944249, 2.42271, 1.13168, 0.566952, -1.72743, 0.505929, -3.50882, 0.494872, 0.868563, 0.494459, 1.73472e-17, 0.551853, -0.089622, -2.05667, 0.0546924, 1.78822, -0.001578
0.109, -0.0591616, -0.169734, -0.0493349, -0.230622, -0.0447522, 0.274994, 0.171239, 0.00637738, -0.877607, -0.0055997, -2.08699, -0.000502905, 2.41015, 1.12617, 0.559729, -1.7686, 0.521347, -3.53854, 0.450037, 0.90728, 0.510742, 6.93889e-18, 0.559017, -0.0897614, -2.03671, 0.0555376, 1.78858, -0.00159937
0.11, -0.0591668, -0.170587, -0.0493284, -0.232625, -0.0447119, 0.277349, 0.172367, 0.00208298, -0.875748, -0.00046974, -2.05516, 0.0134777, 2.40605, 1.12223, 0.581253, -1.76937, 0.495633, -3.91738, 0.37973, 0.90422, 0.519157, 6.93889e-18, 0.565584, -0.0899181, -2.01668, 0.0563832, 1.78893, -0.00162048
0.111, -0.0591624, -0.171464, -0.0493085, -0.234671, -0.0446733, 0.279749, 0.173482, 0.00205905, -0.87317, 0.00656568, -2.03943, 0.0208793, 2.39729, 1.11989, 0.581329, -1.77349, 0.460256, -4.30325, 0.342337, 0.924009, 0.519698, 2.77556e-17, 0.572574, -0.0900954, -1.99632, 0.0572392, 1.78927, -0.0016416
0.112, -0.059131, -0.172375, -0.0492911, -0.236751, -0.0446492, 0.282208, 0.174621, 0.0140548, -0.884627, 0.0101163, -2.06177, 0.0173469, 2.4087, 1.12689, 0.521035, -1.7071, 0.44233, -4.68911, 0.359758, 0.84237, 0.473329, 2.77556e-17, 0.580645, -0.0902748, -1.97595, 0.058096, 1.78964, -0.00166366
0.113, -0.059085, -0.173304, -0.0492745, -0.238972, -0.0446533, 0.284685, 0.175745, 0.0263231, -0.907443, 0.0107701, -2.11188, 0.0101573, 2.43902, 1.12108, 0.459235, -1.58373, 0.438894, -5.01321, 0.395746, 0.666033, 0.49115, 2.77556e-17, 0.587134, -0.0904305, -1.95346, 0.0590348, 1.78997, -0.00168464
0.114, -0.0590414, -0.174234, -0.0492566, -0.241165, -0.0446655, 0.287247, 0.176844, 0.0354121, -0.92229, 0.0111508, -2.14896, 0.00505663, 2.4793, 1.11601, 0.413353, -1.50019, 0.436812, -4.43887, 0.421372, 0.438991, 0.505479, -6.93889e-18, 0.594172, -0.090587, -1.93145, 0.0599521, 1.79032, -0.00170618
0.115, -0.059022, -0.175135, -0.0492553, -0.243339, -0.0446713, 0.289795, 0.177944, 0.0293246, -0.926622, 0.00502934, -2.16049, -0.00705722, 2.50986, 1.10661, 0.443597, -1.46953, 0.467406, -3.5138, 0.481999, 0.260705, 0.54148, 2.77556e-17, 0.600079, -0.090707, -1.90927, 0.0608791, 1.79067, -0.00172784
0.116, -0.0590219, -0.17602, -0.0492551, -0.245472, -0.0446733, 0.292319, 0.179051, 0.0171017, -0.912219, 0.00341949, -2.15052, -0.00346039, 2.5112, 1.10916, 0.50471, -1.53269, 0.475453, -2.76781, 0.464035, 0.228753, 0.517643, 4.16334e-17, 0.605924, -0.0908212, -1.88749, 0.061789, 1.79102, -0.00174982
0.117, -0.0590434, -0.176914, -0.0492624, -0.247579, -0.0446774, 0.29483, 0.180148, 0.0057049, -0.901548, 0.00144186, -2.14111, -0.00570083, 2.50342, 1.10633, 0.561909, -1.57711, 0.485415, -2.46347, 0.475278, 0.242551, 0.520855, 2.08167e-17, 0.612647, -0.0909296, -1.86633, 0.0626772, 1.79137, -0.00177214
0.118, -0.0590501, -0.177812, -0.0492805, -0.24972, -0.044688, 0.297244, 0.181236, 0.000354748, -0.902283, -0.00520898, -2.13595, -0.00692548, 2.47186, 1.09889, 0.588727, -1.56445, 0.51885, -2.42181, 0.481507, 0.376233, 0.547168, -1.38778e-17, 0.619007, -0.0910151, -1.84467, 0.0635885, 1.79168, -0.00179373
0.119, -0.059051, -0.178748, -0.0492964, -0.251882, -0.0447117, 0.299698, 0.182304, -0.00211114, -0.910815, -0.013481, -2.1519, -0.0126234, 2.45486, 1.09136, 0.601065, -1.51242, 0.560369, -2.47597, 0.510234, 0.436686, 0.574135, 1.38778e-17, 0.626847, -0.0911117, -1.82329, 0.0644887, 1.79201, -0.00181561
0.12, -0.0590615, -0.179694, -0.0493091, -0.25406, -0.0447381, 0.302166, 0.183393, -0.00581302, -0.917489, -0.014817, -2.1577, -0.0174043, 2.44796, 1.09155, 0.61968, -1.4696, 0.567176, -2.26295, 0.534402, 0.446497, 0.562303, -2.08167e-17, 0.634822, -0.0912096, -1.80176, 0.0653929, 1.79233, -0.00183796
0.121, -0.0590698, -0.180614, -0.0493371, -0.256196, -0.0447498, 0.304562, 0.184489, -0.00729554, -0.921359, -0.0200325, -2.13908, -0.0146484, 2.43348, 1.09466, 0.627176, -1.44105, 0.593533, -2.04262, 0.52074, 0.494955, 0.535801, 2.08167e-17, 0.642319, -0.0912801, -1.78055, 0.06629, 1.79264, -0.0018604
0.122, -0.0590848, -0.181521, -0.049359, -0.258235, -0.0447424, 0.306931, 0.18555, -0.00909927, -0.917727, -0.0206162, -2.11188, -0.0060395, 2.39618, 1.08794, 0.636344, -1.45014, 0.596671, -2.19478, 0.477621, 0.657751, 0.558774, 6.93889e-18, 0.650831, -0.0913698, -1.76078, 0.0671299, 1.79296, -0.00188307
0.123, -0.059098, -0.182415, -0.0493623, -0.260302, -0.0447296, 0.309226, 0.186618, -0.0116757, -0.91682, -0.0145609, -2.0905, 0.000590827, 2.35557, 1.08208, 0.649358, -1.44574, 0.566428, -2.58065, 0.444342, 0.837836, 0.577392, -2.77556e-17, 0.658291, -0.0914745, -1.74034, 0.0679907, 1.79324, -0.00190493
0.124, -0.0590879, -0.183332, -0.0493639, -0.262409, -0.0447248, 0.311586, 0.187696, -0.00558601, -0.91886, -0.00753321, -2.08611, 0.00205961, 2.34493, 1.085, 0.618809, -1.42636, 0.531305, -2.96652, 0.43695, 0.86747, 0.552013, 5.55112e-17, 0.666194, -0.0915811, -1.7196, 0.0688627, 1.79354, -0.00192735
0.125, -0.0590674, -0.184279, -0.0493524, -0.264564, -0.0447244, 0.314001, 0.188775, 0.00419887, -0.922977, 0.0015269, -2.12096, 0.00975694, 2.3494, 1.08346, 0.56968, -1.39631, 0.485889, -3.35239, 0.398459, 0.820954, 0.548906, -2.77556e-17, 0.67465, -0.0917088, -1.69851, 0.0697449, 1.79384, -0.00195005
0.126, -0.0590366, -0.185217, -0.0493383, -0.266779, -0.0447169, 0.316398, 0.189859, 0.0126391, -0.928719, 0.00706654, -2.14658, 0.00831307, 2.35965, 1.07487, 0.52717, -1.35821, 0.45805, -3.27871, 0.405604, 0.74574, 0.58104, 3.46945e-17, 0.681719, -0.0918263, -1.67629, 0.0706713, 1.79412, -0.00197217
0.127, -0.0590179, -0.186154, -0.0493312, -0.268917, -0.0447096, 0.318844, 0.190904, 0.0161518, -0.926083, 0.00734504, -2.15269, 0.00913633, 2.37759, 1.06521, 0.50942, -1.36202, 0.456587, -2.83801, 0.401414, 0.631562, 0.618917, 2.08167e-17, 0.689987, -0.091941, -1.65531, 0.0715498, 1.79443, -0.00199501
0.128, -0.0590045, -0.187076, -0.0493224, -0.271067, -0.0446881, 0.32124, 0.191987, 0.0150894, -0.925192, 0.0131822, -2.14765, 0.0138559, 2.38554, 1.06841, 0.514598, -1.35726, 0.427313, -2.47316, 0.377601, 0.56787, 0.592057, 2.08167e-17, 0.697347, -0.0920504, -1.63391, 0.0724456, 1.79472, -0.00201795
0.129, -0.0589873, -0.188004, -0.0493145, -0.273221, -0.0446682, 0.323618, 0.193041, 0.0153205, -0.927592, 0.0139653, -2.1465, 0.0151712, 2.38164, 1.06705, 0.513271, -1.33599, 0.423318, -2.32688, 0.370826, 0.563576, 0.588309, 0, 0.704946, -0.0921575, -1.61254, 0.0733405, 1.795, -0.00204053
0.13, -0.058966, -0.188928, -0.0493115, -0.275342, -0.0446711, 0.326036, 0.194117, 0.0168386, -0.928998, 0.00980908, -2.14815, 0.00796945, 2.39081, 1.06304, 0.505467, -1.31971, 0.444069, -2.25478, 0.406864, 0.493558, 0.597629, 2.08167e-17, 0.712911, -0.0922492, -1.59164, 0.0742134, 1.79529, -0.00206406
0.131, -0.0589444, -0.189838, -0.0493043, -0.277503, -0.0446866, 0.328437, 0.195191, 0.0179547, -0.921665, 0.00756315, -2.14997, -0.000144174, 2.40481, 1.06418, 0.49967, -1.34727, 0.455227, -2.18509, 0.447587, 0.399564, 0.581175, 0, 0.719503, -0.0923268, -1.56982, 0.0751177, 1.79556, -0.00208692
0.132, -0.0589384, -0.190764, -0.0493023, -0.279654, -0.0446992, 0.330816, 0.196243, 0.0128645, -0.917051, 0.0046731, -2.15896, -0.00430765, 2.39628, 1.06773, 0.525061, -1.36109, 0.469658, -2.11408, 0.46853, 0.418423, 0.552883, 4.16334e-17, 0.726995, -0.0924028, -1.54842, 0.0760089, 1.79584, -0.00210978
0.133, -0.0589497, -0.191652, -0.0493148, -0.281762, -0.0447119, 0.333156, 0.197308, 0.00419887, -0.905996, -0.00196385, -2.13482, -0.00494535, 2.38422, 1.06781, 0.568503, -1.40748, 0.502967, -1.93169, 0.471846, 0.455324, 0.541859, -4.85723e-17, 0.733419, -0.0924412, -1.52712, 0.0768971, 1.7961, -0.0021328
0.134, -0.0589686, -0.192535, -0.0493336, -0.283802, -0.0447101, 0.335473, 0.198375, -0.00315425, -0.895528, -0.00709072, -2.0919, -0.00085089, 2.3587, 1.06273, 0.605457, -1.45099, 0.528789, -2.19232, 0.451355, 0.559745, 0.556574, 1.38778e-17, 0.740773, -0.092479, -1.50691, 0.0777468, 1.79637, -0.0021566
0.135, -0.0589929, -0.193444, -0.0493522, -0.285825, -0.0447053, 0.337768, 0.199429, -0.0112112, -0.894272, -0.00999127, -2.07622, 0.00165719, 2.3197, 1.06133, 0.645985, -1.44819, 0.543478, -2.57819, 0.438767, 0.731766, 0.553036, 4.16334e-17, 0.74964, -0.0925295, -1.48743, 0.0785705, 1.79664, -0.0021807
0.136, -0.0589984, -0.194358, -0.0493647, -0.287881, -0.0447079, 0.34009, 0.200493, -0.0085517, -0.898441, -0.0114039, -2.05833, -0.000583799, 2.31849, 1.05706, 0.632743, -1.4182, 0.550667, -2.96406, 0.449998, 0.714586, 0.563725, 1.38778e-17, 0.758217, -0.092581, -1.46748, 0.0794091, 1.79691, -0.00220494
0.137, -0.0589884, -0.195307, -0.0493714, -0.289982, -0.0447279, 0.342496, 0.201543, -0.00110359, -0.920704, -0.00779176, -2.07852, -0.00730987, 2.33895, 1.0606, 0.595401, -1.29739, 0.532672, -3.34993, 0.483828, 0.588229, 0.53553, 4.16334e-17, 0.767663, -0.092641, -1.4473, 0.0802534, 1.79719, -0.00222955
0.138, -0.058984, -0.196255, -0.0493674, -0.292167, -0.0447432, 0.34492, 0.202593, 0.00206282, -0.932545, -0.00429512, -2.10663, -0.0100383, 2.3617, 1.05625, 0.579526, -1.2287, 0.51515, -3.7358, 0.497623, 0.450283, 0.546776, 0, 0.775698, -0.0927032, -1.42571, 0.0811497, 1.79746, -0.0022535
0.139, -0.0589784, -0.197168, -0.0493729, -0.294332, -0.0447489, 0.347279, 0.203657, 0.00143814, -0.929313, -0.0056896, -2.12639, -0.00755665, 2.37261, 1.05927, 0.582594, -1.23574, 0.522177, -3.73545, 0.485272, 0.372118, 0.521052, 0, 0.782321, -0.0927355, -1.40385, 0.0820585, 1.7977, -0.00227717
0.14, -0.058979, -0.198063, -0.0493738, -0.296417, -0.0447401, 0.349614, 0.204707, 0.000360303, -0.913345, -0.00624358, -2.12108, -0.0006846, 2.36815, 1.05797, 0.587989, -1.30663, 0.524956, -3.4302, 0.450824, 0.37108, 0.517053, 5.55112e-17, 0.789472, -0.0927825, -1.38306, 0.082925, 1.79795, -0.00230123
0.141, -0.0589818, -0.198947, -0.0493649, -0.298522, -0.0447323, 0.351896, 0.205757, -0.00155427, -0.901852, -0.000642377, -2.11324, 0.00369009, 2.35526, 1.05442, 0.597589, -1.35525, 0.496861, -3.32471, 0.428873, 0.412684, 0.524292, -1.38778e-17, 0.795777, -0.092835, -1.36176, 0.0838071, 1.79818, -0.00232453
0.142, -0.0589651, -0.199856, -0.0493661, -0.300655, -0.0447176, 0.354182, 0.206809, 0.00423011, -0.903012, -0.00092031, -2.12145, 0.00680759, 2.33604, 1.05323, 0.5685, -1.34036, 0.498263, -3.3809, 0.413138, 0.485959, 0.519748, -4.85723e-17, 0.802836, -0.0928762, -1.34042, 0.0846972, 1.79841, -0.00234824
0.143, -0.0589394, -0.20078, -0.0493466, -0.302788, -0.0447094, 0.35647, 0.207873, 0.0129756, -0.907302, 0.00495674, -2.12948, 0.0060358, 2.31667, 1.05873, 0.524516, -1.30967, 0.468682, -3.28869, 0.416915, 0.559926, 0.481605, -4.16334e-17, 0.810571, -0.0929548, -1.31932, 0.0855703, 1.79864, -0.00237216
0.144, -0.0589268, -0.201712, -0.0493186, -0.304977, -0.0447075, 0.358741, 0.208942, 0.0148833, -0.91502, 0.0138335, -2.14925, 0.00209517, 2.31673, 1.06567, 0.514852, -1.26176, 0.424019, -3.1081, 0.4366, 0.536914, 0.436238, 2.77556e-17, 0.817767, -0.0930377, -1.2974, 0.0864717, 1.79885, -0.00239553
0.145, -0.0589106, -0.20264, -0.0493144, -0.307137, -0.0446881, 0.361012, 0.209979, 0.0163606, -0.916168, 0.0118403, -2.16235, 0.00702863, 2.30862, 1.06088, 0.507303, -1.24675, 0.433942, -2.69211, 0.411738, 0.554765, 0.449812, 1.38778e-17, 0.825225, -0.0930847, -1.2759, 0.0873675, 1.79907, -0.0024192
0.146, -0.0589002, -0.203531, -0.0493082, -0.309249, -0.0446729, 0.363254, 0.211034, 0.0127013, -0.912152, 0.0112514, -2.14612, 0.00946914, 2.29304, 1.06401, 0.525495, -1.25791, 0.436825, -2.23438, 0.399384, 0.610235, 0.423567, 3.46945e-17, 0.831791, -0.0931226, -1.25462, 0.08825, 1.79928, -0.00244301
0.147, -0.0589021, -0.20441, -0.0492966, -0.311342, -0.0446616, 0.36556, 0.212105, 0.00849359, -0.906869, 0.00974303, -2.1281, 0.0100105, 2.28554, 1.06904, 0.546553, -1.27554, 0.444251, -2.20384, 0.396563, 0.624678, 0.387752, -3.46945e-17, 0.838012, -0.0931625, -1.23341, 0.0891251, 1.7995, -0.00246761
0.148, -0.0588912, -0.205292, -0.0492832, -0.313408, -0.0446615, 0.367894, 0.213134, 0.00991718, -0.903096, 0.00917456, -2.10637, 0.00667495, 2.29553, 1.05661, 0.539326, -1.28558, 0.44696, -2.46318, 0.41324, 0.551349, 0.439601, 2.08167e-17, 0.844875, -0.0932054, -1.21271, 0.0899772, 1.79974, -0.0024922
0.149, -0.0588732, -0.206194, -0.04928, -0.315535, -0.04467, 0.370205, 0.214165, 0.0139282, -0.905334, 0.00773538, -2.11084, 0.00160263, 2.29403, 1.04293, 0.519091, -1.26537, 0.454123, -2.84905, 0.438687, 0.535771, 0.497705, 0, 0.851625, -0.0932219, -1.19131, 0.09086, 1.79995, -0.00251643
0.15, -0.0588714, -0.20713, -0.0492782, -0.31772, -0.0446914, 0.372573, 0.215186, 0.0108642, -0.91108, 0.00385512, -2.14251, -0.00608553, 2.31504, 1.03729, 0.534392, -1.22729, 0.473506, -3.12583, 0.477342, 0.407046, 0.515682, 1.38778e-17, 0.859005, -0.0932328, -1.16946, 0.0917597, 1.80018, -0.00254085
0.151, -0.0588743, -0.208057, -0.0492805, -0.319909, -0.0447174, 0.374929, 0.21621, 0.00705775, -0.919014, -5.35135e-05, -2.15312, -0.011652, 2.32832, 1.03222, 0.553454, -1.17834, 0.493072, -2.80708, 0.505434, 0.317079, 0.530759, 2.77556e-17, 0.865926, -0.0932265, -1.14742, 0.0926666, 1.80039, -0.00256524
0.152, -0.05889, -0.208978, -0.049307, -0.322056, -0.0447209, 0.377242, 0.217229, 0.000999101, -0.914653, -0.00933473, -2.15367, -0.0110182, 2.32228, 1.02441, 0.583904, -1.19094, 0.539743, -2.44742, 0.5023, 0.324156, 0.559639, -3.46945e-17, 0.873196, -0.0931827, -1.12596, 0.0935633, 1.8006, -0.0025901
0.153, -0.0589135, -0.209878, -0.0493151, -0.324125, -0.0447188, 0.379582, 0.218215, -0.00778078, -0.906994, -0.00899815, -2.1169, -0.00620036, 2.32195, 1.02369, 0.628039, -1.22023, 0.538142, -2.21812, 0.47819, 0.302374, 0.553392, 2.77556e-17, 0.88089, -0.0931776, -1.10553, 0.0944129, 1.80083, -0.00261522
0.154, -0.0589252, -0.210764, -0.0493204, -0.326211, -0.0447282, 0.381879, 0.219222, -0.00746223, -0.899525, -0.0131001, -2.1029, -0.00726747, 2.31075, 1.01132, 0.626563, -1.24872, 0.558704, -2.60399, 0.483619, 0.335396, 0.605177, 0, 0.887528, -0.0931606, -1.08452, 0.0952796, 1.80104, -0.00263988
0.155, -0.0589214, -0.211661, -0.0493325, -0.328315, -0.0447356, 0.384137, 0.220214, -0.00460194, -0.898331, -0.0115479, -2.09304, -0.00851783, 2.28878, 1.00626, 0.612224, -1.24572, 0.551064, -2.98986, 0.489945, 0.422714, 0.620522, 1.38778e-17, 0.894462, -0.09313, -1.06343, 0.0961537, 1.80124, -0.00266418
0.156, -0.0589058, -0.212578, -0.0493206, -0.330428, -0.0447457, 0.386341, 0.2212, 0.00355909, -0.906167, -0.0020605, -2.10871, -0.00953521, 2.25381, 0.998602, 0.571263, -1.19736, 0.503508, -3.37573, 0.495133, 0.575509, 0.648973, 7.63278e-17, 0.902189, -0.0931494, -1.04253, 0.0970129, 1.80143, -0.00268787
0.157, -0.0589037, -0.213488, -0.0493068, -0.332569, -0.0447428, 0.38849, 0.22219, 0.00358453, -0.915111, 0.00433974, -2.12332, -0.00559567, 2.22437, 0.994795, 0.571115, -1.14355, 0.47137, -3.48217, 0.475406, 0.701227, 0.658105, 3.46945e-17, 0.909101, -0.0931665, -1.02103, 0.0978965, 1.8016, -0.00271092
0.158, -0.0588984, -0.214398, -0.0493029, -0.334612, -0.0447303, 0.390677, 0.223156, 0.00366975, -0.915516, 0.00448695, -2.10045, -0.00796418, 2.21391, 0.990153, 0.570635, -1.13242, 0.470594, -3.32205, 0.487124, 0.731672, 0.67165, 1.38778e-17, 0.917722, -0.0931825, -1.00123, 0.0987198, 1.80179, -0.00273535
0.159, -0.0588909, -0.215304, -0.0492972, -0.336669, -0.0446923, 0.392819, 0.22413, 0.00482178, -0.912623, 0.00961241, -2.08668, 0.00578093, 2.20036, 0.978721, 0.5648, -1.13782, 0.444909, -3.5767, 0.418019, 0.777979, 0.719082, 2.08167e-17, 0.92591, -0.0932046, -0.981131, 0.0995592, 1.80197, -0.00275955
0.16, -0.0588828, -0.216213, -0.0492738, -0.338753, -0.0446546, 0.39497, 0.225093, 0.00446237, -0.905478, 0.0158782, -2.07329, 0.0180938, 2.17407, 0.977083, 0.566516, -1.16446, 0.413347, -3.94565, 0.356077, 0.887939, 0.717631, 4.16334e-17, 0.933759, -0.0932558, -0.960613, 0.100408, 1.80214, -0.00278328
0.161, -0.0588542, -0.217143, -0.0492499, -0.340836, -0.0446523, 0.397205, 0.226078, 0.0137481, -0.908418, 0.0202242, -2.08164, 0.0144752, 2.18472, 0.978835, 0.519802, -1.14046, 0.391378, -4.33152, 0.374148, 0.812307, 0.699029, 2.08167e-17, 0.942651, -0.0933011, -0.940444, 0.101236, 1.80234, -0.00280825
0.162, -0.058818, -0.218068, -0.0492304, -0.343032, -0.0446501, 0.399448, 0.227048, 0.0224933, -0.915224, 0.0202509, -2.11426, 0.0122791, 2.2084, 0.971075, 0.475713, -1.09718, 0.39105, -4.48693, 0.385106, 0.671474, 0.728125, 0, 0.949342, -0.093312, -0.918246, 0.102143, 1.80251, -0.00283186
0.163, -0.0587896, -0.21899, -0.0492167, -0.34525, -0.0446556, 0.401735, 0.228011, 0.024531, -0.913932, 0.0179625, -2.16115, 0.00488572, 2.23338, 0.96897, 0.465241, -1.09443, 0.402354, -4.07892, 0.422128, 0.523712, 0.729021, -5.55112e-17, 0.955467, -0.0932996, -0.895596, 0.103067, 1.80268, -0.00285555
0.164, -0.0587858, -0.219878, -0.0492131, -0.347424, -0.0446677, 0.404026, 0.22899, 0.0188991, -0.907765, 0.0129751, -2.17031, 6.97876e-05, 2.2621, 0.967205, 0.493363, -1.11638, 0.427255, -3.10467, 0.446328, 0.357203, 0.728062, -4.85723e-17, 0.960719, -0.0932543, -0.873112, 0.103984, 1.80285, -0.00287973
0.165, -0.0588068, -0.220765, -0.0492309, -0.349554, -0.0446732, 0.406322, 0.229971, 0.00747826, -0.904981, 0.00316533, -2.14907, -0.00024167, 2.27551, 0.969618, 0.550676, -1.12143, 0.476482, -2.36496, 0.447941, 0.267181, 0.706178, 2.77556e-17, 0.966681, -0.0931704, -0.851371, 0.10488, 1.80303, -0.00290496
0.166, -0.0588284, -0.221665, -0.0492446, -0.351659, -0.0446756, 0.408531, 0.230936, -0.00178074, -0.907315, -0.00410893, -2.13148, 0.00183527, 2.25496, 0.969358, 0.597188, -1.10076, 0.51299, -2.23845, 0.43758, 0.34786, 0.697836, -5.55112e-17, 0.973688, -0.0931032, -0.830286, 0.105752, 1.8032, -0.00292968
0.167, -0.0588435, -0.222569, -0.0492596, -0.353791, -0.0446938, 0.410676, 0.231916, -0.00704518, -0.908273, -0.00863327, -2.12675, -0.0037981, 2.22998, 0.972607, 0.623661, -1.08693, 0.535762, -2.43234, 0.465929, 0.451306, 0.671787, -2.77556e-17, 0.980436, -0.0930202, -0.808812, 0.106636, 1.80335, -0.00295381
0.168, -0.0588489, -0.223502, -0.0492671, -0.355946, -0.0447343, 0.412838, 0.232885, -0.00556382, -0.915997, -0.00755434, -2.1215, -0.0156061, 2.20243, 0.974433, 0.616308, -1.03898, 0.530443, -2.62435, 0.525374, 0.567444, 0.652967, -2.08167e-17, 0.98819, -0.0929487, -0.787427, 0.10751, 1.80351, -0.00297789
0.169, -0.0588585, -0.224421, -0.0492768, -0.358101, -0.0447514, 0.414989, 0.233877, -0.00785136, -0.916676, -0.00953605, -2.13821, -0.0148352, 2.171, 0.972679, 0.627842, -1.02639, 0.540449, -2.82332, 0.52169, 0.703051, 0.651819, -1.38778e-17, 0.995261, -0.0928716, -0.765803, 0.108398, 1.80365, -0.00300235
0.17, -0.0588674, -0.225337, -0.0492788, -0.360215, -0.044757, 0.417131, 0.234842, -0.00674762, -0.912877, -0.00576799, -2.12427, -0.00916135, 2.16257, 0.967059, 0.622412, -1.03622, 0.521628, -2.68761, 0.493377, 0.723798, 0.67027, -2.77556e-17, 1.00292, -0.0928197, -0.744854, 0.10926, 1.80381, -0.00302682
0.171, -0.0588834, -0.22623, -0.0492826, -0.362243, -0.0447511, 0.419341, 0.235816, -0.010954, -0.899354, -0.00639404, -2.09189, -0.00681587, 2.17532, 0.973763, 0.643604, -1.09492, 0.524796, -2.81939, 0.48159, 0.63797, 0.627005, 0, 1.01089, -0.0927707, -0.724958, 0.110082, 1.80398, -0.003053
0.172, -0.0588825, -0.227125, -0.0492757, -0.3643, -0.0447199, 0.421485, 0.236799, -0.0051018, -0.896571, -0.00088593, -2.07746, 0.00508343, 2.17414, 0.977651, 0.614334, -1.09988, 0.497186, -3.20526, 0.421781, 0.622414, 0.597742, 2.08167e-17, 1.01854, -0.0927487, -0.704662, 0.110921, 1.80413, -0.00307857
0.173, -0.0588587, -0.22805, -0.0492556, -0.366402, -0.0447006, 0.423619, 0.237749, 0.00653204, -0.903105, 0.00637325, -2.07682, 0.00835455, 2.15059, 0.972958, 0.555927, -1.05796, 0.460689, -3.59113, 0.405233, 0.718804, 0.611701, 7.63278e-17, 1.02682, -0.0927526, -0.684066, 0.111767, 1.80428, -0.0031032
0.174, -0.0588168, -0.229006, -0.0492271, -0.368526, -0.0446962, 0.425796, 0.238736, 0.0189504, -0.923656, 0.0130214, -2.10007, 0.00429241, 2.14826, 0.974539, 0.493417, -0.945639, 0.427164, -3.977, 0.4255, 0.708696, 0.59393, 0, 1.03627, -0.0927749, -0.663648, 0.1126, 1.80444, -0.00312897
0.175, -0.058772, -0.229961, -0.0491971, -0.370725, -0.0446978, 0.427963, 0.239728, 0.0280136, -0.943884, 0.0193748, -2.12762, 0.00382254, 2.16351, 0.980565, 0.447652, -0.834951, 0.395097, -3.98484, 0.427865, 0.610763, 0.553876, -4.16334e-17, 1.04433, -0.0927811, -0.641886, 0.113482, 1.80458, -0.0031538
0.176, -0.0587482, -0.230905, -0.0491879, -0.372873, -0.0446856, 0.430169, 0.240686, 0.0286475, -0.943104, 0.0156769, -2.14714, 0.0069602, 2.18006, 0.976091, 0.444244, -0.829408, 0.413495, -3.56435, 0.412055, 0.505999, 0.566671, 4.16334e-17, 1.05274, -0.0927479, -0.620819, 0.114348, 1.80473, -0.00317938
0.177, -0.0587427, -0.231817, -0.0491883, -0.374994, -0.0446603, 0.432317, 0.241674, 0.0213748, -0.933547, 0.00972103, -2.14092, 0.0143747, 2.1793, 0.984272, 0.480553, -0.868081, 0.443278, -3.00483, 0.374729, 0.488311, 0.515885, -2.77556e-17, 1.06006, -0.0926871, -0.599683, 0.115221, 1.80487, -0.00320512
0.178, -0.0587536, -0.232715, -0.0491742, -0.3771, -0.0446503, 0.434445, 0.242664, 0.0114996, -0.919596, 0.0113616, -2.12555, 0.0134338, 2.15759, 0.98615, 0.530038, -0.928852, 0.434934, -2.75732, 0.379334, 0.57558, 0.496597, -6.93889e-17, 1.06697, -0.0926483, -0.578549, 0.116083, 1.805, -0.00323044
0.179, -0.0587459, -0.233612, -0.0491789, -0.379199, -0.0446513, 0.436583, 0.24363, 0.00967269, -0.904086, 0.00655035, -2.12397, 0.00778338, 2.14381, 0.976634, 0.539095, -0.997432, 0.459037, -2.84242, 0.407596, 0.623072, 0.534514, 0, 1.07392, -0.0925595, -0.55751, 0.116945, 1.80513, -0.00325578
0.18, -0.0587292, -0.234518, -0.0491891, -0.381371, -0.0446648, 0.43868, 0.244614, 0.012465, -0.903584, -0.000806185, -2.13561, -0.000590221, 2.13459, 0.981801, 0.524967, -0.990882, 0.495922, -2.91917, 0.449599, 0.648216, 0.498831, 0, 1.08009, -0.0924384, -0.535377, 0.117848, 1.80525, -0.00328033
0.181, -0.058726, -0.235446, -0.0491825, -0.383541, -0.0447011, 0.440834, 0.245594, 0.0102962, -0.913546, 0.000686837, -2.15584, -0.0129082, 2.13364, 0.985075, 0.535779, -0.931793, 0.488391, -2.78667, 0.511552, 0.63143, 0.472664, 2.77556e-17, 1.0873, -0.092353, -0.513621, 0.118725, 1.80538, -0.00330537
0.182, -0.0587321, -0.236345, -0.0491967, -0.38571, -0.0447271, 0.442977, 0.246565, 0.00576767, -0.916689, -0.00505043, -2.14851, -0.0188565, 2.13884, 0.983029, 0.558483, -0.907084, 0.517219, -2.39294, 0.541554, 0.58397, 0.473188, 1.38778e-17, 1.09312, -0.0922078, -0.491373, 0.119629, 1.8055, -0.00333016
0.183, -0.0587568, -0.237239, -0.0492258, -0.387824, -0.044734, 0.445126, 0.247557, -0.00506657, -0.91015, -0.0131591, -2.13653, -0.0120758, 2.14251, 0.982922, 0.612901, -0.930844, 0.558053, -2.2643, 0.507719, 0.544157, 0.4638, 6.93889e-17, 1.09965, -0.0920388, -0.470013, 0.12051, 1.80563, -0.00335651
0.184, -0.0587956, -0.238133, -0.0492441, -0.38989, -0.0447254, 0.447234, 0.248528, -0.0160936, -0.903349, -0.013356, -2.11812, -0.00692559, 2.13281, 0.976701, 0.668424, -0.955904, 0.559221, -2.37018, 0.481882, 0.571549, 0.4852, 2.77556e-17, 1.10706, -0.0919088, -0.449503, 0.121358, 1.80576, -0.00338277
0.185, -0.0588026, -0.239023, -0.0492462, -0.391963, -0.0447259, 0.449314, 0.249512, -0.0112178, -0.897197, -0.00686613, -2.09211, -0.00540884, 2.12159, 0.981241, 0.644115, -0.97776, 0.526793, -2.71946, 0.474304, 0.606859, 0.452653, 0, 1.11413, -0.0918082, -0.428784, 0.122204, 1.80588, -0.00340862
0.186, -0.0587749, -0.239953, -0.0492461, -0.394079, -0.0447345, 0.451453, 0.250482, 0.004776, -0.906686, -0.002121, -2.09759, -0.00440204, 2.12397, 0.976915, 0.563869, -0.921021, 0.503066, -3.10533, 0.469355, 0.573599, 0.464582, -8.32667e-17, 1.12236, -0.0917129, -0.407996, 0.123052, 1.806, -0.00343488
0.187, -0.0587519, -0.240892, -0.0492312, -0.39623, -0.0447428, 0.453652, 0.251452, 0.0134653, -0.91612, 0.00583404, -2.11949, -0.00164173, 2.14489, 0.973215, 0.520192, -0.864461, 0.463142, -3.48781, 0.455636, 0.446978, 0.473391, -4.16334e-17, 1.13046, -0.091648, -0.38678, 0.123911, 1.80613, -0.00346135
0.188, -0.0587383, -0.241837, -0.0492192, -0.39838, -0.0447453, 0.455878, 0.252416, 0.0145302, -0.92267, 0.00869897, -2.12355, -0.00174701, 2.1796, 0.966899, 0.514732, -0.822258, 0.448697, -3.38456, 0.456188, 0.251185, 0.49533, 8.32667e-17, 1.13884, -0.0915776, -0.36566, 0.124768, 1.80626, -0.0034883
0.189, -0.0587307, -0.242753, -0.0492305, -0.40043, -0.0447294, 0.458118, 0.253369, 0.0136483, -0.914871, 0.00233037, -2.10895, 0.00543279, 2.19536, 0.965087, 0.519066, -0.852091, 0.480653, -3.25851, 0.42013, 0.149998, 0.494862, -2.77556e-17, 1.14756, -0.0914622, -0.345785, 0.125591, 1.80641, -0.00351666
0.19, -0.0587383, -0.243645, -0.0492211, -0.402511, -0.0446979, 0.460252, 0.254314, 0.0104113, -0.910239, 0.0095067, -2.09595, 0.0147159, 2.19057, 0.958555, 0.535326, -0.866332, 0.444678, -3.4065, 0.373399, 0.152598, 0.518069, 4.16334e-17, 1.15457, -0.0913882, -0.324968, 0.126444, 1.80653, -0.00354295
0.191, -0.0587226, -0.24454, -0.0492035, -0.404609, -0.0446781, 0.462305, 0.255259, 0.0137599, -0.90829, 0.0147257, -2.09085, 0.0156219, 2.14714, 0.957265, 0.518427, -0.867133, 0.418406, -3.698, 0.368672, 0.34923, 0.515066, -1.38778e-17, 1.16146, -0.0913263, -0.303921, 0.127299, 1.80663, -0.00356808
0.192, -0.0586864, -0.245435, -0.0491982, -0.406682, -0.0446915, 0.46434, 0.256199, 0.0237409, -0.901405, 0.0142558, -2.08403, 0.00363411, 2.10289, 0.952896, 0.46816, -0.892611, 0.420703, -3.95577, 0.428745, 0.550087, 0.527514, 0, 1.16874, -0.0912207, -0.283282, 0.128133, 1.80673, -0.00359319
0.193, -0.0586571, -0.246332, -0.0491878, -0.408855, -0.0447048, 0.46636, 0.257134, 0.026975, -0.90281, 0.0126776, -2.11902, -0.00378158, 2.06835, 0.944404, 0.451696, -0.876615, 0.42849, -4.2194, 0.465956, 0.702587, 0.560621, 0, 1.17441, -0.0911067, -0.260947, 0.12903, 1.80682, -0.00361678
0.194, -0.0586602, -0.247254, -0.0491793, -0.411013, -0.0446996, 0.468422, 0.258061, 0.0173116, -0.908299, 0.0107856, -2.14106, -0.00027393, 2.06094, 0.944804, 0.500044, -0.83994, 0.437865, -3.84116, 0.448366, 0.719046, 0.549354, -6.93889e-17, 1.18159, -0.091005, -0.239331, 0.129907, 1.80692, -0.00364156
0.195, -0.0586732, -0.24815, -0.0491939, -0.413139, -0.0446934, 0.470455, 0.258983, 0.00480669, -0.90558, 0.00167905, -2.13185, 0.0042154, 2.06223, 0.940594, 0.562698, -0.84458, 0.483544, -3.26872, 0.425857, 0.692242, 0.561182, 0, 1.18799, -0.0908363, -0.217785, 0.13079, 1.80701, -0.00366636
0.196, -0.0586973, -0.249048, -0.0492126, -0.415248, -0.0446794, 0.472477, 0.259903, -0.00664882, -0.897103, -0.00514859, -2.12753, 0.00827892, 2.03861, 0.931908, 0.620217, -0.877988, 0.517869, -3.05932, 0.4054, 0.790131, 0.595413, -2.77556e-17, 1.19481, -0.0906611, -0.19659, 0.131663, 1.80711, -0.0036915
0.197, -0.0587032, -0.249961, -0.0492124, -0.417344, -0.0446724, 0.474498, 0.260812, -0.00741442, -0.900232, -0.00254204, -2.11896, 0.00707763, 2.02654, 0.926102, 0.624104, -0.853207, 0.504835, -2.99742, 0.411336, 0.830305, 0.615355, 1.38778e-17, 1.20259, -0.090538, -0.175868, 0.132509, 1.8072, -0.00371657
0.198, -0.0586806, -0.250861, -0.0492152, -0.419491, -0.0446809, 0.47655, 0.261729, 0.00316808, -0.899447, -0.00151414, -2.12331, 0.00420115, 2.04527, 0.925537, 0.570966, -0.848138, 0.499722, -3.09166, 0.425803, 0.716138, 0.609009, 6.93889e-17, 1.20881, -0.0903817, -0.154028, 0.133392, 1.80729, -0.0037412
0.199, -0.0586506, -0.251798, -0.0492129, -0.421664, -0.0447103, 0.478688, 0.262628, 0.0117914, -0.909842, 0.000889225, -2.14667, -0.00740428, 2.07087, 0.919047, 0.527549, -0.786791, 0.487683, -3.08238, 0.484124, 0.566714, 0.632464, -6.93889e-17, 1.21638, -0.0902341, -0.132344, 0.134263, 1.80739, -0.00376651
0.2, -0.0586478, -0.252726, -0.0492124, -0.423882, -0.0447322, 0.48081, 0.263535, 0.0111453, -0.922362, 0.0019008, -2.1751, -0.0111404, 2.09695, 0.920027, 0.530752, -0.71491, 0.48262, -2.71618, 0.503024, 0.415089, 0.618493, 1.38778e-17, 1.22274, -0.0900693, -0.10974, 0.135171, 1.80748, -0.00379119
0.201, -0.0586674, -0.253653, -0.0492296, -0.42605, -0.044727, 0.482914, 0.264447, 0.00270931, -0.924563, -0.00403914, -2.17031, -0.00659814, 2.10462, 0.914005, 0.573127, -0.694639, 0.512492, -2.05235, 0.480261, 0.35571, 0.639483, -2.77556e-17, 1.2299, -0.0898741, -0.0879956, 0.136061, 1.80757, -0.00381705
0.202, -0.0587027, -0.254558, -0.0492446, -0.428116, -0.0447174, 0.484968, 0.265353, -0.00995701, -0.919295, -0.00993191, -2.1372, 0.000816432, 2.08317, 0.913, 0.636812, -0.711923, 0.542106, -1.71863, 0.443092, 0.442421, 0.635456, 0, 1.2378, -0.0896973, -0.0676464, 0.136898, 1.80767, -0.00384338
0.203, -0.0587233, -0.255448, -0.0492544, -0.430209, -0.0447164, 0.486949, 0.266271, -0.0132564, -0.907842, -0.00980811, -2.11949, 0.00147174, 2.06201, 0.916228, 0.653515, -0.760289, 0.541584, -2.02478, 0.439805, 0.528424, 0.610132, 1.38778e-17, 1.24449, -0.0895172, -0.0465737, 0.137755, 1.80775, -0.00386843
0.204, -0.05871, -0.256365, -0.0492548, -0.432316, -0.0447251, 0.488969, 0.267175, -0.00513566, -0.905329, -0.006052, -2.10554, -0.00391814, 2.044, 0.913403, 0.612778, -0.763683, 0.522808, -2.41065, 0.466842, 0.598286, 0.615222, -4.16334e-17, 1.25225, -0.0893621, -0.0257245, 0.138599, 1.80784, -0.00389375
0.205, -0.0586877, -0.257297, -0.0492455, -0.434418, -0.0447467, 0.491018, 0.268093, 0.00537686, -0.908521, -7.35366e-05, -2.10727, -0.0115848, 2.03147, 0.909613, 0.559993, -0.738399, 0.492823, -2.79652, 0.50539, 0.640411, 0.624986, 1.11022e-16, 1.2608, -0.0892314, -0.00519466, 0.139423, 1.80792, -0.00391978
0.206, -0.0586786, -0.258204, -0.0492341, -0.436572, -0.0447488, 0.493029, 0.26901, 0.00709938, -0.905949, 0.00158306, -2.12675, -0.00799312, 2.02998, 0.912314, 0.551289, -0.742195, 0.484426, -3.1487, 0.487453, 0.627773, 0.602313, -5.55112e-17, 1.26724, -0.0890933, 0.0166456, 0.140299, 1.808, -0.00394446
0.207, -0.058687, -0.259101, -0.0492297, -0.438632, -0.0447381, 0.495063, 0.26991, 0.000640881, -0.899131, 0.00184179, -2.10749, -0.000597531, 2.02612, 0.913614, 0.583666, -0.767317, 0.483088, -3.06435, 0.450369, 0.626726, 0.58681, 2.77556e-17, 1.27485, -0.088955, 0.0370278, 0.141126, 1.80809, -0.00397056
0.208, -0.0586942, -0.259977, -0.0492325, -0.440688, -0.044712, 0.497061, 0.270825, -1.10064e-05, -0.894849, 0.00535528, -2.08725, 0.00973677, 2.02063, 0.910564, 0.586997, -0.779969, 0.465549, -3.30985, 0.398436, 0.634222, 0.592913, 2.77556e-17, 1.28149, -0.0887937, 0.0576965, 0.14197, 1.80816, -0.00399658
0.209, -0.0586914, -0.260878, -0.0492244, -0.442755, -0.0446869, 0.499061, 0.271722, 0.00080245, -0.900631, 0.00631032, -2.07132, 0.0142621, 2.01459, 0.912648, 0.582902, -0.742047, 0.460693, -3.69572, 0.375559, 0.644398, 0.573525, 2.77556e-17, 1.28917, -0.0886671, 0.0781208, 0.142802, 1.80824, -0.00402247
0.21, -0.0586646, -0.261772, -0.0492061, -0.44481, -0.0446845, 0.501042, 0.272639, 0.00954089, -0.898608, 0.00974205, -2.07485, 0.0115847, 1.9934, 0.910442, 0.538941, -0.743226, 0.443351, -4.08159, 0.388921, 0.730521, 0.575378, 2.77556e-17, 1.29668, -0.0885574, 0.0984831, 0.143618, 1.80832, -0.00404825
0.211, -0.0586217, -0.262683, -0.0491945, -0.446937, -0.0446994, 0.503039, 0.273552, 0.020052, -0.908791, 0.0102981, -2.08654, 0.000942266, 2.00069, 0.912661, 0.485957, -0.683198, 0.440454, -4.43825, 0.442282, 0.674124, 0.55516, 0, 1.30381, -0.0884085, 0.119792, 0.144469, 1.80839, -0.00407339
0.212, -0.0586039, -0.263612, -0.0491815, -0.449101, -0.044705, 0.505086, 0.274446, 0.0201238, -0.912397, 0.0105299, -2.1192, -0.00170243, 2.01282, 0.905454, 0.48542, -0.655876, 0.439165, -4.47689, 0.455562, 0.593008, 0.582245, 5.55112e-17, 1.31114, -0.0882631, 0.141433, 0.145335, 1.80847, -0.00409871
0.213, -0.0586089, -0.264518, -0.0491887, -0.451254, -0.0446996, 0.507109, 0.275363, 0.0115878, -0.910399, 0.00609129, -2.13167, 0.00277132, 2.0245, 0.908278, 0.52815, -0.656806, 0.461431, -3.9965, 0.433139, 0.514373, 0.558962, 1.38778e-17, 1.31754, -0.0880544, 0.163282, 0.146219, 1.80853, -0.00412442
0.214, -0.0586306, -0.265408, -0.0492104, -0.453346, -0.0446884, 0.509134, 0.276263, -0.0023389, -0.900118, -0.00340259, -2.11621, 0.00743058, 2.03427, 0.903254, 0.598001, -0.699317, 0.509117, -3.509, 0.409731, 0.445284, 0.575082, -2.77556e-17, 1.32419, -0.0878091, 0.184368, 0.147082, 1.80861, -0.00415081
0.215, -0.0586567, -0.266305, -0.0492083, -0.455404, -0.0446772, 0.511103, 0.277163, -0.0124018, -0.891426, -0.000813025, -2.1037, 0.00829329, 2.01339, 0.904737, 0.648576, -0.733799, 0.496149, -3.44833, 0.405306, 0.529981, 0.558664, 4.16334e-17, 1.33184, -0.0876425, 0.204708, 0.147906, 1.80867, -0.00417688
0.216, -0.0586453, -0.267196, -0.0492161, -0.457508, -0.044689, 0.513032, 0.278072, -0.00500836, -0.888067, -0.00276816, -2.09352, 0.00151464, 1.98489, 0.901067, 0.611494, -0.741687, 0.506002, -3.60407, 0.439317, 0.653175, 0.567929, 5.55112e-17, 1.33834, -0.0874204, 0.225979, 0.148761, 1.80873, -0.00420184
0.217, -0.0586184, -0.268115, -0.0492184, -0.459659, -0.0447188, 0.51502, 0.278973, 0.00625149, -0.893707, -0.00170541, -2.1098, -0.00997786, 1.97421, 0.906577, 0.554927, -0.7043, 0.500711, -3.85688, 0.497078, 0.686709, 0.53137, 2.77556e-17, 1.34536, -0.0872018, 0.247604, 0.149623, 1.8088, -0.00422692
0.218, -0.0586167, -0.269026, -0.0492124, -0.461827, -0.0447391, 0.516989, 0.27988, 0.00433071, -0.906021, 0.00193774, -2.13377, -0.0126716, 1.97861, 0.904062, 0.564514, -0.633621, 0.482435, -3.7608, 0.510749, 0.645047, 0.534873, -1.38778e-17, 1.35173, -0.0870041, 0.269646, 0.150499, 1.80885, -0.00425156
0.219, -0.0586385, -0.26994, -0.0492167, -0.464025, -0.0447345, 0.518954, 0.280782, -0.00515715, -0.912807, 0.000256972, -2.15346, -0.00451086, 1.96842, 0.897251, 0.612171, -0.590543, 0.490882, -3.33195, 0.469899, 0.676316, 0.559905, -5.55112e-17, 1.35776, -0.0867777, 0.29213, 0.151404, 1.80891, -0.00427621
0.22, -0.0586607, -0.270829, -0.0492315, -0.466122, -0.0447212, 0.520934, 0.281679, -0.011049, -0.90781, -0.00459531, -2.14803, 0.00329389, 1.97345, 0.903881, 0.641852, -0.606637, 0.515292, -2.76453, 0.430743, 0.631348, 0.517791, 2.77556e-17, 1.3643, -0.0865333, 0.313307, 0.152266, 1.80897, -0.00430229
0.221, -0.0586859, -0.271693, -0.049235, -0.468234, -0.0447062, 0.522888, 0.282579, -0.0205254, -0.895642, -0.00413286, -2.12878, 0.00679461, 1.9622, 0.89974, 0.689485, -0.658846, 0.513014, -2.4999, 0.413088, 0.668078, 0.529491, -2.77556e-17, 1.36934, -0.0863111, 0.335175, 0.153146, 1.80902, -0.00432739
0.222, -0.058672, -0.272584, -0.0492208, -0.470366, -0.0447032, 0.524879, 0.283475, -0.0107706, -0.891973, 0.00201089, -2.12097, 0.00430817, 1.97166, 0.905354, 0.640573, -0.668276, 0.482153, -2.63456, 0.425491, 0.600853, 0.492459, -2.77556e-17, 1.37538, -0.0861402, 0.356925, 0.154012, 1.80908, -0.00435269
0.223, -0.0586389, -0.273499, -0.0492138, -0.472487, -0.0447151, 0.526916, 0.284376, 0.00149567, -0.893984, 0.00368557, -2.1284, -0.00362646, 1.98985, 0.898022, 0.578911, -0.649077, 0.473711, -2.83772, 0.465284, 0.489555, 0.52011, -5.55112e-17, 1.38272, -0.0859461, 0.378094, 0.154855, 1.80914, -0.00437922
0.224, -0.0586102, -0.274423, -0.0491972, -0.474672, -0.0447276, 0.528955, 0.285295, 0.0103093, -0.903353, 0.00730144, -2.1389, -0.0073933, 2.01892, 0.900131, 0.534555, -0.59299, 0.455465, -2.84794, 0.484242, 0.323833, 0.500382, -5.55112e-17, 1.38941, -0.0857684, 0.400213, 0.155729, 1.80919, -0.00440523
0.225, -0.0586131, -0.275347, -0.0491855, -0.476818, -0.0447292, 0.530993, 0.286189, 0.00337043, -0.90761, 0.0109678, -2.14779, -0.0129289, 2.03266, 0.901264, 0.569279, -0.562462, 0.437016, -2.69214, 0.511937, 0.234757, 0.485768, 4.16334e-17, 1.39678, -0.0855868, 0.421645, 0.156584, 1.80925, -0.00443164
0.226, -0.0586312, -0.276232, -0.0492002, -0.478903, -0.0447102, 0.53297, 0.287092, -0.00392822, -0.898014, 0.00164278, -2.1235, -0.00135254, 2.01709, 0.901049, 0.605953, -0.601589, 0.483788, -2.45918, 0.453865, 0.292802, 0.47782, 2.77556e-17, 1.40335, -0.0853286, 0.442668, 0.157439, 1.80931, -0.00445844
0.227, -0.0586453, -0.277122, -0.049199, -0.480967, -0.0446962, 0.534947, 0.288013, -0.00971808, -0.887495, 0.00064824, -2.0999, 0.003743, 1.99845, 0.90416, 0.635044, -0.645289, 0.488749, -2.69104, 0.428247, 0.366272, 0.453047, 5.55112e-17, 1.41046, -0.0851221, 0.463272, 0.158269, 1.80936, -0.00448574
0.228, -0.0586341, -0.278015, -0.0491907, -0.48302, -0.0446943, 0.536904, 0.288912, -0.00354379, -0.887887, 0.00299701, -2.08955, 0.0101005, 1.97737, 0.907673, 0.60406, -0.634392, 0.476922, -3.07691, 0.396441, 0.452058, 0.4265, -9.71445e-17, 1.41797, -0.0849347, 0.483607, 0.159082, 1.80941, -0.0045124
0.229, -0.0586015, -0.27892, -0.0491831, -0.48512, -0.0447087, 0.538811, 0.289812, 0.00819085, -0.902337, 0.00452486, -2.08506, 0.000678618, 1.95416, 0.905461, 0.545061, -0.553099, 0.469207, -3.46278, 0.443694, 0.549033, 0.428555, -5.55112e-17, 1.42517, -0.0847274, 0.504585, 0.159914, 1.80946, -0.00453786
0.23, -0.058578, -0.279843, -0.0491746, -0.487257, -0.044722, 0.540733, 0.29071, 0.012494, -0.913373, 0.00662855, -2.11398, -0.00527567, 1.94518, 0.909114, 0.52331, -0.488683, 0.458603, -3.84865, 0.473599, 0.574763, 0.401309, -2.77556e-17, 1.43266, -0.0845186, 0.525877, 0.160759, 1.8095, -0.00456329
0.231, -0.0585818, -0.280756, -0.0491678, -0.489414, -0.0447261, 0.542644, 0.291591, 0.005345, -0.921514, 0.0062464, -2.12445, -0.0123878, 1.93325, 0.89246, 0.559093, -0.43885, 0.460446, -3.69125, 0.5092, 0.615276, 0.475773, 4.16334e-17, 1.43929, -0.0842983, 0.547687, 0.161626, 1.80955, -0.00458799
0.232, -0.0586076, -0.281663, -0.0491811, -0.491541, -0.0447048, 0.544574, 0.292478, -0.00702708, -0.914137, -0.00107736, -2.12071, -0.00376322, 1.92533, 0.889844, 0.621212, -0.466666, 0.497198, -3.43297, 0.465864, 0.635596, 0.47998, 0, 1.44616, -0.0840249, 0.569067, 0.162495, 1.80959, -0.00461409
0.233, -0.0586263, -0.282554, -0.0491858, -0.493575, -0.0446808, 0.546488, 0.293338, -0.0123027, -0.902973, -0.00253821, -2.09124, 0.00554384, 1.91272, 0.883742, 0.647777, -0.513574, 0.504549, -3.33211, 0.419088, 0.67949, 0.501896, 1.38778e-17, 1.45388, -0.0837955, 0.589111, 0.16331, 1.80963, -0.00464053
0.234, -0.0586238, -0.283445, -0.0491766, -0.495651, -0.0446766, 0.54836, 0.294204, -0.00709438, -0.897788, 0.00130458, -2.08131, 0.00263157, 1.89749, 0.8753, 0.62171, -0.530592, 0.485243, -3.71798, 0.433608, 0.736888, 0.535444, -8.32667e-17, 1.46083, -0.0835914, 0.609896, 0.164138, 1.80967, -0.00466553
0.235, -0.0585872, -0.284355, -0.0491676, -0.49775, -0.0446866, 0.550259, 0.295063, 0.00825806, -0.898479, 0.00385967, -2.07857, -0.00122755, 1.90022, 0.872681, 0.544581, -0.518039, 0.472377, -4.10385, 0.453004, 0.704276, 0.539946, -1.38778e-17, 1.4683, -0.0833774, 0.630768, 0.164965, 1.80971, -0.00469059
0.236, -0.0585541, -0.285265, -0.0491509, -0.499887, -0.0446978, 0.552164, 0.295905, 0.0160813, -0.904375, 0.00741404, -2.10653, -0.00576693, 1.90644, 0.861317, 0.505134, -0.479455, 0.454439, -4.39452, 0.475812, 0.654107, 0.588342, -1.38778e-17, 1.47513, -0.0831785, 0.652291, 0.165813, 1.80975, -0.00471475
0.237, -0.0585619, -0.286208, -0.0491447, -0.502085, -0.0447049, 0.554152, 0.296753, 0.00654218, -0.915021, 0.00606773, -2.13748, -0.00554697, 1.93428, 0.858132, 0.552908, -0.416797, 0.461109, -4.14148, 0.474784, 0.495055, 0.595787, 5.55112e-17, 1.48247, -0.0829378, 0.674311, 0.166687, 1.80979, -0.00474002
0.238, -0.0585804, -0.287116, -0.0491573, -0.504195, -0.044695, 0.556117, 0.297585, -0.00445669, -0.916781, 0.00124436, -2.13621, -0.00272737, 1.94135, 0.851381, 0.608088, -0.398915, 0.485352, -3.50846, 0.460587, 0.440045, 0.621228, 6.93889e-17, 1.48968, -0.0826477, 0.695389, 0.167539, 1.80983, -0.004766
0.239, -0.0586105, -0.287979, -0.049173, -0.506293, -0.0446784, 0.557993, 0.298424, -0.0153153, -0.90784, -0.00539932, -2.12021, 0.00411402, 1.93073, 0.849803, 0.662681, -0.434992, 0.518726, -3.13917, 0.426214, 0.474373, 0.620724, 6.93889e-17, 1.4949, -0.0823374, 0.717044, 0.168412, 1.80986, -0.00479055
0.24, -0.0586209, -0.288863, -0.0491659, -0.508406, -0.0446819, 0.559859, 0.299251, -0.0137377, -0.902458, 0.000928706, -2.10915, 0.00975424, 1.90388, 0.846743, 0.654898, -0.453056, 0.487016, -3.15933, 0.398048, 0.589991, 0.627754, 0, 1.50087, -0.0820966, 0.738603, 0.169265, 1.8099, -0.00481429
0.241, -0.0585872, -0.289751, -0.0491704, -0.510507, -0.044704, 0.561761, 0.300083, -0.00403242, -0.892426, -0.000826458, -2.11168, -0.00161689, 1.89752, 0.83839, 0.606034, -0.494337, 0.495836, -3.34246, 0.455124, 0.602761, 0.661203, 2.77556e-17, 1.50722, -0.0818069, 0.759905, 0.170106, 1.80993, -0.00483886
0.242, -0.0585542, -0.290649, -0.0491608, -0.512682, -0.0447268, 0.56364, 0.30091, 0.00849564, -0.896191, 0.00281933, -2.12958, -0.00977866, 1.8905, 0.836246, 0.543064, -0.466538, 0.477511, -3.41588, 0.496161, 0.619052, 0.663656, -4.16334e-17, 1.51276, -0.0815497, 0.782315, 0.170982, 1.80996, -0.00486186
0.243, -0.0585682, -0.291565, -0.0491465, -0.514842, -0.0447349, 0.565542, 0.301728, 0.00568304, -0.900778, 0.00684333, -2.14069, -0.0108729, 1.89988, 0.827916, 0.557267, -0.434437, 0.457248, -3.18476, 0.501714, 0.553162, 0.697118, -5.55112e-17, 1.51948, -0.0813232, 0.804125, 0.17184, 1.80999, -0.00488575
0.244, -0.0585839, -0.292452, -0.0491479, -0.516981, -0.0447226, 0.567409, 0.302548, 7.56092e-05, -0.898128, 0.00352895, -2.135, -0.00133153, 1.89218, 0.819865, 0.585461, -0.438817, 0.473834, -2.87133, 0.453883, 0.572999, 0.729182, 1.38778e-17, 1.52513, -0.0810443, 0.826089, 0.172717, 1.81001, -0.00490956
0.245, -0.0586016, -0.29334, -0.0491686, -0.519078, -0.0446997, 0.569276, 0.303371, -0.00601124, -0.891322, -0.00466325, -2.118, 0.00727159, 1.88417, 0.818812, 0.616072, -0.463966, 0.515003, -2.76662, 0.410639, 0.59433, 0.726209, -1.38778e-17, 1.53157, -0.0807077, 0.847283, 0.173578, 1.81004, -0.00493469
0.246, -0.0586012, -0.294245, -0.049161, -0.521119, -0.0446816, 0.571112, 0.30418, -0.00303201, -0.88949, -0.0012482, -2.09003, 0.0193287, 1.86238, 0.816977, 0.601172, -0.464086, 0.497851, -2.96474, 0.350172, 0.684948, 0.727293, 9.71445e-17, 1.53977, -0.0804871, 0.867222, 0.174379, 1.81007, -0.00495978
0.247, -0.0585757, -0.295134, -0.0491404, -0.523203, -0.0446899, 0.572948, 0.30501, 0.00759606, -0.889698, 0.00582986, -2.08534, 0.00841507, 1.859, 0.81829, 0.547776, -0.454154, 0.462255, -3.35061, 0.404824, 0.68349, 0.712435, 1.38778e-17, 1.54648, -0.0802839, 0.888187, 0.175198, 1.8101, -0.00498382
0.248, -0.0585285, -0.296053, -0.0491255, -0.525298, -0.0447007, 0.574861, 0.305824, 0.0205597, -0.897746, 0.00811745, -2.0895, 0.00428514, 1.87594, 0.82064, 0.482487, -0.404721, 0.450668, -3.73648, 0.425581, 0.579669, 0.69254, -6.93889e-17, 1.55446, -0.0800622, 0.908817, 0.176009, 1.81013, -0.00500908
0.249, -0.0585128, -0.296961, -0.0491082, -0.527497, -0.0447022, 0.576789, 0.306645, 0.0168136, -0.913458, 0.0126537, -2.12503, -0.00616479, 1.90527, 0.824138, 0.50106, -0.317087, 0.427813, -4.00019, 0.477846, 0.413741, 0.666842, 2.77556e-17, 1.56003, -0.0798237, 0.931485, 0.176897, 1.81015, -0.00503293
0.25, -0.0585304, -0.297859, -0.0491111, -0.529665, -0.0446932, 0.57872, 0.307476, 0.00495439, -0.91313, 0.00575679, -2.12726, 0.000890227, 1.91743, 0.824786, 0.560532, -0.309737, 0.462327, -3.61381, 0.44248, 0.3336, 0.655289, -2.77556e-17, 1.56574, -0.0795176, 0.95374, 0.177782, 1.81018, -0.00505792
0.251, -0.0585538, -0.298746, -0.0491312, -0.531738, -0.0446842, 0.580591, 0.308298, -0.00438289, -0.904377, -0.00228128, -2.12166, 0.00523365, 1.9044, 0.827532, 0.607452, -0.344643, 0.502718, -3.34205, 0.420673, 0.380046, 0.633343, -2.77556e-17, 1.57248, -0.0791635, 0.974578, 0.178623, 1.8102, -0.00508353
0.252, -0.0585678, -0.299604, -0.0491366, -0.533832, -0.0446776, 0.582369, 0.309134, -0.00890631, -0.886412, -0.00527274, -2.11163, 0.00511273, 1.87736, 0.830886, 0.63021, -0.425881, 0.51773, -3.26161, 0.421212, 0.497491, 0.608217, -2.77556e-17, 1.57754, -0.0788483, 0.996232, 0.179482, 1.81022, -0.00510712
0.253, -0.0585554, -0.300486, -0.0491285, -0.535943, -0.0446927, 0.584168, 0.309965, -0.00202725, -0.87903, -0.00199058, -2.10038, 0.00631541, 1.84756, 0.828758, 0.59569, -0.453975, 0.501238, -3.36708, 0.41535, 0.628503, 0.610542, -4.16334e-17, 1.58339, -0.0785726, 1.01781, 0.180325, 1.81024, -0.00513056
0.254, -0.0585269, -0.301373, -0.0491213, -0.538063, -0.0447195, 0.586002, 0.310799, 0.00895898, -0.879764, 0.000117986, -2.11332, -0.00440239, 1.83754, 0.831454, 0.540474, -0.441432, 0.490623, -3.60543, 0.469207, 0.660233, 0.588721, 4.16334e-17, 1.58933, -0.0782844, 1.03946, 0.181166, 1.81026, -0.00515439
0.255, -0.05852, -0.302289, -0.049111, -0.54022, -0.0447412, 0.587824, 0.311646, 0.00795179, -0.888202, 0.00257767, -2.12505, -0.00870778, 1.83457, 0.834378, 0.545441, -0.390086, 0.478222, -3.55203, 0.490951, 0.656855, 0.565629, 0, 1.59602, -0.0780062, 1.06125, 0.182014, 1.81027, -0.00517832
0.256, -0.0585474, -0.30321, -0.0491094, -0.542363, -0.0447276, 0.589643, 0.312457, -0.0045595, -0.895277, 0.00129585, -2.14223, 0.00154662, 1.8334, 0.824851, 0.608271, -0.345495, 0.484615, -3.33831, 0.439543, 0.644539, 0.605151, -2.77556e-17, 1.60326, -0.0777154, 1.08267, 0.182868, 1.81029, -0.00520253
0.257, -0.0585725, -0.304084, -0.049124, -0.544453, -0.0447086, 0.591419, 0.313293, -0.0122912, -0.888533, -0.00497476, -2.11738, 0.00957127, 1.81573, 0.825574, 0.647181, -0.370477, 0.516114, -2.94181, 0.399229, 0.715099, 0.593181, -2.77556e-17, 1.60911, -0.0773622, 1.104, 0.183725, 1.81031, -0.00522701
0.258, -0.0585863, -0.304963, -0.0491261, -0.546537, -0.0446923, 0.593216, 0.314114, -0.017876, -0.882603, -0.00500425, -2.10486, 0.0115907, 1.80541, 0.826389, 0.675243, -0.391338, 0.516282, -3.08193, 0.388969, 0.748761, 0.580897, 2.77556e-17, 1.61527, -0.0770562, 1.12515, 0.184568, 1.81032, -0.00525145
0.259, -0.0585597, -0.305869, -0.0491166, -0.548602, -0.0446881, 0.595044, 0.314943, -0.00243975, -0.888949, 0.000246937, -2.0997, 0.0106381, 1.80833, 0.827264, 0.597796, -0.350546, 0.489931, -3.36112, 0.39369, 0.71587, 0.568231, -1.38778e-17, 1.62312, -0.0767983, 1.14548, 0.185372, 1.81034, -0.005277
0.26, -0.0585112, -0.306769, -0.0491059, -0.550722, -0.0446991, 0.596878, 0.315784, 0.0145531, -0.900858, 0.00317676, -2.09864, 0.00174225, 1.83247, 0.829537, 0.512347, -0.281999, 0.475175, -3.61231, 0.43828, 0.576815, 0.548453, -4.16334e-17, 1.62972, -0.07652, 1.16688, 0.186206, 1.81035, -0.00530169
0.261, -0.0584826, -0.307691, -0.0490892, -0.552866, -0.0447094, 0.598767, 0.31661, 0.0208248, -0.913585, 0.0075322, -2.12555, -0.00258809, 1.85907, 0.834532, 0.480702, -0.209149, 0.453231, -3.78298, 0.460034, 0.424947, 0.515228, -1.38778e-17, 1.6369, -0.0762634, 1.18834, 0.187042, 1.81037, -0.00532678
0.262, -0.0584922, -0.308587, -0.0490847, -0.555043, -0.0447039, 0.600635, 0.317435, 0.0105763, -0.917112, 0.00810929, -2.13988, -0.00241374, 1.87684, 0.828739, 0.532041, -0.18255, 0.450301, -3.47238, 0.459108, 0.317401, 0.535941, 4.16334e-17, 1.6423, -0.0759495, 1.21081, 0.187925, 1.81038, -0.00535105
0.263, -0.0585247, -0.309475, -0.0491078, -0.557147, -0.0446889, 0.602506, 0.318278, -0.00428001, -0.906293, -0.000116676, -2.12162, 0.00493296, 1.87912, 0.834305, 0.606647, -0.22777, 0.491662, -3.06039, 0.422224, 0.287317, 0.499673, 9.71445e-17, 1.64854, -0.0755422, 1.23215, 0.188784, 1.8104, -0.00537743
0.264, -0.0585537, -0.310352, -0.0491264, -0.55919, -0.0446801, 0.604341, 0.3191, -0.0140531, -0.892284, -0.00620239, -2.10188, 0.0066524, 1.86167, 0.83277, 0.655803, -0.289043, 0.522276, -3.08931, 0.413539, 0.356199, 0.499132, 2.77556e-17, 1.65535, -0.0751595, 1.25261, 0.189604, 1.81041, -0.0054036
0.265, -0.0585452, -0.311203, -0.049124, -0.561279, -0.0446918, 0.606128, 0.319935, -0.00612196, -0.875756, -0.00313706, -2.106, -0.000442762, 1.84043, 0.830255, 0.616062, -0.363173, 0.506926, -3.41173, 0.449132, 0.444537, 0.503352, 0, 1.66008, -0.0748307, 1.27433, 0.190449, 1.81042, -0.00542746
0.266, -0.058505, -0.312084, -0.0491191, -0.563394, -0.0447242, 0.607941, 0.32076, 0.010302, -0.872311, -0.00578477, -2.10471, -0.0125068, 1.82136, 0.834269, 0.53354, -0.371585, 0.520115, -3.5461, 0.509776, 0.521736, 0.475042, 5.55112e-17, 1.66577, -0.0744997, 1.29601, 0.191284, 1.81043, -0.00545129
0.267, -0.0584825, -0.312973, -0.0491089, -0.565533, -0.0447514, 0.609733, 0.321601, 0.0141291, -0.883807, -0.000564225, -2.11568, -0.0262262, 1.82047, 0.833791, 0.514179, -0.305219, 0.49391, -3.64852, 0.578645, 0.50831, 0.46902, -9.71445e-17, 1.67146, -0.0741865, 1.31796, 0.192128, 1.81044, -0.00547497
0.268, -0.0584953, -0.313881, -0.0491, -0.567704, -0.044746, 0.611552, 0.322433, 0.00372892, -0.887913, 0.00169865, -2.13462, -0.0141678, 1.81535, 0.826839, 0.566308, -0.275604, 0.482507, -3.54215, 0.518299, 0.51569, 0.495451, -5.55112e-17, 1.67753, -0.0738795, 1.3401, 0.192996, 1.81044, -0.00549926
0.269, -0.0585195, -0.314764, -0.0491189, -0.56981, -0.0447262, 0.613373, 0.323252, -0.00428599, -0.882987, -0.00554764, -2.13193, -0.000532309, 1.80833, 0.826659, 0.606625, -0.291406, 0.518927, -3.18446, 0.449923, 0.532586, 0.488168, 4.16334e-17, 1.6835, -0.0734727, 1.36156, 0.193857, 1.81045, -0.00552464
0.27, -0.0585334, -0.315615, -0.0491223, -0.571888, -0.0446991, 0.615136, 0.324073, -0.00779812, -0.877026, -0.0050428, -2.10556, 0.00810151, 1.78244, 0.820281, 0.624325, -0.312706, 0.516437, -3.00638, 0.406484, 0.644425, 0.511845, -2.77556e-17, 1.68839, -0.0731308, 1.38309, 0.194713, 1.81046, -0.00554895
0.271, -0.058526, -0.316474, -0.0491169, -0.573982, -0.0446901, 0.616915, 0.324904, -0.00196739, -0.874409, -0.00170209, -2.09779, 0.010534, 1.78173, 0.825379, 0.595097, -0.317197, 0.49968, -3.30391, 0.394231, 0.63017, 0.478048, 0, 1.69342, -0.0728117, 1.40474, 0.195561, 1.81046, -0.00557323
0.272, -0.05847, -0.317351, -0.0491007, -0.576058, -0.0447024, 0.618687, 0.325739, 0.0177235, -0.885897, 0.00417019, -2.09482, 0.00380028, 1.77093, 0.828916, 0.496082, -0.250984, 0.470156, -3.60661, 0.428023, 0.666447, 0.45201, 1.249e-16, 1.69964, -0.0725332, 1.42577, 0.196372, 1.81047, -0.00559768
0.273, -0.0584274, -0.318254, -0.0490935, -0.57822, -0.0447173, 0.62049, 0.326575, 0.0317292, -0.898759, 0.00513478, -2.11477, -0.00325415, 1.78699, 0.829732, 0.425628, -0.177647, 0.465261, -3.8383, 0.463444, 0.568091, 0.439574, 2.77556e-17, 1.70557, -0.0721974, 1.44788, 0.197227, 1.81047, -0.00562177
0.274, -0.0584286, -0.319176, -0.0490918, -0.580384, -0.0447095, 0.62232, 0.327389, 0.0238517, -0.910893, 0.00393635, -2.13269, 0.00144982, 1.79642, 0.82359, 0.465027, -0.107761, 0.471236, -3.67267, 0.439846, 0.502642, 0.462144, 0, 1.71238, -0.0718515, 1.46969, 0.198086, 1.81048, -0.00564666
0.275, -0.0584656, -0.320064, -0.0491075, -0.582505, -0.0446944, 0.62412, 0.328215, 0.00357875, -0.912042, -0.00334783, -2.13146, 0.00391928, 1.81399, 0.821929, 0.566762, -0.0931355, 0.507814, -3.29448, 0.427348, 0.396804, 0.462182, 2.77556e-17, 1.71835, -0.0714358, 1.4913, 0.198947, 1.81048, -0.00567193
0.276, -0.0584994, -0.320934, -0.0491319, -0.584577, -0.0446746, 0.62588, 0.329043, -0.00824136, -0.897652, -0.0106086, -2.11156, 0.00981979, 1.79974, 0.818824, 0.6262, -0.156379, 0.544362, -3.08107, 0.397647, 0.450448, 0.469429, 4.16334e-17, 1.72429, -0.0709904, 1.51237, 0.199794, 1.81048, -0.0056974
0.277, -0.0585086, -0.321809, -0.0491359, -0.586609, -0.04468, 0.627579, 0.329856, -0.00800786, -0.886928, -0.013336, -2.08924, 0.00379676, 1.76346, 0.818561, 0.625125, -0.201247, 0.558039, -3.25729, 0.427816, 0.614878, 0.462619, -2.77556e-17, 1.73115, -0.0706275, 1.53269, 0.200591, 1.81049, -0.00572172
0.278, -0.0584679, -0.322674, -0.049143, -0.588716, -0.0447054, 0.62927, 0.330679, 0.00952697, -0.879215, -0.0106314, -2.0951, -0.00842364, 1.74843, 0.819253, 0.537044, -0.231165, 0.544587, -3.64316, 0.489172, 0.673129, 0.450922, -4.16334e-17, 1.73616, -0.0702167, 1.55451, 0.201434, 1.81049, -0.00574445
0.279, -0.0584331, -0.323551, -0.0491395, -0.590852, -0.0447406, 0.631012, 0.331479, 0.0187069, -0.872451, -0.00764851, -2.10376, -0.0171888, 1.74381, 0.818848, 0.490797, -0.256223, 0.529637, -3.85642, 0.53335, 0.678774, 0.44495, -2.77556e-17, 1.74127, -0.0698399, 1.57661, 0.202278, 1.81049, -0.00576687
0.28, -0.0584432, -0.324435, -0.0491304, -0.593024, -0.0447466, 0.632757, 0.332282, 0.0112834, -0.873731, -0.00204107, -2.13283, -0.0159534, 1.75752, 0.810487, 0.528015, -0.240976, 0.50151, -3.85378, 0.527233, 0.592812, 0.478722, -1.38778e-17, 1.74612, -0.0694933, 1.59921, 0.203151, 1.81048, -0.00578931
0.281, -0.0584763, -0.325323, -0.0491399, -0.59518, -0.0447285, 0.634518, 0.333072, -0.00168282, -0.871263, -0.00475138, -2.13242, -0.00674576, 1.75633, 0.798977, 0.593177, -0.244443, 0.515156, -3.40353, 0.481014, 0.58115, 0.528374, 9.71445e-17, 1.75143, -0.0690805, 1.62145, 0.204032, 1.81048, -0.00581284
0.282, -0.0585062, -0.326191, -0.0491688, -0.597266, -0.0447125, 0.636263, 0.333853, -0.0110066, -0.8662, -0.0130419, -2.12989, 0.00215588, 1.74664, 0.798239, 0.640095, -0.261072, 0.556898, -3.1333, 0.436346, 0.612131, 0.524254, 5.55112e-17, 1.75702, -0.068591, 1.64281, 0.204888, 1.81048, -0.0058371
0.283, -0.0585115, -0.327046, -0.0491742, -0.599353, -0.0447009, 0.637959, 0.334639, -0.00737349, -0.861938, -0.0106947, -2.11192, 0.0126655, 1.73779, 0.793788, 0.621982, -0.273833, 0.545215, -3.00646, 0.383682, 0.639408, 0.53865, 2.77556e-17, 1.76191, -0.0681979, 1.66443, 0.205738, 1.81048, -0.00586
0.284, -0.0584783, -0.327921, -0.0491643, -0.601448, -0.0447056, 0.639676, 0.335408, 0.0083746, -0.864382, -0.00570939, -2.09947, 0.00822855, 1.72096, 0.789884, 0.54291, -0.252861, 0.52019, -3.20581, 0.405913, 0.706421, 0.550478, -2.77556e-17, 1.76766, -0.0678645, 1.68583, 0.206566, 1.81048, -0.00588263
0.285, -0.0584293, -0.328794, -0.0491459, -0.603528, -0.0447247, 0.641433, 0.336181, 0.0235085, -0.869852, 0.00238823, -2.10319, -0.00252261, 1.74457, 0.781638, 0.466751, -0.216782, 0.479518, -3.52038, 0.45986, 0.570759, 0.583984, 5.55112e-17, 1.77356, -0.0675627, 1.70701, 0.207373, 1.81048, -0.00590578
0.286, -0.0584117, -0.329697, -0.0491339, -0.605687, -0.04473, 0.643228, 0.336951, 0.0231836, -0.884262, 0.00547241, -2.11586, -0.0107656, 1.7653, 0.775597, 0.468199, -0.135704, 0.463977, -3.65622, 0.501129, 0.449195, 0.606484, 8.32667e-17, 1.77951, -0.0672238, 1.72905, 0.208223, 1.81047, -0.00592906
0.287, -0.0584352, -0.330606, -0.0491355, -0.607794, -0.0447152, 0.644994, 0.337702, 0.00776766, -0.897313, 0.00221997, -2.11705, -0.00108755, 1.762, 0.770533, 0.545514, -0.0613524, 0.480255, -3.54413, 0.45259, 0.44802, 0.6243, -2.77556e-17, 1.78672, -0.0668464, 1.75006, 0.209053, 1.81047, -0.00595315
0.288, -0.0584735, -0.331471, -0.0491578, -0.609858, -0.0446964, 0.646706, 0.338459, -0.00955583, -0.894117, -0.00703861, -2.09889, 0.00681759, 1.75901, 0.765628, 0.632514, -0.0686824, 0.526771, -3.45695, 0.412876, 0.445869, 0.641251, 0, 1.7925, -0.0663761, 1.77109, 0.209894, 1.81047, -0.00597691
0.289, -0.0584868, -0.332346, -0.0491696, -0.611923, -0.0446928, 0.648387, 0.33922, -0.0112267, -0.891397, -0.00834369, -2.08651, 0.00605672, 1.72856, 0.764052, 0.641001, -0.0735325, 0.533414, -3.6836, 0.416644, 0.581287, 0.641524, 2.77556e-17, 1.79876, -0.0659444, 1.79196, 0.210716, 1.81047, -0.00600008
0.29, -0.0584601, -0.333215, -0.0491615, -0.613983, -0.0447026, 0.650075, 0.339975, -0.000188877, -0.883682, -0.00212959, -2.08105, -0.0024324, 1.71209, 0.764465, 0.585546, -0.10342, 0.502263, -4.01394, 0.459188, 0.646772, 0.631907, 0, 1.80479, -0.0655945, 1.81287, 0.211521, 1.81046, -0.00602264
0.291, -0.0584048, -0.334107, -0.0491536, -0.616099, -0.0447301, 0.651765, 0.340737, 0.0187024, -0.883674, 0.00212935, -2.08642, -0.0119166, 1.70635, 0.762312, 0.490535, -0.0945422, 0.48089, -4.30108, 0.506884, 0.658577, 0.635055, 2.77556e-17, 1.81096, -0.0652219, 1.83435, 0.21234, 1.81045, -0.00604459
0.292, -0.0583845, -0.335009, -0.0491409, -0.618238, -0.0447486, 0.653506, 0.341473, 0.0203098, -0.88757, 0.00350942, -2.11467, -0.0134615, 1.71483, 0.753727, 0.482296, -0.0660432, 0.473862, -4.39453, 0.514794, 0.598746, 0.670616, 8.32667e-17, 1.81721, -0.0648714, 1.85606, 0.21317, 1.81045, -0.00606666
0.293, -0.0584151, -0.335894, -0.0491378, -0.620428, -0.0447317, 0.65521, 0.342227, 0.00390825, -0.887481, 0.00268747, -2.13829, -0.00463055, 1.72063, 0.752668, 0.56461, -0.0576355, 0.477941, -4.0159, 0.470469, 0.552694, 0.668375, -2.77556e-17, 1.82176, -0.0644763, 1.87894, 0.214063, 1.81044, -0.00608811
0.294, -0.0584487, -0.336762, -0.0491589, -0.622561, -0.0447057, 0.656898, 0.342989, -0.0104943, -0.87264, -0.00558042, -2.13169, 0.00732244, 1.70169, 0.754003, 0.636959, -0.123161, 0.519491, -3.41879, 0.410445, 0.630558, 0.654081, -8.32667e-17, 1.82649, -0.0639812, 1.90111, 0.214946, 1.81044, -0.00611079
0.295, -0.0584618, -0.337621, -0.0491749, -0.624632, -0.044693, 0.658556, 0.343742, -0.0125058, -0.862485, -0.00927253, -2.1058, 0.016734, 1.68393, 0.752725, 0.647147, -0.165344, 0.538112, -3.15392, 0.36326, 0.702765, 0.652942, 0, 1.83186, -0.0635142, 1.92236, 0.215785, 1.81043, -0.00613346
0.296, -0.0584487, -0.338482, -0.0491662, -0.626722, -0.0446944, 0.660203, 0.344501, -0.00279477, -0.860397, -0.00268972, -2.09995, 0.00754891, 1.67657, 0.75339, 0.59846, -0.167172, 0.50511, -3.39088, 0.4092, 0.723106, 0.642025, -5.55112e-17, 1.83698, -0.0631502, 1.94392, 0.216615, 1.81042, -0.00615512
0.297, -0.0584024, -0.339367, -0.0491637, -0.628853, -0.0447117, 0.661912, 0.345264, 0.0147523, -0.867715, -0.000125383, -2.10247, -0.00260639, 1.67988, 0.760794, 0.510263, -0.121736, 0.492264, -3.62674, 0.460149, 0.689432, 0.597377, -2.77556e-17, 1.8425, -0.0627383, 1.9658, 0.217453, 1.81041, -0.00617744
0.298, -0.0583746, -0.340251, -0.0491521, -0.630977, -0.0447276, 0.663619, 0.346034, 0.018886, -0.876737, 0.00402089, -2.10979, -0.00642416, 1.69609, 0.763331, 0.489316, -0.0677875, 0.471417, -3.73269, 0.479396, 0.591313, 0.576984, 2.77556e-17, 1.84814, -0.0623707, 1.98755, 0.218282, 1.8104, -0.00619989
0.299, -0.0583905, -0.341149, -0.0491455, -0.633144, -0.0447335, 0.665336, 0.346801, 0.00755564, -0.888987, 0.00494694, -2.13132, -0.00382193, 1.69906, 0.766192, 0.546127, 0.00244432, 0.46672, -3.68472, 0.466445, 0.559318, 0.555009, 2.77556e-17, 1.85369, -0.0619741, 2.0098, 0.219137, 1.8104, -0.00622225
0.3, -0.0584239, -0.342036, -0.0491687, -0.635228, -0.0447136, 0.667002, 0.347555, -0.00817223, -0.891907, -0.00444489, -2.11931, 0.00714792, 1.69045, 0.762464, 0.6251, 0.025916, 0.513911, -3.32293, 0.411396, 0.585676, 0.566113, 0, 1.86018, -0.0614645, 2.03079, 0.219975, 1.81039, -0.00624583
0.301, -0.0584564, -0.342885, -0.0491844, -0.637297, -0.0447028, 0.668632, 0.348321, -0.017536, -0.885343, -0.00893279, -2.09967, 0.00943472, 1.67653, 0.765704, 0.672244, 0.00158696, 0.536508, -3.28615, 0.399855, 0.638987, 0.542253, 8.32667e-17, 1.8651, -0.0609802, 2.05217, 0.220815, 1.81038, -0.00626834
0.302, -0.0584469, -0.343755, -0.0491807, -0.639398, -0.0447051, 0.670278, 0.349084, -0.01367, -0.885147, -0.00670109, -2.09083, 0.0130735, 1.65984, 0.765088, 0.652819, 0.00930094, 0.525313, -3.56666, 0.381684, 0.705984, 0.537696, -8.32667e-17, 1.87041, -0.0605762, 2.07378, 0.221647, 1.81037, -0.00629032
0.303, -0.0583951, -0.344626, -0.0491682, -0.641487, -0.0447275, 0.671931, 0.34986, 0.00573742, -0.885813, 0.000543988, -2.09888, 0.0004372, 1.66117, 0.768463, 0.555264, 0.0213456, 0.488962, -3.87541, 0.445089, 0.682785, 0.513063, 1.11022e-16, 1.87604, -0.0602061, 2.09513, 0.222455, 1.81036, -0.00631247
0.304, -0.0583533, -0.345509, -0.0491657, -0.643654, -0.0447434, 0.673627, 0.350625, 0.023062, -0.884947, 0.00136033, -2.12096, -0.00494251, 1.67527, 0.765732, 0.468223, 0.0258458, 0.484855, -3.94071, 0.472147, 0.595323, 0.519067, -5.55112e-17, 1.88083, -0.0597691, 2.11766, 0.223314, 1.81034, -0.00633419
0.305, -0.0583733, -0.346406, -0.0491466, -0.645805, -0.0447375, 0.675315, 0.351378, 0.00970859, -0.889002, 0.00724647, -2.1376, -0.00359435, 1.67304, 0.763249, 0.53519, 0.0550908, 0.455233, -3.64014, 0.465347, 0.589619, 0.523955, 0, 1.88663, -0.0594324, 2.13964, 0.224156, 1.81033, -0.00635621
0.306, -0.0584139, -0.347275, -0.0491678, -0.647961, -0.0447121, 0.67698, 0.352136, -0.00960635, -0.883211, -0.0023394, -2.14658, 0.00777639, 1.67627, 0.758861, 0.632171, 0.0348202, 0.503375, -3.19862, 0.408239, 0.556828, 0.538317, -8.32667e-17, 1.89095, -0.0588966, 2.1622, 0.225049, 1.81032, -0.00637844
0.307, -0.0584337, -0.348145, -0.0491913, -0.650052, -0.0446877, 0.678647, 0.352901, -0.0144032, -0.87407, -0.00944303, -2.12304, 0.0138395, 1.67147, 0.759758, 0.656353, -0.00218243, 0.539128, -2.78888, 0.37768, 0.564127, 0.526183, -1.11022e-16, 1.89647, -0.0583633, 2.18359, 0.2259, 1.81031, -0.00640215
0.308, -0.0584342, -0.348977, -0.0491913, -0.652098, -0.0446826, 0.680313, 0.353652, -0.0155136, -0.860118, -0.00951352, -2.10159, 0.0125972, 1.66401, 0.754294, 0.66191, -0.0636166, 0.53948, -2.90065, 0.38384, 0.584768, 0.54599, -2.77556e-17, 1.90096, -0.0579404, 2.20486, 0.226721, 1.8103, -0.00642481
0.309, -0.0583979, -0.349834, -0.0491669, -0.654173, -0.0447038, 0.681985, 0.354416, 0.00284426, -0.853173, 0.00290405, -2.09137, 0.00316321, 1.66848, 0.758158, 0.569758, -0.0897724, 0.477148, -3.28652, 0.431222, 0.545724, 0.519038, 5.55112e-17, 1.90612, -0.0576207, 2.22622, 0.227519, 1.81029, -0.00644688
0.31, -0.0583482, -0.35072, -0.0491577, -0.65626, -0.04473, 0.683685, 0.355162, 0.0186999, -0.857205, 0.00522835, -2.09247, -0.00699213, 1.67723, 0.754015, 0.489982, -0.0607542, 0.465435, -3.67239, 0.48226, 0.484953, 0.532286, -2.77556e-17, 1.91245, -0.0572206, 2.24729, 0.228315, 1.81027, -0.00646966
0.311, -0.0583476, -0.351605, -0.0491509, -0.658418, -0.0447437, 0.685377, 0.35592, 0.0136075, -0.864101, 0.0057228, -2.11515, -0.0105743, 1.6878, 0.753675, 0.515438, -0.0174293, 0.462895, -3.91504, 0.500309, 0.415209, 0.526408, 5.55112e-17, 1.91747, -0.0567942, 2.26962, 0.229163, 1.81026, -0.00649155
0.312, -0.0583847, -0.352499, -0.0491668, -0.660548, -0.0447315, 0.687086, 0.356673, -0.00357482, -0.871333, -0.00225584, -2.11274, 8.88597e-05, 1.69201, 0.750194, 0.601721, 0.0276724, 0.502947, -3.71404, 0.446871, 0.377056, 0.536279, -5.55112e-17, 1.92346, -0.0562731, 2.29128, 0.230014, 1.81025, -0.00651525
0.313, -0.0584267, -0.353362, -0.0491859, -0.662586, -0.0447098, 0.688734, 0.357408, -0.0179131, -0.865586, -0.00819162, -2.09665, 0.00937184, 1.67083, 0.749497, 0.673832, 0.00756565, 0.532817, -3.6278, 0.400239, 0.466482, 0.53242, -1.11022e-16, 1.92955, -0.0557578, 2.31187, 0.23083, 1.81023, -0.00653888
0.314, -0.0584358, -0.354192, -0.0491768, -0.664656, -0.0447035, 0.690339, 0.358166, -0.0146572, -0.85811, -0.00256551, -2.08298, 0.00796807, 1.65644, 0.755246, 0.657644, -0.0215123, 0.504595, -3.82316, 0.407195, 0.522373, 0.49609, 5.55112e-17, 1.9335, -0.0553639, 2.33359, 0.23166, 1.81022, -0.00656028
0.315, -0.0583877, -0.355049, -0.0491644, -0.666767, -0.0447228, 0.691998, 0.358919, 0.00548472, -0.861314, 0.0030598, -2.08727, 0.000172764, 1.65449, 0.755669, 0.556454, 0.00308229, 0.476345, -4.15416, 0.446365, 0.515533, 0.486446, 0, 1.93802, -0.0549636, 2.35558, 0.232486, 1.8102, -0.0065817
0.316, -0.0583228, -0.355918, -0.0491492, -0.668889, -0.0447462, 0.69365, 0.359656, 0.0259046, -0.87608, 0.0072879, -2.10721, -0.00838788, 1.65464, 0.751488, 0.453705, 0.0855995, 0.455052, -4.29112, 0.489401, 0.498264, 0.49998, -1.38778e-16, 1.94292, -0.0545734, 2.37754, 0.233308, 1.81019, -0.00660264
0.317, -0.058315, -0.356803, -0.0491384, -0.671079, -0.0447431, 0.695314, 0.36041, 0.0202984, -0.887894, 0.00779701, -2.13643, -0.00357688, 1.6629, 0.751559, 0.481658, 0.153517, 0.452399, -4.06748, 0.465315, 0.440338, 0.492087, 5.55112e-17, 1.94738, -0.0541575, 2.40041, 0.23418, 1.81017, -0.0066238
0.318, -0.0583563, -0.35769, -0.0491356, -0.673209, -0.0447215, 0.696955, 0.361139, 0.00175048, -0.88957, 0.00517456, -2.14796, 0.00739187, 1.65569, 0.74619, 0.574811, 0.170764, 0.465483, -3.47911, 0.410255, 0.459984, 0.511639, 2.77556e-17, 1.953, -0.0537249, 2.42219, 0.235027, 1.81016, -0.00664571
0.319, -0.0583899, -0.358536, -0.0491609, -0.675305, -0.0446972, 0.698552, 0.361883, -0.00918934, -0.878454, -0.00603368, -2.12428, 0.0139726, 1.63621, 0.74875, 0.629846, 0.123653, 0.521778, -2.93981, 0.377109, 0.541371, 0.4914, 1.11022e-16, 1.95728, -0.0531452, 2.44407, 0.235891, 1.81014, -0.00666769
0.32, -0.0583981, -0.359398, -0.0491708, -0.677384, -0.0446798, 0.700132, 0.362625, -0.00834133, -0.872101, -0.00765491, -2.10542, 0.0144202, 1.6165, 0.747563, 0.625687, 0.100506, 0.529982, -2.97421, 0.374697, 0.624146, 0.489919, -5.55112e-17, 1.9626, -0.0526481, 2.46538, 0.236724, 1.81013, -0.00668954
0.321, -0.0583598, -0.360254, -0.0491528, -0.679435, -0.0446948, 0.701694, 0.36338, 0.00606227, -0.867859, 0.00147578, -2.0894, 0.00126065, 1.59803, 0.75054, 0.553286, 0.0878516, 0.484149, -3.28642, 0.440644, 0.700871, 0.467483, 0, 1.96808, -0.0522855, 2.48632, 0.237509, 1.81011, -0.00671067
0.322, -0.0582988, -0.361141, -0.0491324, -0.681514, -0.0447252, 0.703304, 0.364134, 0.0242571, -0.865769, 0.008679, -2.07842, -0.0114683, 1.59607, 0.745055, 0.461703, 0.086272, 0.447929, -3.67228, 0.504594, 0.694583, 0.487362, -2.77556e-17, 1.97458, -0.0519221, 2.50722, 0.238285, 1.8101, -0.00673242
0.323, -0.0582799, -0.362034, -0.049124, -0.683636, -0.0447366, 0.704935, 0.364877, 0.0235063, -0.866212, 0.00819329, -2.10244, -0.0110534, 1.60554, 0.749138, 0.465268, 0.0974179, 0.450273, -4.05815, 0.502633, 0.630912, 0.459525, -2.77556e-17, 1.98062, -0.0514936, 2.52875, 0.2391, 1.81008, -0.00675416
0.324, -0.0583147, -0.36291, -0.0491302, -0.685786, -0.0447185, 0.706555, 0.365614, 0.00325148, -0.867295, 0.00183874, -2.11523, 0.00199404, 1.6122, 0.743035, 0.566889, 0.111589, 0.482108, -3.99802, 0.437215, 0.581409, 0.48267, -8.32667e-17, 1.98535, -0.0509908, 2.55107, 0.239967, 1.81006, -0.00677558
0.325, -0.0583641, -0.363761, -0.0491496, -0.687896, -0.0446997, 0.708191, 0.366364, -0.0142203, -0.857118, -0.00336457, -2.11141, 0.00980116, 1.62331, 0.742771, 0.654743, 0.0692208, 0.508319, -3.76372, 0.397991, 0.509506, 0.476491, 2.77556e-17, 1.9896, -0.0504211, 2.57311, 0.240829, 1.81004, -0.00679811
