martinandrovich/hric-system/assets/data/pd-test-gazebo-1.csv
t, q0, q1, q2, q3, q4, q5, q6, qdot0, qdot1, qdot2, qdot3, qdot4, qdot5, qdot6, tau_des0, tau_des1, tau_des2, tau_des3, tau_des4, tau_des5, tau_des6, g0, g1, g2, g3, g4, g5, g6
0.001, -0.000204032, -0.0127033, 0.000805536, -0.0271623, 0.000179308, 0.013624, -0.00057527, -0.0846952, -6.25659, 0.020517, -13.2129, 0.0734116, 6.9448, -0.143403, 1, 1, -1, 1, -1, -1, 1, 0, 0, 0, 0, 0, 0, 0
0.002, -0.000164829, -0.0187708, -0.00130946, -0.0399705, 0.000223841, 0.0206548, -0.000469905, 0.0389486, -6.06492, -0.118129, -12.8083, 0.0457134, 7.03075, 0.105347, 0, 2, 0, 2, -2, -2, 2, 0, 0, 0, 0, 0, 0, 0
0.003, -8.35458e-06, -0.0246291, -0.00173837, -0.0525603, 0.000287251, 0.0275804, -0.000118402, 0.163894, -5.8561, -0.239948, -12.5898, 0.0618894, 6.92534, 0.351532, -1, 3, 1, 3, -3, -3, 3, 0, 0, 0, 0, 0, 0, 0
0.004, 0.000247841, -0.0303032, -0.00184994, -0.0650348, 0.000385439, 0.0343205, 0.000563592, 0.24814, -5.67454, -0.310131, -12.4745, 0.0974548, 6.74002, 0.68195, -2, 4, 2, 4, -4, -4, 4, 0, 0, 0, 0, 0, 0, 0
0.005, 0.000488791, -0.0357995, -0.0016998, -0.0773785, 0.000510452, 0.0408485, 0.00170879, 0.240989, -5.49836, -0.284586, -12.3437, 0.125591, 6.52814, 1.14521, -3, 5, 3, 5, -5, -5, 5, 0, 0, 0, 0, 0, 0, 0
0.006, 0.000595136, -0.0411595, -0.00141002, -0.0895762, 0.000650719, 0.047201, 0.00345056, 0.106353, -5.36173, -0.132346, -12.1977, 0.141145, 6.35275, 1.74177, -4, 6, 4, 6, -6, -6, 4, 0, 0, 0, 0, 0, 0, 0
0.007, 0.000440212, -0.0463857, -0.0010232, -0.101565, 0.00078484, 0.0533966, 0.00555413, -0.154923, -5.22695, 0.143598, -11.9892, 0.134682, 6.19568, 2.10357, -3, 7, 3, 7, -7, -7, 3, 0, 0, 0, 0, 0, 0, 0
0.008, 1.90699e-05, -0.0515059, -0.000616627, -0.113335, 0.00090072, 0.0594711, 0.0078118, -0.421342, -5.12031, 0.420768, -11.7696, 0.116131, 6.07458, 2.25768, -2, 8, 2, 8, -8, -8, 2, 0, 0, 0, 0, 0, 0, 0
0.009, -0.000641098, -0.0565114, 0.000637067, -0.124848, 0.000985624, 0.065424, 0.0100399, -0.659949, -5.00521, 0.666412, -11.513, 0.0849658, 5.953, 2.22808, -1, 9, 1, 9, -9, -9, 1, 0, 0, 0, 0, 0, 0, 0
0.01, -0.00148273, -0.0614193, 0.0013041, -0.136117, 0.00103781, 0.0712716, 0.0120749, -0.841632, -4.90773, 0.852771, -11.2691, 0.0521734, 5.84758, 2.03505, 0, 10, 0, 10, -8, -10, 0, 0, 0, 0, 0, 0, 0, 0
0.011, -0.00242118, -0.0662153, 0.00217057, -0.147124, 0.00105595, 0.0770008, 0.0137789, -0.938448, -4.79597, 0.951279, -11.007, 0.0181199, 5.72925, 1.70401, 1, 11, -1, 11, -7, -11, -1, 0, 0, 0, 0, 0, 0, 0
0.012, -0.00335811, -0.070913, 0.00306672, -0.157889, 0.00104756, 0.0826213, 0.0150335, -0.936934, -4.69784, 0.949786, -10.7651, -0.00839392, 5.62049, 1.25452, 2, 12, -2, 12, -6, -12, 0, 0, 0, 0, 0, 0, 0, 0
0.013, -0.00418812, -0.075497, 0.00387447, -0.168398, 0.00101685, 0.0881189, 0.0160864, -0.830007, -4.58411, 0.841405, -10.5087, -0.0307038, 5.49761, 1.05298, 3, 13, -3, 13, -5, -13, 1, 0, 0, 0, 0, 0, 0, 0
0.014, -0.00481365, -0.0799796, 0.00449184, -0.178669, 0.000974702, 0.0935031, 0.0171411, -0.625533, -4.48282, 0.635281, -10.2712, -0.0421398, 5.38426, 1.05465, 4, 14, -4, 14, -4, -14, 2, 0, 0, 0, 0, 0, 0, 0
0.015, -0.00514992, -0.084345, 0.00482878, -0.188688, 0.000925113, 0.0987611, 0.018366, -0.336272, -4.36544, 0.344272, -10.0196, -0.0495725, 5.25799, 1.22488, 5, 15, -5, 15, -3, -15, 3, 0, 0, 0, 0, 0, 0, 0
0.016, -0.00513694, -0.0886043, 0.00482162, -0.198474, 0.000878086, 0.103903, 0.019899, 0.0129774, -4.25936, -0.00562793, -9.78536, -0.0470176, 5.14145, 1.53301, 4, 16, -4, 16, -2, -16, 2, 0, 0, 0, 0, 0, 0, 0
0.017, -0.00483716, -0.0927392, 0.00453024, -0.208015, 0.000833221, 0.108916, 0.021509, 0.299778, -4.13491, -0.292019, -9.54109, -0.0448642, 5.01316, 1.61002, 3, 17, -3, 17, -1, -17, 1, 0, 0, 0, 0, 0, 0, 0
0.018, -0.0043324, -0.0967596, 0.00403633, -0.217333, 0.000796126, 0.11381, 0.0230046, 0.504768, -4.02041, -0.494965, -9.31808, -0.0371012, 4.89428, 1.49557, 2, 18, -2, 18, 0, -18, 2, 0, 0, 0, 0, 0, 0, 0
0.019, -0.00371532, -0.10065, 0.00343362, -0.226421, 0.000765981, 0.118573, 0.0245757, 0.617078, -3.89028, -0.604557, -9.08788, -0.0301546, 4.76309, 1.57116, 1, 19, -1, 19, 1, -19, 1, 0, 0, 0, 0, 0, 0, 0
0.02, -0.00308796, -0.104422, 0.00282762, -0.235298, 0.000745465, 0.123214, 0.0260348, 0.627355, -3.77224, -0.611407, -8.87756, -0.0205202, 4.64116, 1.45911, 0, 20, 0, 20, 2, -20, 2, 0, 0, 0, 0, 0, 0, 0
0.021, -0.00254717, -0.108064, 0.00231766, -0.243958, 0.000730621, 0.127723, 0.027576, 0.540798, -3.64202, -0.522053, -8.65925, -0.0148434, 4.5086, 1.54114, -1, 21, 1, 21, 1, -21, 1, 0, 0, 0, 0, 0, 0, 0
0.022, -0.00217951, -0.111591, 0.00199026, -0.252415, 0.000719134, 0.13211, 0.0290132, 0.367654, -3.52672, -0.345897, -8.45728, -0.0114784, 4.38676, 1.43724, -2, 22, 2, 22, 2, -22, 2, 0, 0, 0, 0, 0, 0, 0
0.023, -0.0020472, -0.114994, 0.00189326, -0.260661, 0.000705436, 0.136366, 0.0305434, 0.132316, -3.40291, -0.109503, -8.24578, -0.0136918, 4.25638, 1.53017, -3, 23, 3, 23, 1, -23, 1, 0, 0, 0, 0, 0, 0, 0
0.024, -0.00218687, -0.11829, 0.00205049, -0.268708, 0.000687571, 0.140504, 0.0319819, -0.139672, -3.29648, 0.162723, -8.04754, -0.0178619, 4.13791, 1.4385, -2, 24, 2, 24, 2, -24, 2, 0, 0, 0, 0, 0, 0, 0
0.025, -0.00250793, -0.121479, 0.00237597, -0.276546, 0.000661946, 0.144517, 0.033525, -0.321057, -3.18833, 0.342174, -7.83822, -0.0256264, 4.01292, 1.54308, -1, 25, 1, 25, 3, -25, 1, 0, 0, 0, 0, 0, 0, 0
0.026, -0.00291135, -0.12458, 0.00278194, -0.284185, 0.000632511, 0.148418, 0.0349871, -0.40343, -3.10098, 0.421491, -7.63895, -0.0294398, 3.90104, 1.46214, 0, 26, 0, 26, 2, -26, 2, 0, 0, 0, 0, 0, 0, 0
0.027, -0.00329176, -0.127589, 0.00316752, -0.291614, 0.000596347, 0.152201, 0.0365575, -0.380402, -3.00928, 0.395171, -7.42883, -0.0361664, 3.78345, 1.57035, 1, 27, -1, 27, 3, -27, 1, 0, 0, 0, 0, 0, 0, 0
0.028, -0.00355591, -0.130523, 0.00343989, -0.298843, 0.000560307, 0.155879, 0.0380452, -0.264154, -2.93371, 0.275968, -7.22937, -0.0360386, 3.67742, 1.4877, 2, 28, -2, 28, 4, -28, 0, 0, 0, 0, 0, 0, 0, 0
0.029, -0.00362672, -0.133371, 0.00351956, -0.305866, 0.000524982, 0.159442, 0.03929, -0.0708061, -2.84883, 0.079874, -7.02276, -0.0353194, 3.56377, 1.24489, 3, 29, -3, 29, 3, -29, 1, 0, 0, 0, 0, 0, 0, 0
0.03, -0.00345906, -0.136146, 0.00336091, -0.312694, 0.000498326, 0.162901, 0.0405015, 0.167653, -2.77438, -0.158895, -6.82757, -0.0266533, 3.45871, 1.21142, 2, 30, -2, 30, 2, -30, 2, 0, 0, 0, 0, 0, 0, 0
0.031, -0.00312847, -0.138826, 0.00303963, -0.31932, 0.000478357, 0.166244, 0.041852, 0.330595, -2.68045, -0.321042, -6.62679, -0.0199725, 3.34267, 1.35052, 1, 31, -1, 31, 1, -31, 3, 0, 0, 0, 0, 0, 0, 0
0.032, -0.00272671, -0.141416, 0.00264954, -0.325758, 0.000469774, 0.169476, 0.0434848, 0.401757, -2.58992, -0.389898, -6.43801, -0.0085884, 3.23206, 1.63283, 0, 32, 0, 32, 0, -32, 2, 0, 0, 0, 0, 0, 0, 0
0.033, -0.00234441, -0.143898, 0.0022827, -0.332003, 0.000465276, 0.172586, 0.0451745, 0.382302, -2.4824, -0.368073, -6.24472, -0.00450339, 3.11012, 1.68965, -1, 33, 1, 33, 1, -31, 1, 0, 0, 0, 0, 0, 0, 0
0.034, -0.00206846, -0.146281, 0.00202575, -0.338064, 0.000466925, 0.17558, 0.0467388, 0.275952, -2.38209, -0.260096, -6.06103, 0.00165126, 2.99428, 1.56429, -2, 34, 2, 34, 0, -30, 0, 0, 0, 0, 0, 0, 0, 0
0.035, -0.00196129, -0.148551, 0.00193685, -0.343934, 0.000465189, 0.17845, 0.0480279, 0.10717, -2.27044, -0.0909184, -5.8702, -0.00173079, 2.8697, 1.28911, -3, 35, 3, 35, 1, -29, 1, 0, 0, 0, 0, 0, 0, 0
0.036, -0.00206208, -0.150722, 0.00205097, -0.349619, 0.000462746, 0.181204, 0.049268, -0.100787, -2.1712, 0.11586, -5.68458, -0.0024382, 2.75365, 1.24011, -2, 36, 2, 36, 0, -28, 2, 0, 0, 0, 0, 0, 0, 0
0.037, -0.00228395, -0.152793, 0.00228307, -0.355107, 0.000452726, 0.183836, 0.0506449, -0.221877, -2.07041, 0.235293, -5.48821, -0.0100191, 2.63227, 1.37695, -1, 37, 1, 37, 1, -27, 3, 0, 0, 0, 0, 0, 0, 0
0.038, -0.0025384, -0.154779, 0.0025477, -0.3604, 0.000440156, 0.186358, 0.0523132, -0.254448, -1.98686, 0.266109, -5.29308, -0.012573, 2.52193, 1.66829, 0, 38, 0, 38, 2, -26, 2, 0, 0, 0, 0, 0, 0, 0
0.039, -0.00273525, -0.156677, 0.00275463, -0.365488, 0.000422021, 0.188765, 0.0540521, -0.196851, -1.89769, 0.206322, -5.08773, -0.0181349, 2.40702, 1.7389, 1, 39, -1, 39, 1, -25, 1, 0, 0, 0, 0, 0, 0, 0
0.04, -0.00280362, -0.158497, 0.00283339, -0.370374, 0.000403152, 0.191066, 0.0556744, -0.0683671, -1.81978, 0.0776062, -4.88572, -0.0188683, 2.30142, 1.62225, 2, 40, -2, 40, 2, -24, 0, 0, 0, 0, 0, 0, 0, 0
0.041, -0.00269287, -0.160227, 0.00273246, -0.375052, 0.000383041, 0.193255, 0.0570246, 0.110746, -1.73041, -0.10113, -4.67795, -0.0201088, 2.18868, 1.3502, 1, 41, -1, 41, 1, -23, 1, 0, 0, 0, 0, 0, 0, 0
0.042, -0.00247657, -0.161869, 0.00252644, -0.37953, 0.000369303, 0.195336, 0.0583171, 0.216307, -1.64192, -0.205114, -4.478, -0.0137389, 2.08158, 1.29256, 0, 40, 0, 42, 2, -22, 2, 0, 0, 0, 0, 0, 0, 0
0.043, -0.00223096, -0.163406, 0.00229195, -0.383808, 0.000361607, 0.197301, 0.0597318, 0.245611, -1.53673, -0.233633, -4.27844, -0.00770231, 1.96479, 1.41473, -1, 39, 1, 41, 1, -21, 3, 0, 0, 0, 0, 0, 0, 0
0.044, -0.00203738, -0.164845, 0.00211151, -0.387902, 0.000364432, 0.199156, 0.0614171, 0.193579, -1.43884, -0.180384, -4.09396, 0.00282182, 1.85488, 1.68524, -2, 38, 2, 40, 0, -20, 2, 0, 0, 0, 0, 0, 0, 0
0.045, -0.00196152, -0.16618, 0.00204927, -0.391823, 0.000368869, 0.200898, 0.0631518, 0.0758586, -1.33511, -0.0624415, -3.92133, 0.00443765, 1.74241, 1.73472, -3, 37, 3, 39, -1, -19, 1, 0, 0, 0, 0, 0, 0, 0
0.046, -0.00205367, -0.167427, 0.00215397, -0.39559, 0.000373789, 0.202541, 0.0647559, -0.0921476, -1.24734, 0.105221, -3.76629, 0.0049255, 1.64259, 1.60414, -2, 36, 2, 38, 0, -18, 0, 0, 0, 0, 0, 0, 0, 0
0.047, -0.0022437, -0.168591, 0.0023551, -0.399205, 0.000372116, 0.204085, 0.0660839, -0.190037, -1.16392, 0.201814, -3.61574, -0.00167014, 1.54354, 1.32793, -1, 35, 1, 37, 1, -17, 1, 0, 0, 0, 0, 0, 0, 0
0.048, -0.00246302, -0.169694, 0.00258515, -0.402681, 0.00036905, 0.205545, 0.067361, -0.21932, -1.10236, 0.229886, -3.47581, -0.00306521, 1.46022, 1.27709, 0, 34, 0, 36, 0, -16, 2, 0, 0, 0, 0, 0, 0, 0
0.049, -0.00263841, -0.170735, 0.00277126, -0.406019, 0.000359582, 0.206924, 0.0687699, -0.175391, -1.04155, 0.185263, -3.33818, -0.00946807, 1.37894, 1.40889, 1, 33, -1, 35, 1, -15, 3, 0, 0, 0, 0, 0, 0, 0
0.05, -0.00271419, -0.171732, 0.00285777, -0.409231, 0.000351531, 0.208235, 0.0704612, -0.0757725, -0.996854, 0.0860261, -3.21201, -0.00805149, 1.31147, 1.69133, 2, 32, -2, 34, 0, -14, 2, 0, 0, 0, 0, 0, 0, 0
0.051, -0.00264781, -0.172679, 0.0028028, -0.412323, 0.000340916, 0.209478, 0.072209, 0.0663777, -0.946595, -0.0545774, -3.0914, -0.0106142, 1.24298, 1.74782, 1, 31, -1, 33, 1, -13, 1, 0, 0, 0, 0, 0, 0, 0
0.052, -0.00251477, -0.17358, 0.00268219, -0.415309, 0.000334772, 0.210662, 0.0738275, 0.133039, -0.901167, -0.119945, -2.98603, -0.00614542, 1.18373, 1.61853, 0, 30, 0, 32, 0, -12, 0, 0, 0, 0, 0, 0, 0, 0
0.053, -0.0023835, -0.174423, 0.00256471, -0.418198, 0.000328365, 0.211781, 0.0751617, 0.13127, -0.843736, -0.11738, -2.8896, -0.00640931, 1.11936, 1.3342, -1, 29, 1, 31, 1, -11, 1, 0, 0, 0, 0, 0, 0, 0
0.054, -0.00232246, -0.175217, 0.00251808, -0.421002, 0.000328464, 0.212843, 0.0764337, 0.0610426, -0.793282, -0.0470267, -2.80399, 9.74254e-05, 1.06193, 1.27195, -2, 28, 2, 30, 0, -10, 2, 0, 0, 0, 0, 0, 0, 0
0.055, -0.00237907, -0.175951, 0.0025877, -0.423723, 0.000328964, 0.213843, 0.0778272, -0.0566123, -0.734288, 0.0696655, -2.72076, 0.000500271, 0.999796, 1.39349, -1, 27, 1, 29, -1, -9, 3, 0, 0, 0, 0, 0, 0, 0
0.056, -0.00250014, -0.176644, 0.00272192, -0.426366, 0.000331692, 0.21479, 0.0794958, -0.121067, -0.692734, 0.134497, -2.64268, 0.0027318, 0.947257, 1.6686, 0, 26, 0, 28, 0, -8, 2, 0, 0, 0, 0, 0, 0, 0
0.057, -0.00262829, -0.177293, 0.00286306, -0.428928, 0.000329981, 0.215684, 0.0812221, -0.128157, -0.649347, 0.141398, -2.56244, -0.00170996, 0.8936, 1.72632, 1, 25, -1, 27, 1, -7, 1, 0, 0, 0, 0, 0, 0, 0
0.058, -0.00271668, -0.177913, 0.0029649, -0.431414, 0.000328194, 0.216535, 0.0828254, -0.0883884, -0.62002, 0.101893, -2.48528, -0.00178733, 0.851113, 1.60325, 2, 24, -2, 26, 0, -6, 0, 0, 0, 0, 0, 0, 0, 0
0.059, -0.0027198, -0.178498, 0.00298258, -0.433821, 0.000320123, 0.217342, 0.0841524, -0.0031203, -0.585167, 0.0175851, -2.40712, -0.008071, 0.807248, 1.32704, 1, 23, -3, 25, 1, -5, 1, 0, 0, 0, 0, 0, 0, 0
0.06, -0.00265538, -0.179056, 0.00293376, -0.436156, 0.000314099, 0.218114, 0.0854236, 0.0644267, -0.557854, -0.0492593, -2.33495, -0.00602352, 0.772227, 1.27119, 0, 22, -2, 24, 0, -4, 2, 0, 0, 0, 0, 0, 0, 0
0.061, -0.00258137, -0.179574, 0.00287565, -0.438422, 0.000306602, 0.218848, 0.0868188, 0.0740051, -0.517648, -0.0588338, -2.26606, -0.00749723, 0.733015, 1.3952, -1, 21, -1, 23, 1, -3, 1, 0, 0, 0, 0, 0, 0, 0
0.062, -0.00255349, -0.180058, 0.00286297, -0.440628, 0.000302891, 0.219548, 0.0881435, 0.0278763, -0.483771, -0.0133486, -2.20579, -0.00371193, 0.70013, 1.32472, -2, 20, 0, 22, 0, -2, 2, 0, 0, 0, 0, 0, 0, 0
0.063, -0.00260821, -0.180499, 0.0029305, -0.442776, 0.000297992, 0.220211, 0.0895825, -0.0547126, -0.441469, 0.0677687, -2.14882, -0.00489829, 0.663015, 1.43901, -1, 19, -1, 21, 1, -1, 1, 0, 0, 0, 0, 0, 0, 0
0.064, -0.00268847, -0.180914, 0.00302281, -0.444873, 0.000295853, 0.220845, 0.0909454, -0.0802631, -0.415338, 0.0926953, -2.09674, -0.0021388, 0.634467, 1.36293, 0, 18, -2, 20, 0, 0, 2, 0, 0, 0, 0, 0, 0, 0
0.065, -0.0027391, -0.181301, 0.00308561, -0.446917, 0.00029095, 0.22145, 0.0924188, -0.0506297, -0.386733, 0.0630574, -2.04376, -0.00490285, 0.605099, 1.47331, 1, 17, -3, 19, 1, 1, 1, 0, 0, 0, 0, 0, 0, 0
0.066, -0.00272231, -0.181672, 0.00308217, -0.448911, 0.000287681, 0.222036, 0.0938115, 0.0167922, -0.370377, -0.0036539, -1.99387, -0.00326882, 0.585662, 1.39271, 0, 16, -2, 18, 0, 2, 0, 0, 0, 0, 0, 0, 0, 0
0.067, -0.00269038, -0.182013, 0.00306318, -0.450857, 0.000279688, 0.2226, 0.0949628, 0.0319296, -0.341756, -0.0191541, -1.9458, -0.00799374, 0.563768, 1.15133, -1, 15, -1, 17, 1, 3, 1, 0, 0, 0, 0, 0, 0, 0
0.068, -0.0026912, -0.182333, 0.00307577, -0.452761, 0.00027442, 0.223149, 0.0960882, -0.000822485, -0.319926, 0.0126475, -1.90447, -0.00526803, 0.548903, 1.12544, 0, 14, -2, 16, 0, 4, 2, 0, 0, 0, 0, 0, 0, 0
0.069, -0.00266919, -0.182628, 0.00306579, -0.454626, 0.000267941, 0.22368, 0.097364, 0.0220077, -0.295256, -0.0100223, -1.86541, -0.00647897, 0.53123, 1.27581, -1, 13, -1, 15, 1, 5, 3, 0, 0, 0, 0, 0, 0, 0
0.07, -0.00267574, -0.182906, 0.00308351, -0.456458, 0.000266591, 0.224201, 0.0989385, -0.00655046, -0.277302, 0.0178277, -1.83186, -0.00134934, 0.521221, 1.57442, 0, 12, -2, 14, 0, 6, 2, 0, 0, 0, 0, 0, 0, 0
0.071, -0.00265762, -0.183162, 0.0030768, -0.458258, 0.000263588, 0.22471, 0.100586, 0.0181235, -0.256179, -0.00670444, -1.79989, -0.00300398, 0.50906, 1.64737, -1, 11, -1, 13, 1, 7, 1, 0, 0, 0, 0, 0, 0, 0
0.072, -0.0026664, -0.183403, 0.00309595, -0.460031, 0.000263206, 0.225215, 0.102122, -0.00878303, -0.241474, 0.0193266, -1.77292, -0.000381874, 0.504641, 1.53601, 0, 10, -2, 12, 0, 8, 0, 0, 0, 0, 0, 0, 0, 0
0.073, -0.00264783, -0.183627, 0.00308785, -0.461779, 0.000259034, 0.225713, 0.103392, 0.0185771, -0.223772, -0.00803564, -1.74752, -0.00417198, 0.49827, 1.27001, -1, 9, -1, 11, 1, 9, 1, 0, 0, 0, 0, 0, 0, 0
0.074, -0.00265249, -0.18384, 0.00310195, -0.463505, 0.000257679, 0.226213, 0.104616, -0.00466388, -0.212715, 0.0143015, -1.72685, -0.00135422, 0.499703, 1.22451, 0, 8, -2, 10, 0, 10, 2, 0, 0, 0, 0, 0, 0, 0
0.075, -0.00262592, -0.184039, 0.00308504, -0.465213, 0.000254722, 0.226712, 0.105975, 0.0265717, -0.198794, -0.0168428, -1.70784, -0.00295701, 0.499392, 1.35901, -1, 7, -1, 9, 1, 11, 1, 0, 0, 0, 0, 0, 0, 0
0.076, -0.00261936, -0.18423, 0.00308718, -0.466907, 0.000254753, 0.227219, 0.107274, 0.00656162, -0.190912, 0.00230151, -1.69372, 3.07573e-05, 0.506458, 1.29828, 0, 6, 0, 8, 0, 12, 2, 0, 0, 0, 0, 0, 0, 0
0.077, -0.00262236, -0.184407, 0.0030985, -0.468589, 0.000252785, 0.22773, 0.108694, -0.00300162, -0.177086, 0.0115566, -1.68213, -0.00196831, 0.511319, 1.42036, 1, 5, -1, 7, 1, 13, 1, 0, 0, 0, 0, 0, 0, 0
0.078, -0.00258993, -0.184583, 0.00307532, -0.470263, 0.000253862, 0.228252, 0.110043, 0.0324234, -0.176292, -0.0231545, -1.6735, 0.00107724, 0.522343, 1.34919, 0, 4, 0, 6, 0, 14, 0, 0, 0, 0, 0, 0, 0, 0
0.079, -0.00256851, -0.184747, 0.00306264, -0.471929, 0.000251204, 0.228782, 0.111159, 0.0214231, -0.164454, -0.0125744, -1.66674, -0.00265799, 0.529542, 1.11615, -1, 3, 1, 5, 1, 15, 1, 0, 0, 0, 0, 0, 0, 0
0.08, -0.00259974, -0.184908, 0.00310134, -0.473594, 0.000251607, 0.229324, 0.112257, -0.0312255, -0.160118, 0.0389282, -1.66419, 0.000403139, 0.54192, 1.09804, 0, 2, 0, 4, 0, 16, 2, 0, 0, 0, 0, 0, 0, 0
0.081, -0.00262024, -0.185062, 0.00312938, -0.475256, 0.000250525, 0.229875, 0.113513, -0.020505, -0.154082, 0.0281508, -1.66274, -0.00108225, 0.551114, 1.25564, 1, 1, -1, 3, 1, 17, 3, 0, 0, 0, 0, 0, 0, 0
0.082, -0.00258861, -0.185222, 0.00310631, -0.476919, 0.000254613, 0.230442, 0.115073, 0.0316264, -0.160573, -0.023045, -1.66295, 0.00408761, 0.567152, 1.56006, 0, 0, 0, 2, 0, 18, 2, 0, 0, 0, 0, 0, 0, 0
0.083, -0.00255523, -0.185377, 0.00308125, -0.478584, 0.000256907, 0.231022, 0.11671, 0.0333805, -0.155153, -0.0250391, -1.66511, 0.00229349, 0.579715, 1.63722, -1, -1, 1, 1, -1, 19, 1, 0, 0, 0, 0, 0, 0, 0
0.084, -0.00256559, -0.185533, 0.00309973, -0.480256, 0.000259897, 0.231618, 0.118237, -0.0103548, -0.156082, 0.0185002, -1.67165, 0.00299079, 0.596838, 1.52702, 0, -2, 0, 0, 0, 20, 0, 0, 0, 0, 0, 0, 0, 0
0.085, -0.002562, -0.185688, 0.00310441, -0.481936, 0.000259342, 0.232229, 0.119501, 0.00358482, -0.154499, 0.00465587, -1.68028, -0.000555622, 0.610209, 1.26379, 1, -3, -1, -1, 1, 21, 1, 0, 0, 0, 0, 0, 0, 0
0.086, -0.00250876, -0.185853, 0.00306033, -0.483627, 0.000263014, 0.232859, 0.120721, 0.0532416, -0.165123, -0.0440448, -1.69069, 0.0036716, 0.630046, 1.21991, 0, -4, 0, -2, 0, 22, 2, 0, 0, 0, 0, 0, 0, 0
0.087, -0.00246076, -0.186017, 0.00302131, -0.48533, 0.000265645, 0.233505, 0.122076, 0.0480038, -0.164074, -0.0390295, -1.7033, 0.00263139, 0.646654, 1.35529, -1, -5, 1, -3, -1, 23, 1, 0, 0, 0, 0, 0, 0, 0
0.088, -0.00246593, -0.186187, 0.00303516, -0.48705, 0.000269231, 0.234173, 0.12337, -0.00517205, -0.169424, 0.0138516, -1.71997, 0.00358563, 0.667612, 1.29343, 0, -6, 0, -4, 0, 24, 2, 0, 0, 0, 0, 0, 0, 0
0.089, -0.00246668, -0.186359, 0.00304463, -0.488789, 0.0002709, 0.234858, 0.124786, -0.000753288, -0.172908, 0.00944481, -1.73864, 0.00166943, 0.685334, 1.41665, 1, -7, -1, -5, -1, 25, 1, 0, 0, 0, 0, 0, 0, 0
0.09, -0.0024244, -0.186548, 0.00301261, -0.490548, 0.000273494, 0.235568, 0.126131, 0.0422799, -0.188654, -0.0320175, -1.75863, 0.0025942, 0.709314, 1.34454, 0, -8, 0, -6, 0, 26, 0, 0, 0, 0, 0, 0, 0, 0
0.091, -0.00239061, -0.186741, 0.00298867, -0.492329, 0.000271675, 0.236298, 0.127244, 0.0337939, -0.192937, -0.0239528, -1.78101, -0.00181926, 0.730056, 1.11261, -1, -9, 1, -7, 1, 27, 1, 0, 0, 0, 0, 0, 0, 0
0.092, -0.00241011, -0.186945, 0.00301671, -0.494135, 0.000273051, 0.237053, 0.128339, -0.0194962, -0.204164, 0.0280364, -1.80686, 0.00137655, 0.755393, 1.09522, 0, -10, 0, -8, 0, 28, 2, 0, 0, 0, 0, 0, 0, 0
0.093, -0.00242139, -0.187159, 0.00303642, -0.49597, 0.000272911, 0.237831, 0.129592, -0.0112827, -0.213758, 0.0196497, -1.83472, -0.000139917, 0.777962, 1.25328, 1, -11, -1, -9, -1, 29, 3, 0, 0, 0, 0, 0, 0, 0
0.094, -0.00238373, -0.187395, 0.00300876, -0.497834, 0.000275378, 0.238638, 0.131148, 0.0376616, -0.23564, -0.0276224, -1.86348, 0.00246671, 0.806675, 1.55614, 0, -12, 0, -10, 0, 30, 2, 0, 0, 0, 0, 0, 0, 0
0.095, -0.00234825, -0.18764, 0.00298304, -0.499729, 0.000275218, 0.23947, 0.132782, 0.0354747, -0.245758, -0.0257178, -1.89502, -0.000159657, 0.832251, 1.63398, -1, -13, 1, -11, -1, 31, 1, 0, 0, 0, 0, 0, 0, 0
0.096, -0.00236019, -0.187902, 0.00300434, -0.501659, 0.000275794, 0.240332, 0.134307, -0.0119323, -0.2621, 0.0212753, -1.93005, 0.000576194, 0.861863, 1.52437, 0, -14, 0, -12, 0, 32, 0, 0, 0, 0, 0, 0, 0, 0
0.097, -0.00236056, -0.188177, 0.00301406, -0.503623, 0.000272565, 0.241218, 0.135568, -0.000372131, -0.27458, 0.00966192, -1.96404, -0.00322989, 0.88649, 1.26179, 1, -15, -1, -13, 1, 33, 1, 0, 0, 0, 0, 0, 0, 0
0.098, -0.00231252, -0.188474, 0.00297613, -0.505618, 0.000273355, 0.242133, 0.136787, 0.0480363, -0.297287, -0.0378594, -1.9949, 0.000790648, 0.914907, 1.21857, 0, -16, 0, -14, 0, 34, 2, 0, 0, 0, 0, 0, 0, 0
0.099, -0.00226964, -0.188781, 0.00294311, -0.507643, 0.000272942, 0.243072, 0.138141, 0.0428835, -0.306804, -0.032995, -2.02506, -0.000413892, 0.938684, 1.35451, -1, -17, 1, -15, -1, 35, 1, 0, 0, 0, 0, 0, 0, 0
0.1, -0.00227899, -0.189102, 0.00296199, -0.509697, 0.000273513, 0.244036, 0.139435, -0.00934708, -0.320734, 0.0188603, -2.05478, 0.000572072, 0.964127, 1.29319, 0, -18, 0, -16, 0, 36, 0, 0, 0, 0, 0, 0, 0, 0
0.101, -0.00228252, -0.189433, 0.00297504, -0.511781, 0.000270296, 0.245021, 0.140505, -0.0035387, -0.331159, 0.012994, -2.08391, -0.00321796, 0.984752, 1.07063, 1, -19, -1, -17, 1, 37, 1, 0, 0, 0, 0, 0, 0, 0
0.102, -0.0022432, -0.189785, 0.00294597, -0.513891, 0.000270874, 0.24603, 0.141566, 0.0393276, -0.352177, -0.0290385, -2.10981, 0.000578591, 1.00921, 1.06073, 0, -20, 0, -18, 0, 38, 2, 0, 0, 0, 0, 0, 0, 0
0.103, -0.00221277, -0.190146, 0.00292545, -0.516027, 0.00026977, 0.24706, 0.14279, 0.030431, -0.360564, -0.0205391, -2.13544, -0.00110444, 1.0296, 1.22445, -1, -21, 1, -19, 1, 39, 3, 0, 0, 0, 0, 0, 0, 0
0.104, -0.00223653, -0.19052, 0.00295792, -0.518187, 0.00027344, 0.248112, 0.144325, -0.0237618, -0.373858, 0.0324382, -2.16033, 0.00367014, 1.05193, 1.53438, 0, -22, 0, -20, 0, 40, 2, 0, 0, 0, 0, 0, 0, 0
0.105, -0.00225327, -0.190904, 0.00298329, -0.520372, 0.000275048, 0.249182, 0.145942, -0.0167439, -0.384059, 0.0252748, -2.18506, 0.00160813, 1.07012, 1.61687, 1, -23, -1, -21, -1, 41, 1, 0, 0, 0, 0, 0, 0, 0
0.106, -0.0022229, -0.191308, 0.00296305, -0.522579, 0.000276957, 0.250273, 0.147453, 0.0303723, -0.404611, -0.0201955, -2.20656, 0.00190942, 1.0918, 1.51116, 0, -24, 0, -22, 0, 42, 0, 0, 0, 0, 0, 0, 0, 0
0.107, -0.00219623, -0.191721, 0.00294622, -0.524807, 0.00027407, 0.251383, 0.148704, 0.0266677, -0.412413, -0.0168418, -2.22872, -0.00288749, 1.10939, 1.25127, -1, -25, 1, -23, 1, 43, 1, 0, 0, 0, 0, 0, 0, 0
0.108, -0.00221864, -0.192146, 0.00297723, -0.527057, 0.000274408, 0.252512, 0.149915, -0.0224061, -0.425063, 0.0309695, -2.25011, 0.000338201, 1.12891, 1.21072, 0, -26, 0, -24, 0, 44, 2, 0, 0, 0, 0, 0, 0, 0
0.109, -0.00223004, -0.192581, 0.00299727, -0.529329, 0.000273288, 0.253657, 0.151264, -0.0114041, -0.434963, 0.0199333, -2.27191, -0.00112013, 1.14484, 1.34945, 1, -27, -1, -25, 1, 45, 1, 0, 0, 0, 0, 0, 0, 0
0.11, -0.00219335, -0.193036, 0.00297, -0.53162, 0.000275479, 0.254821, 0.152556, 0.0366918, -0.454902, -0.0271799, -2.29046, 0.002191, 1.16402, 1.29202, 0, -28, 0, -26, 0, 46, 0, 0, 0, 0, 0, 0, 0, 0
0.111, -0.00216102, -0.193498, 0.00294679, -0.53393, 0.00027401, 0.256, 0.153626, 0.0323269, -0.462107, -0.0231942, -2.31028, -0.00146924, 1.17952, 1.06996, -1, -29, 1, -27, 1, 47, 1, 0, 0, 0, 0, 0, 0, 0
0.112, -0.00217994, -0.193972, 0.00297366, -0.536259, 0.000275912, 0.257197, 0.154687, -0.0189191, -0.473979, 0.026832, -2.32922, 0.00190197, 1.19662, 1.06077, 0, -30, 0, -28, 0, 48, 2, 0, 0, 0, 0, 0, 0, 0
0.113, -0.00219096, -0.194455, 0.00299268, -0.538608, 0.000276432, 0.258407, 0.155912, -0.0110152, -0.483378, 0.0189138, -2.34915, 0.00051994, 1.21045, 1.22544, 1, -31, -1, -29, -1, 49, 3, 0, 0, 0, 0, 0, 0, 0
0.114, -0.00215668, -0.194958, 0.00296809, -0.540974, 0.000279649, 0.259635, 0.157446, 0.0342763, -0.503137, -0.0245045, -2.36535, 0.00321747, 1.22768, 1.53385, 0, -32, 0, -30, 0, 50, 2, 0, 0, 0, 0, 0, 0, 0
0.115, -0.00212951, -0.195469, 0.00295046, -0.543357, 0.000279878, 0.260876, 0.159063, 0.0271706, -0.510326, -0.0176329, -2.38338, 0.000228776, 1.24142, 1.61632, -1, -33, 1, -31, -1, 51, 1, 0, 0, 0, 0, 0, 0, 0
0.116, -0.00215443, -0.195991, 0.00298441, -0.545757, 0.000280485, 0.262133, 0.160573, -0.0249232, -0.52201, 0.0339012, -2.40025, 0.000607142, 1.25654, 1.51087, 0, -34, 0, -32, 0, 52, 0, 0, 0, 0, 0, 0, 0, 0
0.117, -0.00217117, -0.196522, 0.0030102, -0.548176, 0.000276525, 0.263401, 0.161825, -0.0167389, -0.531362, 0.0256517, -2.41879, -0.00395951, 1.26836, 1.25176, 1, -35, -1, -33, 1, 53, -1, 0, 0, 0, 0, 0, 0, 0
0.118, -0.00214216, -0.197073, 0.00299091, -0.55061, 0.000273931, 0.264684, 0.162691, 0.0290158, -0.550971, -0.0192312, -2.43335, -0.00259407, 1.28331, 0.865465, 0, -36, 0, -34, 0, 54, 0, 0, 0, 0, 0, 0, 0, 0
0.119, -0.00211817, -0.197632, 0.00297628, -0.55306, 0.000267653, 0.26598, 0.163408, 0.0239829, -0.558645, -0.0146447, -2.44997, -0.0062781, 1.29558, 0.71778, -1, -37, 1, -35, 1, 55, 1, 0, 0, 0, 0, 0, 0, 0
0.12, -0.00214417, -0.198202, 0.00301038, -0.555525, 0.000264681, 0.267289, 0.164179, -0.0259977, -0.570875, 0.0340345, -2.465, -0.00297233, 1.30916, 0.770219, 0, -38, 0, -36, 0, 56, 2, 0, 0, 0, 0, 0, 0, 0
0.121, -0.00215935, -0.198784, 0.00303374, -0.558007, 0.000260289, 0.268609, 0.165164, -0.0151768, -0.581148, 0.0232217, -2.48206, -0.0043915, 1.32017, 0.985785, 1, -39, -1, -37, 1, 57, 3, 0, 0, 0, 0, 0, 0, 0
0.122, -0.00212716, -0.199385, 0.0030107, -0.560501, 0.000261154, 0.269944, 0.166503, 0.0321852, -0.601474, -0.0229202, -2.49482, 0.000865029, 1.33417, 1.3381, 0, -40, 0, -38, 0, 58, 2, 0, 0, 0, 0, 0, 0, 0
0.123, -0.00209974, -0.199994, 0.00299224, -0.563012, 0.000259946, 0.271289, 0.167957, 0.0274201, -0.609395, -0.0184363, -2.51048, -0.00120793, 1.34537, 1.45474, -1, -41, 1, -39, 1, 59, 1, 0, 0, 0, 0, 0, 0, 0
0.124, -0.00212354, -0.200616, 0.00302376, -0.565536, 0.000261693, 0.272646, 0.169337, -0.0237997, -0.621313, 0.0314855, -2.52455, 0.00174629, 1.35726, 1.37944, 0, -42, 0, -40, 0, 60, 0, 0, 0, 0, 0, 0, 0, 0
0.125, -0.00213893, -0.201247, 0.00304687, -0.568078, 0.0002598, 0.274013, 0.17048, -0.0153885, -0.631305, 0.0229849, -2.54135, -0.00189282, 1.36655, 1.14317, 1, -43, -1, -41, 1, 61, 1, 0, 0, 0, 0, 0, 0, 0
0.126, -0.0021103, -0.201899, 0.00302687, -0.570631, 0.000261146, 0.275391, 0.171602, 0.0286357, -0.651443, -0.0199099, -2.5534, 0.0013459, 1.37863, 1.12199, 0, -44, 0, -42, 0, 62, 2, 0, 0, 0, 0, 0, 0, 0
0.127, -0.00208939, -0.202558, 0.00301437, -0.5732, 0.000260348, 0.27678, 0.172878, 0.0209036, -0.659799, -0.012518, -2.5686, -0.000797492, 1.38856, 1.27614, -1, -45, 1, -43, 1, 63, 1, 0, 0, 0, 0, 0, 0, 0
0.128, -0.00212131, -0.203231, 0.00305334, -0.575781, 0.000262287, 0.278179, 0.17411, -0.0319222, -0.672187, 0.038903, -2.58162, 0.00193843, 1.39906, 1.23205, 0, -46, 0, -44, 0, 64, 0, 0, 0, 0, 0, 0, 0, 0
0.129, -0.00214453, -0.203914, 0.00308357, -0.578379, 0.000260301, 0.279586, 0.175132, -0.0232184, -0.683074, 0.0300561, -2.59775, -0.00198579, 1.40735, 1.02164, 1, -47, -1, -45, 1, 65, 1, 0, 0, 0, 0, 0, 0, 0
0.13, -0.00212215, -0.204618, 0.00306909, -0.580988, 0.000261348, 0.281005, 0.176154, 0.0223842, -0.704058, -0.0143932, -2.60863, 0.00104705, 1.4183, 1.0219, 0, -46, 0, -46, 0, 66, 2, 0, 0, 0, 0, 0, 0, 0
0.131, -0.00210465, -0.20533, 0.00305928, -0.58361, 0.00026013, 0.282431, 0.177347, 0.0174966, -0.712458, -0.00982061, -2.62194, -0.00121781, 1.42673, 1.19368, -1, -45, 1, -47, 1, 67, 3, 0, 0, 0, 0, 0, 0, 0
0.132, -0.00213687, -0.206054, 0.00309795, -0.586241, 0.000263463, 0.283867, 0.178858, -0.0322176, -0.7239, 0.0386078, -2.63114, 0.003333, 1.43537, 1.51035, 0, -44, 0, -48, 0, 68, 2, 0, 0, 0, 0, 0, 0, 0
0.133, -0.00215745, -0.206787, 0.00312508, -0.588883, 0.000264357, 0.285309, 0.180456, -0.0205829, -0.732923, 0.0269737, -2.64257, 0.000894008, 1.44181, 1.59813, 1, -43, -1, -49, -1, 69, 1, 0, 0, 0, 0, 0, 0, 0
0.134, -0.00212939, -0.207537, 0.00310522, -0.591531, 0.000265326, 0.286759, 0.181953, 0.0280658, -0.750557, -0.0197089, -2.64711, 0.000968443, 1.45022, 1.49677, 0, -42, 0, -50, 0, 70, 0, 0, 0, 0, 0, 0, 0, 0
0.135, -0.00210399, -0.208293, 0.00308782, -0.594185, 0.000261021, 0.288215, 0.183193, 0.0253959, -0.75535, -0.0173487, -2.65491, -0.00430443, 1.45637, 1.24015, -1, -41, 1, -51, 1, 71, -1, 0, 0, 0, 0, 0, 0, 0
0.136, -0.00212651, -0.209056, 0.00311689, -0.596844, 0.00025796, 0.289678, 0.184049, -0.0225228, -0.762867, 0.0290388, -2.6587, -0.00306086, 1.46254, 0.856228, 0, -40, 0, -52, 0, 72, 0, 0, 0, 0, 0, 0, 0, 0
0.137, -0.00213641, -0.209824, 0.00313339, -0.59951, 0.000251612, 0.291145, 0.18476, -0.00989985, -0.768605, 0.016397, -2.6656, -0.00634855, 1.46716, 0.7108, 1, -39, -1, -53, 1, 73, 1, 0, 0, 0, 0, 0, 0, 0
0.138, -0.00209956, -0.210607, 0.00310421, -0.602175, 0.000248882, 0.292619, 0.185524, 0.0368574, -0.783024, -0.0289855, -2.66549, -0.00273007, 1.47383, 0.764631, 0, -38, 0, -54, 0, 74, 2, 0, 0, 0, 0, 0, 0, 0
0.139, -0.00206831, -0.211392, 0.0030805, -0.604845, 0.000244418, 0.294098, 0.186505, 0.0312477, -0.784981, -0.0236433, -2.66935, -0.0044635, 1.47901, 0.980537, -1, -37, 1, -55, 1, 75, 3, 0, 0, 0, 0, 0, 0, 0
0.14, -0.00208882, -0.212182, 0.00310731, -0.607514, 0.000245132, 0.295582, 0.187839, -0.0205096, -0.789653, 0.0268174, -2.66896, 0.000713272, 1.48414, 1.33363, 0, -36, 0, -56, 0, 76, 2, 0, 0, 0, 0, 0, 0, 0
0.141, -0.00210083, -0.212975, 0.00312577, -0.610186, 0.000243946, 0.29707, 0.18929, -0.0120101, -0.792604, 0.0183858, -2.67261, -0.00118556, 1.48778, 1.45139, 1, -35, -1, -57, 1, 77, 1, 0, 0, 0, 0, 0, 0, 0
0.142, -0.00207031, -0.213779, 0.00310282, -0.612855, 0.000245667, 0.298563, 0.190667, 0.0305207, -0.804065, -0.0228098, -2.66911, 0.00172123, 1.49306, 1.37671, 0, -34, 0, -58, 0, 78, 0, 0, 0, 0, 0, 0, 0, 0
0.143, -0.0020483, -0.214582, 0.00308799, -0.615526, 0.000243067, 0.30006, 0.191807, 0.0220049, -0.80332, -0.0148091, -2.67034, -0.00260051, 1.49698, 1.14025, -1, -33, 1, -59, 1, 79, 1, 0, 0, 0, 0, 0, 0, 0
0.144, -0.00207897, -0.215388, 0.00312432, -0.618193, 0.00024339, 0.30156, 0.192926, -0.0306676, -0.805558, 0.0363127, -2.66692, 0.000323613, 1.50084, 1.11949, 0, -34, 0, -60, 0, 80, 2, 0, 0, 0, 0, 0, 0, 0
0.145, -0.00210006, -0.216195, 0.00315117, -0.620862, 0.000241717, 0.303065, 0.194201, -0.0210876, -0.80786, 0.0267592, -2.66916, -0.00167323, 1.50464, 1.27445, 1, -33, -1, -61, 1, 81, 1, 0, 0, 0, 0, 0, 0, 0
0.146, -0.00207633, -0.217014, 0.00313441, -0.623526, 0.000242972, 0.304575, 0.195431, 0.0237309, -0.818669, -0.0166338, -2.66404, 0.00125496, 1.50977, 1.2305, 0, -32, 0, -62, 0, 82, 0, 0, 0, 0, 0, 0, 0, 0
0.147, -0.00205824, -0.217831, 0.00312293, -0.62619, 0.000240073, 0.306089, 0.196451, 0.0180838, -0.817388, -0.0114475, -2.66434, -0.00289952, 1.51374, 1.01937, -1, -31, 1, -63, 1, 83, 1, 0, 0, 0, 0, 0, 0, 0
0.148, -0.00209025, -0.21865, 0.00316007, -0.62885, 0.000240395, 0.307606, 0.19747, -0.0320105, -0.818803, 0.0371318, -2.65966, 0.000322192, 1.5174, 1.01951, 0, -32, 0, -64, 0, 84, 2, 0, 0, 0, 0, 0, 0, 0
0.149, -0.00211095, -0.219471, 0.00318609, -0.631511, 0.000239015, 0.309127, 0.198662, -0.0207, -0.820422, 0.0259391, -2.66127, -0.00137954, 1.52124, 1.19164, 1, -31, -1, -65, 1, 85, 1, 0, 0, 0, 0, 0, 0, 0
0.15, -0.00208684, -0.220301, 0.00316862, -0.634166, 0.000240851, 0.310653, 0.199824, 0.0241093, -0.830267, -0.0173316, -2.65512, 0.0018362, 1.52618, 1.16185, 0, -30, 0, -66, 0, 86, 0, 0, 0, 0, 0, 0, 0, 0
0.151, -0.00206935, -0.221129, 0.00315742, -0.636821, 0.000238742, 0.312184, 0.200786, 0.0174949, -0.828068, -0.0111708, -2.65501, -0.00210915, 1.53018, 0.962379, -1, -31, 1, -67, 1, 87, 1, 0, 0, 0, 0, 0, 0, 0
0.152, -0.00210347, -0.221958, 0.00319629, -0.639472, 0.000240053, 0.313718, 0.201758, -0.0341214, -0.8293, 0.0388628, -2.65073, 0.00131063, 1.53426, 0.972227, 0, -30, 0, -68, 0, 88, 2, 0, 0, 0, 0, 0, 0, 0
0.153, -0.0021276, -0.222788, 0.0032254, -0.642124, 0.000239755, 0.315256, 0.202911, -0.0241256, -0.830193, 0.0290224, -2.65228, -0.000297916, 1.53787, 1.15233, 1, -29, -1, -69, -1, 89, 1, 0, 0, 0, 0, 0, 0, 0
0.154, -0.00210789, -0.223628, 0.00321273, -0.644769, 0.00024027, 0.316798, 0.204038, 0.0197098, -0.839283, -0.0125583, -2.64527, 0.000514716, 1.54261, 1.12741, 0, -28, 0, -70, 0, 90, 2, 0, 0, 0, 0, 0, 0, 0
0.155, -0.0020955, -0.224464, 0.00320724, -0.647414, 0.000237658, 0.318345, 0.205318, 0.0123882, -0.836703, -0.00548181, -2.6446, -0.00261185, 1.54689, 1.28014, -1, -29, -1, -71, 1, 91, 1, 0, 0, 0, 0, 0, 0, 0
0.156, -0.002095, -0.225305, 0.00321291, -0.650053, 0.000238702, 0.319897, 0.206553, 0.00050167, -0.840458, 0.0057241, -2.63865, 0.00104362, 1.55146, 1.23456, 0, -28, -2, -72, 0, 92, 0, 0, 0, 0, 0, 0, 0, 0
0.157, -0.00206051, -0.226147, 0.00318533, -0.652692, 0.000236451, 0.321452, 0.207575, 0.0344832, -0.841619, -0.0276045, -2.63899, -0.00225022, 1.55575, 1.02187, -1, -27, -1, -73, 1, 93, 1, 0, 0, 0, 0, 0, 0, 0
0.158, -0.00205181, -0.22699, 0.00318255, -0.655324, 0.000237804, 0.323012, 0.208595, 0.00870697, -0.842994, -0.00279221, -2.63244, 0.00135226, 1.55969, 1.02043, 0, -28, 0, -74, 0, 94, 2, 0, 0, 0, 0, 0, 0, 0
0.159, -0.00205978, -0.22783, 0.00319592, -0.657958, 0.000236905, 0.324576, 0.209786, -0.00797159, -0.840278, 0.0133121, -2.63416, -0.000898417, 1.56394, 1.19118, 1, -27, -1, -75, 1, 93, 1, 0, 0, 0, 0, 0, 0, 0
0.16, -0.00204512, -0.228677, 0.00318776, -0.660586, 0.000238643, 0.326144, 0.210947, 0.0146621, -0.846786, -0.00821743, -2.62761, 0.00173744, 1.56823, 1.16066, 0, -26, 0, -76, 0, 92, 0, 0, 0, 0, 0, 0, 0, 0
0.161, -0.00205009, -0.22952, 0.00319824, -0.663214, 0.000235468, 0.327716, 0.211908, -0.00497766, -0.843049, 0.0104408, -2.62817, -0.00317511, 1.5722, 0.961111, 1, -27, -1, -75, 1, 91, 1, 0, 0, 0, 0, 0, 0, 0
0.162, -0.00203287, -0.230369, 0.00318749, -0.665835, 0.00023468, 0.329294, 0.212879, 0.0172221, -0.849809, -0.0107713, -2.62125, -0.000787589, 1.57722, 0.970645, 0, -26, 0, -76, 0, 90, 2, 0, 0, 0, 0, 0, 0, 0
0.163, -0.00203325, -0.231216, 0.00319353, -0.668457, 0.000230926, 0.330876, 0.214029, -0.000376831, -0.846714, 0.00603057, -2.62201, -0.00375394, 1.58204, 1.15029, 1, -27, -1, -75, 1, 89, 1, 0, 0, 0, 0, 0, 0, 0
0.164, -0.00200919, -0.23207, 0.00317622, -0.671073, 0.000229655, 0.332463, 0.215156, 0.02406, -0.85367, -0.0172986, -2.61541, -0.00127113, 1.5873, 1.12702, 0, -26, 0, -76, 0, 88, 2, 0, 0, 0, 0, 0, 0, 0
0.165, -0.00200147, -0.23292, 0.00317455, -0.67369, 0.000225713, 0.334055, 0.216435, 0.0077144, -0.850657, -0.0016622, -2.61687, -0.00394164, 1.59234, 1.27943, -1, -25, -1, -75, 1, 89, 1, 0, 0, 0, 0, 0, 0, 0
0.166, -0.00200741, -0.233774, 0.00318568, -0.6763, 0.000224851, 0.335652, 0.217669, -0.00593991, -0.853575, 0.0111978, -2.61035, -0.000861962, 1.59639, 1.23405, 0, -24, -2, -74, 0, 88, 0, 0, 0, 0, 0, 0, 0, 0
0.167, -0.00197601, -0.234629, 0.00316024, -0.67891, 0.000219972, 0.337253, 0.218691, 0.0314062, -0.854963, -0.0254695, -2.61045, -0.00487897, 1.60137, 1.02177, -1, -25, -1, -75, 1, 87, 1, 0, 0, 0, 0, 0, 0, 0
0.168, -0.0019631, -0.235486, 0.00315222, -0.681513, 0.000218299, 0.33886, 0.219712, 0.0129093, -0.857011, -0.0079583, -2.60317, -0.00167325, 1.60649, 1.02086, 0, -24, 0, -74, 0, 86, 2, 0, 0, 0, 0, 0, 0, 0
0.169, -0.00195663, -0.23634, 0.00315032, -0.684118, 0.000214415, 0.340471, 0.220904, 0.00647052, -0.854438, -0.00188571, -2.60438, -0.00388438, 1.61171, 1.19178, -1, -25, -1, -73, 1, 85, 1, 0, 0, 0, 0, 0, 0, 0
0.17, -0.00195699, -0.237199, 0.00315465, -0.686716, 0.000214144, 0.342088, 0.222066, -0.000366562, -0.85815, 0.00439187, -2.59817, -0.000270506, 1.61653, 1.16166, 0, -24, -2, -74, 0, 84, 0, 0, 0, 0, 0, 0, 0, 0
0.171, -0.00191664, -0.238059, 0.00311926, -0.689315, 0.000210401, 0.34371, 0.223027, 0.0403525, -0.860077, -0.0354026, -2.59932, -0.00374284, 1.62227, 0.961766, -1, -23, -1, -73, 1, 83, 1, 0, 0, 0, 0, 0, 0, 0
0.172, -0.00189509, -0.23892, 0.00310175, -0.691907, 0.000210392, 0.345337, 0.223998, 0.0215536, -0.861118, -0.017481, -2.59166, -9.51791e-06, 1.62702, 0.970962, -2, -24, 0, -74, 0, 82, 2, 0, 0, 0, 0, 0, 0, 0
0.173, -0.00192006, -0.239775, 0.00312831, -0.694502, 0.000208854, 0.346969, 0.225149, -0.0249691, -0.855425, 0.0265572, -2.59482, -0.00153789, 1.63227, 1.15072, -1, -23, -1, -73, 1, 81, 1, 0, 0, 0, 0, 0, 0, 0
0.174, -0.00193863, -0.240636, 0.00314834, -0.69709, 0.000210966, 0.348606, 0.226277, -0.0185721, -0.86045, 0.0200281, -2.58823, 0.00211161, 1.6366, 1.12819, 0, -22, -2, -72, 0, 80, 0, 0, 0, 0, 0, 0, 0, 0
0.175, -0.00190577, -0.241499, 0.00311812, -0.699679, 0.000209345, 0.350249, 0.227212, 0.0328583, -0.863424, -0.0302123, -2.58843, -0.00162031, 1.6428, 0.934627, -1, -23, -1, -73, 1, 79, 1, 0, 0, 0, 0, 0, 0, 0
0.176, -0.00188346, -0.242365, 0.00309765, -0.702259, 0.000211336, 0.351898, 0.228161, 0.0223158, -0.865531, -0.0203931, -2.58027, 0.00199116, 1.64872, 0.948918, -2, -22, 0, -72, 0, 78, 2, 0, 0, 0, 0, 0, 0, 0
0.177, -0.00190131, -0.243224, 0.00311519, -0.704842, 0.000212073, 0.353552, 0.229293, -0.0178593, -0.859598, 0.017509, -2.58277, 0.000736449, 1.65432, 1.13252, -1, -23, -1, -71, -1, 79, 1, 0, 0, 0, 0, 0, 0, 0
0.178, -0.00190976, -0.244089, 0.003124, -0.707418, 0.000214808, 0.355211, 0.230404, -0.0084452, -0.86467, 0.00882045, -2.57649, 0.00273559, 1.65941, 1.11108, 0, -22, -2, -72, 0, 78, 0, 0, 0, 0, 0, 0, 0, 0
0.179, -0.00186844, -0.244956, 0.00308456, -0.709996, 0.000213676, 0.356877, 0.231324, 0.0413176, -0.867369, -0.0393953, -2.57812, -0.00113299, 1.66594, 0.920011, -1, -21, -1, -71, 1, 77, 1, 0, 0, 0, 0, 0, 0, 0
0.18, -0.0018433, -0.245824, 0.00306053, -0.712566, 0.000216913, 0.358548, 0.232261, 0.0251388, -0.867854, -0.0239814, -2.56999, 0.0032369, 1.67117, 0.936307, -2, -22, 0, -72, 0, 76, 2, 0, 0, 0, 0, 0, 0, 0
0.181, -0.00186536, -0.246686, 0.00308123, -0.71514, 0.000219113, 0.360225, 0.233382, -0.0220556, -0.86145, 0.0206563, -2.57391, 0.00219994, 1.6771, 1.12174, -1, -21, -1, -71, -1, 75, 1, 0, 0, 0, 0, 0, 0, 0
0.182, -0.00188384, -0.247551, 0.00309886, -0.717707, 0.000222978, 0.361907, 0.234484, -0.0184806, -0.865458, 0.017605, -2.56731, 0.0038657, 1.68159, 1.10205, 0, -22, -2, -70, 0, 74, 0, 0, 0, 0, 0, 0, 0, 0
0.183, -0.00185607, -0.24842, 0.00307156, -0.720277, 0.0002223, 0.363596, 0.235397, 0.0277659, -0.86866, -0.0273034, -2.56975, -0.000677785, 1.68875, 0.912654, -1, -21, -1, -71, 1, 73, 1, 0, 0, 0, 0, 0, 0, 0
0.184, -0.00184422, -0.24929, 0.00305922, -0.722839, 0.000225318, 0.36529, 0.236328, 0.0118558, -0.869837, -0.0123039, -2.56187, 0.00301761, 1.6944, 0.930511, 0, -20, 0, -70, 0, 72, 2, 0, 0, 0, 0, 0, 0, 0
0.185, -0.00183955, -0.250156, 0.00305372, -0.725403, 0.000226369, 0.366991, 0.237444, 0.00466965, -0.866683, -0.00553508, -2.56439, 0.00105126, 1.70097, 1.11678, -1, -21, -1, -69, -1, 71, 1, 0, 0, 0, 0, 0, 0, 0
0.186, -0.00184401, -0.251025, 0.0030573, -0.727961, 0.000228854, 0.368697, 0.238542, -0.00446411, -0.869055, 0.00360308, -2.55764, 0.0024848, 1.70624, 1.09756, 0, -20, 0, -70, 0, 70, 0, 0, 0, 0, 0, 0, 0, 0
0.187, -0.0018487, -0.251892, 0.00306094, -0.730522, 0.000226335, 0.37041, 0.239451, -0.00469109, -0.867012, 0.0035921, -2.56092, -0.00251935, 1.71248, 0.909003, 1, -19.9715, -1, -69, 1, 69, 1, 0, 0, 0, 0, 0, 0, 0
0.188, -0.00182165, -0.252765, 0.00303444, -0.733075, 0.000227289, 0.372128, 0.240378, 0.0270541, -0.872992, -0.0264677, -2.55267, 0.000954618, 1.71838, 0.927442, 0, -18.9715, 0, -70, 0, 68, 2, 0, 0, 0, 0, 0, 0, 0
0.189, -0.0018081, -0.253634, 0.00302076, -0.73563, 0.000226056, 0.373854, 0.241492, 0.0135513, -0.868869, -0.0137087, -2.55507, -0.00123379, 1.72547, 1.11408, -1, -19.9715, 1, -69, 1, 67, 1, 0, 0, 0, 0, 0, 0, 0
0.19, -0.00184634, -0.254501, 0.00305658, -0.738179, 0.000227922, 0.375584, 0.24259, -0.0382442, -0.866785, 0.0358266, -2.54884, 0.00186637, 1.73019, 1.09756, 0, -18.9715, 0, -68, 0, 66, 0, 0, 0, 0, 0, 0, 0, 0
0.191, -0.00186895, -0.255368, 0.00307699, -0.740731, 0.000225698, 0.377321, 0.2435, -0.0226073, -0.867178, 0.0203183, -2.55261, -0.00222391, 1.73663, 0.909592, 1, -19.9715, -1, -67, 1, 65, 1, 0, 0, 0, 0, 0, 0, 0
0.192, -0.00184632, -0.256243, 0.00305415, -0.743275, 0.000226653, 0.379064, 0.244428, 0.0226278, -0.875264, -0.0227492, -2.54407, 0.000955559, 1.74335, 0.928522, 0, -18.9715, 0, -68, 0, 64, 2, 0, 0, 0, 0, 0, 0, 0
0.193, -0.00182678, -0.257116, 0.00303409, -0.745822, 0.000225447, 0.380815, 0.245543, 0.0195459, -0.872475, -0.0200294, -2.54653, -0.00120646, 1.75149, 1.11525, -1, -17.9715, 1, -67, 1, 63, 1, 0, 0, 0, 0, 0, 0, 0
0.194, -0.00185303, -0.257986, 0.0030579, -0.748361, 0.000227907, 0.382572, 0.246642, -0.0262561, -0.869758, 0.0238162, -2.53913, 0.00246012, 1.75617, 1.09847, 0, -18.9715, 0, -68, 0, 62, 0, 0, 0, 0, 0, 0, 0, 0
0.195, -0.00186314, -0.258856, 0.00306594, -0.750904, 0.000227099, 0.384335, 0.247552, -0.0101116, -0.869899, 0.00799095, -2.54364, -0.000808703, 1.76332, 0.909987, 1, -17.9715, -1, -67, 1, 61, 1, 0, 0, 0, 0, 0, 0, 0
0.196, -0.00183247, -0.259732, 0.00303535, -0.753439, 0.000230251, 0.386104, 0.24848, 0.0306686, -0.87622, -0.0304865, -2.53481, 0.00315206, 1.76947, 0.928304, 0, -16.9715, 0, -68, 0, 60, 2, 0, 0, 0, 0, 0, 0, 0
0.197, -0.00181233, -0.260603, 0.00301485, -0.755977, 0.000231662, 0.387882, 0.249595, 0.0201453, -0.871661, -0.0205014, -2.53746, 0.00141095, 1.77722, 1.11457, -1, -17.9715, 1, -67, -1, 59, 1, 0, 0, 0, 0, 0, 0, 0
0.198, -0.00184413, -0.261472, 0.00304462, -0.758508, 0.000234465, 0.389664, 0.250691, -0.0318029, -0.86832, 0.0297722, -2.53079, 0.0028039, 1.78208, 1.09584, 0, -16.9715, 0, -66, 0, 58, 0, 0, 0, 0, 0, 0, 0, 0
0.199, -0.00186372, -0.262339, 0.00306257, -0.761043, 0.000232679, 0.391452, 0.251598, -0.0195877, -0.867697, 0.0178747, -2.53537, -0.00178647, 1.78872, 0.907732, 1, -17.9715, -1, -65, 1, 57, 1, 0, 0, 0, 0, 0, 0, 0
0.2, -0.00184446, -0.263214, 0.00304364, -0.76357, 0.000234428, 0.393248, 0.252525, 0.0192568, -0.874498, -0.0188683, -2.52682, 0.00174941, 1.7953, 0.926621, 0, -16.9715, 0, -66, 0, 56, 2, 0, 0, 0, 0, 0, 0, 0
0.201, -0.00183379, -0.264085, 0.00303273, -0.7661, 0.000233928, 0.395051, 0.253638, 0.0106701, -0.87091, -0.0109231, -2.53006, -0.000500907, 1.80369, 1.11345, -1, -17.9715, 1, -65, 1, 55, 1, 0, 0, 0, 0, 0, 0, 0
0.202, -0.00187182, -0.264953, 0.00306822, -0.768623, 0.000236742, 0.39686, 0.254735, -0.0380294, -0.868406, 0.0354816, -2.52354, 0.0028147, 1.80895, 1.09702, 0, -16.9715, 0, -66, 0, 54, 0, 0, 0, 0, 0, 0, 0, 0
0.203, -0.00189318, -0.265822, 0.00308741, -0.771152, 0.000235741, 0.398677, 0.255644, -0.0213602, -0.868817, 0.0191061, -2.5286, -0.00100127, 1.81636, 0.908893, 1, -17.9715, -1, -65, 1, 53, 1, 0, 0, 0, 0, 0, 0, 0
0.204, -0.00187255, -0.266698, 0.00306677, -0.773672, 0.000238236, 0.4005, 0.256572, 0.0206305, -0.876116, -0.0205353, -2.52016, 0.00249555, 1.82333, 0.927629, 0, -16.9715, 0, -64, 0, 52, 2, 0, 0, 0, 0, 0, 0, 0
0.205, -0.001859, -0.267571, 0.0030528, -0.776196, 0.00023869, 0.402332, 0.257686, 0.0135564, -0.872761, -0.0139631, -2.52412, 0.000453731, 1.83215, 1.11417, -1, -15.9715, 1, -63, -1, 51, 1, 0, 0, 0, 0, 0, 0, 0
0.206, -0.00189323, -0.26844, 0.00308499, -0.778713, 0.000240547, 0.404169, 0.258782, -0.0342381, -0.869237, 0.0321879, -2.51682, 0.00185685, 1.83693, 1.09565, 0, -16.9715, 0, -64, 0, 50, 0, 0, 0, 0, 0, 0, 0, 0
0.207, -0.00191218, -0.26931, 0.00310241, -0.781236, 0.000237942, 0.406014, 0.259689, -0.0189457, -0.869521, 0.0173574, -2.52261, -0.00260523, 1.8447, 0.907564, 1, -15.9715, -1, -63, 1, 49, 1, 0, 0, 0, 0, 0, 0, 0
0.208, -0.00189179, -0.270185, 0.0030827, -0.783749, 0.000239133, 0.407865, 0.260616, 0.0203877, -0.875661, -0.0196256, -2.51347, 0.00119077, 1.85114, 0.926348, 0, -14.9715, 0, -64, 0, 48, 2, 0, 0, 0, 0, 0, 0, 0
0.209, -0.00188107, -0.271057, 0.00307207, -0.786266, 0.000238322, 0.409725, 0.261729, 0.010726, -0.871334, -0.0106334, -2.51695, -0.000810747, 1.85981, 1.11301, -1, -15.9715, 1, -63, 1, 47, 1, 0, 0, 0, 0, 0, 0, 0
0.21, -0.00192061, -0.271924, 0.00310926, -0.788776, 0.000241034, 0.41159, 0.262825, -0.0395468, -0.867693, 0.0371882, -2.50984, 0.00271165, 1.86491, 1.0965, 0, -14.9715, 0, -62, 0, 46, 0, 0, 0, 0, 0, 0, 0, 0
0.211, -0.00194492, -0.272792, 0.00313156, -0.791291, 0.000239952, 0.413462, 0.263733, -0.0243037, -0.867549, 0.0222266, -2.5152, -0.00108125, 1.87261, 0.908304, 1, -15.9715, -1, -61, 1, 45, 1, 0, 0, 0, 0, 0, 0, 0
0.212, -0.00192957, -0.273666, 0.00311644, -0.793797, 0.000242312, 0.415342, 0.26466, 0.0153464, -0.874043, -0.0150386, -2.50612, 0.00236, 1.87953, 0.927041, 0, -14.9715, 0, -62, 0, 44, 2, 0, 0, 0, 0, 0, 0, 0
0.213, -0.00192232, -0.274536, 0.00310889, -0.796307, 0.000242467, 0.41723, 0.265774, 0.0072464, -0.870224, -0.00754879, -2.51027, 0.000154911, 1.8887, 1.11361, -1, -15.9715, 1, -61, -1, 43, 1, 0, 0, 0, 0, 0, 0, 0
0.214, -0.0019624, -0.275403, 0.00314685, -0.798811, 0.000243981, 0.419125, 0.266869, -0.0400721, -0.866972, 0.0379569, -2.50344, 0.00151356, 1.8941, 1.09524, 0, -14.9715, 0, -62, 0, 42, 0, 0, 0, 0, 0, 0, 0, 0
0.215, -0.00198551, -0.27627, 0.00316851, -0.801321, 0.000240955, 0.421027, 0.267776, -0.0231128, -0.867229, 0.0215972, -2.5096, -0.00302571, 1.90206, 0.907188, 1, -15.9715, -1, -61, 1, 41, 1, 0, 0, 0, 0, 0, 0, 0
0.216, -0.0019694, -0.277144, 0.00315326, -0.803821, 0.000241753, 0.422936, 0.268703, 0.0161084, -0.873784, -0.0151679, -2.50091, 0.000798341, 1.90913, 0.926027, 0, -14.9715, 0, -60, 0, 40, 2, 0, 0, 0, 0, 0, 0, 0
0.217, -0.00196253, -0.278014, 0.00314667, -0.806327, 0.000240605, 0.424854, 0.269815, 0.00687005, -0.870008, -0.00659461, -2.50587, -0.00114815, 1.91857, 1.11266, -1, -13.9715, 1, -59, 1, 39, 1, 0, 0, 0, 0, 0, 0, 0
0.218, -0.0020054, -0.27888, 0.00318731, -0.808826, 0.000243089, 0.426778, 0.270911, -0.042874, -0.865657, 0.0406361, -2.49832, 0.00248391, 1.92328, 1.09618, 0, -14.9715, 0, -60, 0, 38, 0, 0, 0, 0, 0, 0, 0, 0
0.219, -0.00203289, -0.279746, 0.00321291, -0.811331, 0.000241777, 0.428709, 0.271819, -0.0274887, -0.866135, 0.0255324, -2.50493, -0.00131211, 1.93185, 0.90799, 1, -13.9715, -1, -59, 1, 37, 1, 0, 0, 0, 0, 0, 0, 0
0.22, -0.00202153, -0.280618, 0.00320203, -0.813826, 0.00024384, 0.430648, 0.272746, 0.0113635, -0.871988, -0.0108102, -2.49518, 0.00206287, 1.93849, 0.926731, 0, -12.9715, 0, -58, 0, 36, 2, 0, 0, 0, 0, 0, 0, 0
0.221, -0.00201862, -0.281486, 0.00319897, -0.816325, 0.000243562, 0.432596, 0.273859, 0.00291184, -0.867705, -0.00305823, -2.49927, -0.000278225, 1.94791, 1.11332, 1, -13.9715, -1, -59, -1, 35, 1, 0, 0, 0, 0, 0, 0, 0
0.222, -0.0019951, -0.282356, 0.00317765, -0.818815, 0.000244531, 0.43455, 0.274953, 0.0235162, -0.870356, -0.0213192, -2.4899, 0.000969715, 1.95454, 1.09387, 0, -12.9715, 0, -58, 0, 34, 0, 0, 0, 0, 0, 0, 0, 0
0.223, -0.00199321, -0.28322, 0.00317679, -0.821311, 0.000240853, 0.436513, 0.275858, 0.00189112, -0.864064, -0.000904884, -2.49598, -0.0036785, 1.9628, 0.904626, 1, -13.9715, -1, -57, 1, 33, 1, 0, 0, 0, 0, 0, 0, 0
0.224, -0.00198108, -0.284086, 0.00316706, -0.823799, 0.000241153, 0.438482, 0.276781, 0.0121271, -0.866068, -0.0098308, -2.48824, 0.00029977, 1.96868, 0.922837, 0, -12.9715, 0, -58, 0, 32, 2, 0, 0, 0, 0, 0, 0, 0
0.225, -0.0019949, -0.284947, 0.00318159, -0.826294, 0.000239037, 0.440459, 0.27789, -0.013814, -0.860493, 0.0144959, -2.49512, -0.00211616, 1.97722, 1.10962, 1, -13.9715, -1, -57, 1, 31, 1, 0, 0, 0, 0, 0, 0, 0
0.226, -0.00199619, -0.28581, 0.00318475, -0.828781, 0.000239237, 0.442442, 0.278983, -0.00128891, -0.863676, 0.00310838, -2.48711, 0.000200737, 1.98326, 1.09285, 0, -12.9715, 0, -56, 0, 30, 0, 0, 0, 0, 0, 0, 0, 0
0.227, -0.00201528, -0.28667, 0.00320389, -0.831275, 0.000233847, 0.444434, 0.279888, -0.0190891, -0.859625, 0.0191564, -2.49346, -0.00539011, 1.99206, 0.904614, 1, -13.9715, -1, -55, 1, 29, 1, 0, 0, 0, 0, 0, 0, 0
0.228, -0.00201164, -0.287534, 0.00320184, -0.833759, 0.000230565, 0.446433, 0.280812, 0.00363349, -0.864383, -0.00203136, -2.48454, -0.00328224, 1.99882, 0.923815, 0, -12.9715, 0, -56, 0, 28, 2, 0, 0, 0, 0, 0, 0, 0
0.229, -0.00201732, -0.288396, 0.00320807, -0.83625, 0.000223936, 0.448442, 0.281923, -0.00567978, -0.861433, 0.00625017, -2.49037, -0.00662873, 2.00867, 1.11119, 1, -13.9715, -1, -55, 1, 27, 1, 0, 0, 0, 0, 0, 0, 0
0.23, -0.00199667, -0.289262, 0.0031899, -0.838731, 0.000220021, 0.450458, 0.283017, 0.020656, -0.86601, -0.0181325, -2.4813, -0.00391461, 2.01569, 1.09444, 0, -12.9715, 0, -56, 0, 26, 0, 0, 0, 0, 0, 0, 0, 0
0.231, -0.00198688, -0.290124, 0.00318151, -0.841219, 0.000211925, 0.452483, 0.283923, 0.00978486, -0.861991, -0.00836302, -2.48785, -0.00809679, 2.02517, 0.905644, -1, -11.9715, 1, -55, 1, 25, 1, 0, 0, 0, 0, 0, 0, 0
0.232, -0.00202237, -0.290982, 0.00321578, -0.843699, 0.000207771, 0.454513, 0.284848, -0.0354871, -0.857831, 0.0343379, -2.48007, -0.00415388, 2.02991, 0.925219, 0, -12.9715, 0, -54, 0, 24, 2, 0, 0, 0, 0, 0, 0, 0
0.233, -0.00203593, -0.291841, 0.00322912, -0.846186, 0.000201759, 0.456552, 0.285961, -0.0135599, -0.859524, 0.0133107, -2.48729, -0.00601162, 2.0398, 1.11297, 1, -11.9715, -1, -53, 1, 23, 1, 0, 0, 0, 0, 0, 0, 0
0.234, -0.00200696, -0.292706, 0.0032028, -0.848663, 0.000199053, 0.458599, 0.287057, 0.028969, -0.865276, -0.0262404, -2.47655, -0.0027062, 2.04685, 1.09625, 0, -12.9715, 0, -54, 0, 22, 0, 0, 0, 0, 0, 0, 0, 0
0.235, -0.00198358, -0.293568, 0.00318135, -0.851145, 0.000192588, 0.460657, 0.287964, 0.0233774, -0.861472, -0.0214345, -2.48253, -0.00646553, 2.05738, 0.907121, -1, -11.9715, 1, -53, 1, 21, 1, 0, 0, 0, 0, 0, 0, 0
0.236, -0.00200682, -0.294424, 0.00320402, -0.85362, 0.000190788, 0.462719, 0.288891, -0.0232432, -0.856373, 0.022704, -2.47471, -0.00179978, 2.06242, 0.926106, 0, -12.9715, 0, -54, 0, 20, 2, 0, 0, 0, 0, 0, 0, 0
0.237, -0.00201435, -0.295281, 0.00321189, -0.856103, 0.000187936, 0.464791, 0.290004, -0.00752277, -0.856962, 0.00782976, -2.48314, -0.00285164, 2.07228, 1.1132, 1, -11.9715, -1, -53, 1, 19, 1, 0, 0, 0, 0, 0, 0, 0
0.238, -0.00198861, -0.296143, 0.00318911, -0.858577, 0.000188843, 0.46687, 0.2911, 0.0257353, -0.861539, -0.0227415, -2.47353, 0.000906076, 2.07887, 1.09602, 0, -10.9715, 0, -52, 0, 18, 0, 0, 0, 0, 0, 0, 0, 0
0.239, -0.00197638, -0.296999, 0.00317863, -0.861056, 0.000185699, 0.468959, 0.292007, 0.0122357, -0.85633, -0.0105144, -2.47969, -0.00314403, 2.08851, 0.906769, -1, -11.9715, 1, -51, 1, 17, 1, 0, 0, 0, 0, 0, 0, 0
0.24, -0.00201453, -0.29785, 0.00321547, -0.863528, 0.000186351, 0.471052, 0.292933, -0.0381511, -0.851392, 0.0368508, -2.47201, 0.000652758, 2.09361, 0.92601, 0, -12.9715, 0, -52, 0, 16, 2, 0, 0, 0, 0, 0, 0, 0
0.241, -0.00203482, -0.298704, 0.00323525, -0.866009, 0.000184822, 0.473156, 0.294046, -0.0202931, -0.853178, 0.0197102, -2.48062, -0.0015286, 2.10391, 1.11349, 1, -11.9715, -1, -51, 1, 15, 1, 0, 0, 0, 0, 0, 0, 0
0.242, -0.00201645, -0.299563, 0.00321907, -0.868479, 0.000186178, 0.475267, 0.295143, 0.0183751, -0.859091, -0.0161187, -2.4705, 0.00135549, 2.11097, 1.09667, 0, -10.9715, 0, -50, 0, 14, 0, 0, 0, 0, 0, 0, 0, 0
0.243, -0.00200467, -0.300418, 0.00320854, -0.870956, 0.000183088, 0.477389, 0.29605, 0.0117781, -0.855128, -0.010541, -2.47648, -0.00308995, 2.12129, 0.907599, -1, -11.9715, 1, -49, 1, 13, 1, 0, 0, 0, 0, 0, 0, 0
0.244, -0.00203763, -0.301269, 0.00324, -0.873424, 0.000183974, 0.479515, 0.296977, -0.0329582, -0.850749, 0.0314634, -2.46844, 0.000886149, 2.12679, 0.926799, 0, -10.9715, 0, -50, 0, 12, 2, 0, 0, 0, 0, 0, 0, 0
0.245, -0.00205034, -0.30212, 0.0032523, -0.875901, 0.000183157, 0.481652, 0.298091, -0.0127109, -0.851751, 0.0122576, -2.47629, -0.000817172, 2.13686, 1.11401, 1, -11.9715, -1, -49, 1, 11, 1, 0, 0, 0, 0, 0, 0, 0
0.246, -0.00202667, -0.302977, 0.003231, -0.878366, 0.000185876, 0.483795, 0.299188, 0.0236664, -0.85683, -0.0212127, -2.4654, 0.00271893, 2.14245, 1.09668, 0, -10.9715, 0, -50, 0, 10, 0, 0, 0, 0, 0, 0, 0, 0
0.247, -0.00201366, -0.303829, 0.00321934, -0.880837, 0.000184674, 0.485944, 0.300095, 0.013007, -0.851796, -0.0116661, -2.47064, -0.00120218, 2.14949, 0.906961, -1, -11.9715, 1, -49, 1, 9, 1, 0, 0, 0, 0, 0, 0, 0
0.248, -0.00205006, -0.304675, 0.0032541, -0.883298, 0.000187728, 0.488094, 0.30102, -0.0363931, -0.846227, 0.0347619, -2.46088, 0.00305416, 2.14978, 0.925558, 0, -10.9715, 0, -48, 0, 8, 2, 0, 0, 0, 0, 0, 0, 0
0.249, -0.00206993, -0.305522, 0.00327325, -0.885764, 0.000188894, 0.490247, 0.302133, -0.0198787, -0.846517, 0.0190832, -2.4665, 0.00116642, 2.15332, 1.11224, 1, -11.9715, -1, -47, -1, 7, 1, 0, 0, 0, 0, 0, 0, 0
0.25, -0.00205409, -0.306373, 0.00325984, -0.888217, 0.000190827, 0.4924, 0.303225, 0.0158468, -0.851379, -0.0133513, -2.45273, 0.00193317, 2.1526, 1.09292, 0, -10.9715, 0, -48, 0, 6, 0, 0, 0, 0, 0, 0, 0, 0
0.251, -0.00204696, -0.30722, 0.00325425, -0.890672, 0.000187261, 0.494553, 0.304129, 0.00713188, -0.846576, -0.00560265, -2.45539, -0.00356614, 2.15361, 0.903308, -1, -11.9715, -1, -47, 1, 5, 1, 0, 0, 0, 0, 0, 0, 0
0.252, -0.00205361, -0.308065, 0.00326153, -0.893114, 0.000188013, 0.496702, 0.30505, -0.00665819, -0.844894, 0.00731115, -2.44194, 0.000751414, 2.14873, 0.921378, 0, -10.9715, -2, -48, 0, 4, 2, 0, 0, 0, 0, 0, 0, 0
0.253, -0.00202973, -0.30891, 0.00324017, -0.895559, 0.00018709, 0.49885, 0.306157, 0.0238815, -0.845511, -0.0214125, -2.44434, -0.000922771, 2.14733, 1.10681, -1, -9.97148, -1, -47, 1, 3, 1, 0, 0, 0, 0, 0, 0, 0
0.254, -0.00203545, -0.309751, 0.00324645, -0.897987, 0.000189726, 0.500988, 0.307246, -0.00571302, -0.84054, 0.0062745, -2.42885, 0.00263591, 2.13878, 1.08891, 0, -10.9715, -2, -48, 0, 2, 0, 0, 0, 0, 0, 0, 0, 0
0.255, -0.00201926, -0.310591, 0.00323176, -0.900418, 0.000188074, 0.503122, 0.308145, 0.0161886, -0.839969, -0.0147705, -2.43063, -0.001652, 2.13411, 0.898701, -1, -9.97148, -1, -49, 1, 1, 1, 0, 0, 0, 0, 0, 0, 0
0.256, -0.00203382, -0.311426, 0.00324557, -0.902832, 0.000189643, 0.505245, 0.309061, -0.0145591, -0.835322, 0.0138336, -2.41442, 0.00156914, 2.12268, 0.916632, 0, -10.9715, -2, -50, 0, 0, 2, 0, 0, 0, 0, 0, 0, 0
0.257, -0.00202323, -0.312262, 0.00323555, -0.905248, 0.000188265, 0.507361, 0.310164, 0.0105831, -0.836004, -0.0100879, -2.41537, -0.0013777, 2.11586, 1.10234, -1, -11.9715, -1, -49, 1, 1, 1, 0, 0, 0, 0, 0, 0, 0
0.258, -0.00203809, -0.313096, 0.00324889, -0.907649, 0.000189457, 0.509467, 0.311249, -0.014854, -0.833577, 0.0134043, -2.40076, 0.00119186, 2.10594, 1.08522, 0, -10.9715, -2, -50, 0, 2, 0, 0, 0, 0, 0, 0, 0, 0
0.259, -0.00202234, -0.313931, 0.00323309, -0.910053, 0.000185863, 0.51157, 0.312145, 0.0157424, -0.835573, -0.0158457, -2.4044, -0.00359414, 2.10279, 0.895979, -1, -9.97148, -1, -49, 1, 1, 1, 0, 0, 0, 0, 0, 0, 0
0.26, -0.00202968, -0.314764, 0.00323855, -0.912442, 0.00018562, 0.513662, 0.313059, -0.00733397, -0.832732, 0.0055164, -2.38941, -0.000242501, 2.09276, 0.914576, 0, -10.9715, -2, -50, 0, 2, 2, 0, 0, 0, 0, 0, 0, 0
0.261, -0.00200736, -0.315599, 0.00321613, -0.914836, 0.000182935, 0.515753, 0.31416, 0.0223197, -0.834903, -0.0224676, -2.39365, -0.00268549, 2.09071, 1.10092, -1, -9.97148, -1, -49, 1, 1, 1, 0, 0, 0, 0, 0, 0, 0
0.262, -0.00201026, -0.31643, 0.0032171, -0.917215, 0.000183666, 0.517834, 0.315244, -0.00290578, -0.831698, 0.00101152, -2.37942, 0.000731252, 2.08098, 1.08384, 0, -10.9715, 0, -50, 0, 2, 0, 0, 0, 0, 0, 0, 0, 0
0.263, -0.00201714, -0.31726, 0.00322119, -0.919601, 0.000180029, 0.519912, 0.316139, -0.00687272, -0.829938, 0.00412243, -2.38564, -0.00363751, 2.07808, 0.895268, 1, -9.97148, -1, -49, 1, 3, 1, 0, 0, 0, 0, 0, 0, 0
0.264, -0.00200018, -0.318094, 0.0032039, -0.921974, 0.000179856, 0.521985, 0.317054, 0.016953, -0.833941, -0.0172964, -2.37326, -0.000172984, 2.07272, 0.914145, 0, -10.9715, 0, -50, 0, 2, 2, 0, 0, 0, 0, 0, 0, 0
0.265, -0.00199576, -0.318925, 0.00319792, -0.924354, 0.000177241, 0.524056, 0.318154, 0.00441983, -0.831111, -0.00598521, -2.37945, -0.00261426, 2.07085, 1.1009, -1, -9.97148, -1, -49, 1, 3, 1, 0, 0, 0, 0, 0, 0, 0
0.266, -0.0020039, -0.319756, 0.00320357, -0.926722, 0.000178203, 0.526121, 0.319239, -0.00813957, -0.830929, 0.00570006, -2.36836, 0.00096185, 2.06483, 1.08452, 0, -10.9715, -2, -50, 0, 2, 0, 0, 0, 0, 0, 0, 0, 0
0.267, -0.00197764, -0.320591, 0.00317668, -0.929097, 0.000175003, 0.528184, 0.320134, 0.0262639, -0.834577, -0.0269409, -2.37465, -0.00320021, 2.06346, 0.895352, -1, -9.97148, -1, -49, 1, 3, 1, 0, 0, 0, 0, 0, 0, 0
0.268, -0.00197532, -0.321423, 0.00317193, -0.93146, 0.000175518, 0.530242, 0.321049, 0.00231882, -0.832495, -0.00472236, -2.36316, 0.000515262, 2.05804, 0.914236, 0, -8.97148, 0, -48, 0, 2, 2, 0, 0, 0, 0, 0, 0, 0
0.269, -0.0019771, -0.322254, 0.00317074, -0.93383, 0.000173568, 0.532298, 0.32215, -0.00178326, -0.830654, -0.00118545, -2.36973, -0.00195072, 2.05586, 1.10119, 1, -9.97148, -1, -47, 1, 3, 1, 0, 0, 0, 0, 0, 0, 0
0.27, -0.00195678, -0.323089, 0.00314976, -0.936188, 0.000174686, 0.534349, 0.323234, 0.0203233, -0.834859, -0.0209847, -2.35803, 0.00111829, 2.05129, 1.08437, 0, -8.97148, 0, -48, 0, 2, 0, 0, 0, 0, 0, 0, 0, 0
0.271, -0.00194915, -0.32392, 0.00313989, -0.938552, 0.000171301, 0.536399, 0.32413, 0.00762675, -0.831445, -0.00987776, -2.36459, -0.00338497, 2.04923, 0.895476, -1, -9.97148, 1, -47, 1, 1, 1, 0, 0, 0, 0, 0, 0, 0
0.272, -0.00198461, -0.324748, 0.00316983, -0.940906, 0.000171518, 0.538438, 0.325045, -0.0354594, -0.827787, 0.0299952, -2.3533, 0.000217265, 2.03995, 0.915091, 0, -8.97148, 0, -48, 0, 2, 0, 0, 0, 0, 0, 0, 0, 0
0.273, -0.00199325, -0.32558, 0.00317426, -0.943266, 0.000167207, 0.540477, 0.325801, -0.00863853, -0.831644, 0.00437279, -2.36064, -0.00431109, 2.03841, 0.756678, 1, -7.97148, -1, -47, 1, 3, 1, 0, 0, 0, 0, 0, 0, 0
0.274, -0.00196158, -0.326418, 0.0031418, -0.945613, 0.000166102, 0.542512, 0.326601, 0.0316688, -0.837965, -0.0323785, -2.34678, -0.00110544, 2.03485, 0.800032, 0, -8.97148, 0, -48, 0, 2, 2, 0, 0, 0, 0, 0, 0, 0
0.275, -0.00193501, -0.327253, 0.00311385, -0.947966, 0.000162975, 0.544547, 0.327608, 0.0265742, -0.835347, -0.0279273, -2.35253, -0.00312712, 2.03486, 1.00649, -1, -7.97148, 1, -47, 1, 1, 1, 0, 0, 0, 0, 0, 0, 0
0.276, -0.00195234, -0.328083, 0.00312694, -0.950306, 0.000164469, 0.546572, 0.328614, -0.017335, -0.829647, 0.0131099, -2.34045, 0.00149447, 2.02556, 1.00644, 0, -8.97148, 0, -48, 0, 2, 0, 0, 0, 0, 0, 0, 0, 0
0.277, -0.00195122, -0.328914, 0.00312267, -0.952655, 0.000162984, 0.548596, 0.329446, 0.00112527, -0.831712, -0.00428989, -2.34945, -0.00148554, 2.02429, 0.83157, 1, -7.97148, -1, -47, 1, 3, 1, 0, 0, 0, 0, 0, 0, 0
0.278, -0.00192202, -0.329751, 0.00309335, -0.954993, 0.000165797, 0.550617, 0.330307, 0.0292019, -0.836159, -0.0292903, -2.33763, 0.00281301, 2.02035, 0.861382, 0, -6.97148, 0, -46, 0, 2, 2, 0, 0, 0, 0, 0, 0, 0
0.279, -0.00190866, -0.330582, 0.00307855, -0.957338, 0.000166619, 0.552636, 0.331364, 0.0133552, -0.831712, -0.0148295, -2.34457, 0.000822531, 2.01944, 1.05697, -1, -7.97148, 1, -45, -1, 1, 1, 0, 0, 0, 0, 0, 0, 0
0.28, -0.00194309, -0.331409, 0.00310834, -0.959671, 0.000168919, 0.554647, 0.332411, -0.0344286, -0.82637, 0.0298001, -2.33335, 0.00230024, 2.01032, 1.04668, 0, -8.97148, 0, -46, 0, 2, 0, 0, 0, 0, 0, 0, 0, 0
0.281, -0.00195597, -0.332239, 0.00311777, -0.962014, 0.000165831, 0.556656, 0.333276, -0.0128797, -0.830075, 0.00936394, -2.34286, -0.00308844, 2.00957, 0.86515, 1, -7.97148, -1, -45, 1, 1, 1, 0, 0, 0, 0, 0, 0, 0
0.282, -0.00193385, -0.333075, 0.00309534, -0.964343, 0.000165941, 0.558659, 0.334165, 0.0221165, -0.836115, -0.0223728, -2.32901, 0.000109957, 2.00306, 0.889259, 0, -6.97148, 0, -46, 0, 2, 2, 0, 0, 0, 0, 0, 0, 0
0.283, -0.00191885, -0.333908, 0.0030791, -0.966679, 0.000163425, 0.560662, 0.335246, 0.0150016, -0.833478, -0.016241, -2.33574, -0.00251614, 2.00332, 1.08035, -1, -5.97148, 1, -45, 1, 1, 1, 0, 0, 0, 0, 0, 0, 0
0.284, -0.00194619, -0.334736, 0.00310203, -0.969002, 0.00016467, 0.562657, 0.336313, -0.0273419, -0.827997, 0.0229271, -2.32324, 0.0012454, 1.99436, 1.06778, 0, -6.97148, 0, -46, 0, 2, 0, 0, 0, 0, 0, 0, 0, 0
0.285, -0.00195049, -0.335567, 0.00310314, -0.971334, 0.000162025, 0.564651, 0.337196, -0.0042926, -0.83091, 0.00106933, -2.33201, -0.00264518, 1.99404, 0.882565, 1, -5.97148, -1, -45, 1, 1, 1, 0, 0, 0, 0, 0, 0, 0
0.286, -0.00192255, -0.336403, 0.00307527, -0.973651, 0.000163192, 0.566638, 0.338099, 0.0279373, -0.8353, -0.027796, -2.31751, 0.00116752, 1.98746, 0.903367, 0, -6.97148, 0, -44, 0, 2, 0, 0, 0, 0, 0, 0, 0, 0
0.287, -0.00190624, -0.337234, 0.00305766, -0.975977, 0.000160567, 0.568626, 0.338845, 0.016309, -0.83166, -0.0176142, -2.32547, -0.00262574, 1.98775, 0.745534, -1, -5.97148, 1, -43, 1, 1, 1, 0, 0, 0, 0, 0, 0, 0
0.288, -0.00193691, -0.33806, 0.00308362, -0.978291, 0.000162671, 0.570605, 0.339636, -0.0306664, -0.825588, 0.0259645, -2.31431, 0.00210412, 1.97886, 0.79069, 0, -6.97148, 0, -44, 0, 2, 2, 0, 0, 0, 0, 0, 0, 0
0.289, -0.00194875, -0.338888, 0.00309211, -0.980616, 0.000162967, 0.572584, 0.340635, -0.0118411, -0.828653, 0.00844394, -2.3246, 0.00029596, 1.97913, 0.999475, 1, -5.97148, -1, -43, -1, 1, 1, 0, 0, 0, 0, 0, 0, 0
0.29, -0.00192962, -0.339722, 0.00307315, -0.982927, 0.000164198, 0.574557, 0.341633, 0.0191317, -0.833437, -0.0189198, -2.31084, 0.0012311, 1.97273, 0.998436, 0, -4.97148, 0, -44, 0, 2, 0, 0, 0, 0, 0, 0, 0, 0
0.291, -0.00192056, -0.340552, 0.00306297, -0.985245, 0.000159931, 0.57653, 0.342458, 0.00905467, -0.829769, -0.0101895, -2.31838, -0.00426702, 1.97279, 0.82425, -1, -5.97148, 1, -43, 1, 1, 1, 0, 0, 0, 0, 0, 0, 0
0.292, -0.00195484, -0.341376, 0.00309266, -0.987552, 0.000159902, 0.578494, 0.343314, -0.0342821, -0.824662, 0.0296816, -2.30696, -2.85132e-05, 1.96464, 0.856019, 0, -6.97148, 0, -44, 0, 2, 2, 0, 0, 0, 0, 0, 0, 0
0.293, -0.00196547, -0.342205, 0.00310034, -0.989869, 0.000157843, 0.58046, 0.344367, -0.0106301, -0.828785, 0.00763913, -2.31742, -0.00205942, 1.96572, 1.05363, 1, -5.97148, -1, -43, 1, 1, 1, 0, 0, 0, 0, 0, 0, 0
0.294, -0.001944, -0.343039, 0.00307925, -0.992173, 0.000159092, 0.58242, 0.345412, 0.0214792, -0.833832, -0.0210245, -2.30384, 0.0012491, 1.95976, 1.04482, 0, -4.97148, 0, -42, 0, 2, 0, 0, 0, 0, 0, 0, 0, 0
0.295, -0.00193307, -0.343869, 0.00306729, -0.994485, 0.000156203, 0.58438, 0.346275, 0.0109268, -0.830145, -0.0119651, -2.31215, -0.0028889, 1.96031, 0.862584, -1, -5.97148, 1, -41, 1, 1, 1, 0, 0, 0, 0, 0, 0, 0
0.296, -0.00196738, -0.344694, 0.00309703, -0.996787, 0.000157856, 0.586332, 0.347162, -0.0343109, -0.824648, 0.0297427, -2.30141, 0.00165262, 1.95222, 0.887557, 0, -4.97148, 0, -42, 0, 2, 0, 0, 0, 0, 0, 0, 0, 0
0.297, -0.00198047, -0.345521, 0.00310681, -0.999099, 0.000155668, 0.588285, 0.347896, -0.0130898, -0.827576, 0.00974027, -2.31187, -0.00218798, 1.95244, 0.733475, 1, -5.97148, -1, -41, 1, 1, 1, 0, 0, 0, 0, 0, 0, 0
0.298, -0.00196401, -0.346354, 0.00309019, -1.0014, 0.000157107, 0.590232, 0.348676, 0.0164579, -0.832595, -0.0165744, -2.29859, 0.0014388, 1.94684, 0.780065, 0, -4.97148, 0, -42, 0, 2, 2, 0, 0, 0, 0, 0, 0, 0
0.299, -0.00195832, -0.347183, 0.00308318, -1.0037, 0.000156114, 0.59218, 0.349666, 0.00569205, -0.829454, -0.00702854, -2.30745, -0.000992255, 1.94823, 0.989823, -1, -3.97148, 1, -41, 1, 1, 1, 0, 0, 0, 0, 0, 0, 0
0.3, -0.00199655, -0.348007, 0.00311655, -1.006, 0.000159036, 0.59412, 0.350659, -0.0382329, -0.82347, 0.0333741, -2.29584, 0.00292178, 1.93977, 0.992849, 0, -4.97148, 0, -40, 0, 2, 0, 0, 0, 0, 0, 0, 0, 0
0.301, -0.00201186, -0.348834, 0.00312829, -1.00831, 0.000157843, 0.59606, 0.351479, -0.0153071, -0.826971, 0.0116997, -2.30645, -0.00119347, 1.94067, 0.820613, 1, -3.97148, -1, -39, 1, 1, 1, 0, 0, 0, 0, 0, 0, 0
0.302, -0.00199621, -0.349665, 0.00311239, -1.0106, 0.000160113, 0.597995, 0.352331, 0.0156489, -0.831412, -0.0158458, -2.29213, 0.00227037, 1.93488, 0.852151, 0, -4.97148, 0, -40, 0, 2, 2, 0, 0, 0, 0, 0, 0, 0
0.303, -0.00199055, -0.350494, 0.00310534, -1.0129, 0.000160035, 0.599932, 0.353381, 0.00566426, -0.828438, -0.00705516, -2.30127, -7.78583e-05, 1.93689, 1.04939, -1, -3.97148, 1, -39, -1, 1, 1, 0, 0, 0, 0, 0, 0, 0
0.304, -0.00202696, -0.351316, 0.00313736, -1.01519, 0.000161936, 0.601861, 0.354421, -0.0364148, -0.822546, 0.0320343, -2.28994, 0.0019012, 1.92875, 1.04043, 0, -4.97148, 0, -40, 0, 0, 0, 0, 0, 0, 0, 0, 0, 0
0.305, -0.00204089, -0.352142, 0.00314853, -1.01749, 0.000159144, 0.603787, 0.355281, -0.0139307, -0.825659, 0.0111277, -2.29976, -0.00279229, 1.92641, 0.859368, 1, -3.97148, -1, -39, 1, 1, 1, 0, 0, 0, 0, 0, 0, 0
0.306, -0.00202638, -0.352972, 0.00313449, -1.01978, 0.000160141, 0.605708, 0.356165, 0.014514, -0.829861, -0.0139933, -2.28611, 0.000996873, 1.9208, 0.884085, 0, -2.97148, 0, -38, 0, 0, 0, 0, 0, 0, 0, 0, 0, 0
0.307, -0.00202366, -0.353797, 0.00313056, -1.02207, 0.000157085, 0.607627, 0.356894, 0.00271687, -0.8255, -0.00394356, -2.29347, -0.00305593, 1.91866, 0.729314, 1, -3.97148, -1, -37, 1, 1, 1, 0, 0, 0, 0, 0, 0, 0
0.308, -0.0020115, -0.354623, 0.00311916, -1.02435, 0.000158146, 0.609539, 0.35767, 0.0121568, -0.826219, -0.0114443, -2.28079, 0.00106062, 1.91252, 0.775964, 0, -2.97148, 0, -38, 0, 0.693441, 2, 0, 0, 0, 0, 0, 0, 0
0.309, -0.00201959, -0.355445, 0.00312601, -1.02664, 0.000157169, 0.61145, 0.358656, -0.00808622, -0.821381, 0.00682723, -2.29087, -0.000976734, 1.9113, 0.985989, 1, -3.97148, -1, -37, 1, 1.69344, 1, 0, 0, 0, 0, 0, 0, 0
0.31, -0.00202031, -0.356268, 0.00312709, -1.02892, 0.000159418, 0.613356, 0.359644, -0.000724189, -0.822837, 0.00103752, -2.28001, 0.00224874, 1.90595, 0.988492, 0, -2.97148, 0, -38, 0, 0.693441, 0, 0, 0, 0, 0, 0, 0, 0
0.311, -0.00203734, -0.357087, 0.00314197, -1.03121, 0.000156597, 0.615261, 0.36046, -0.0170239, -0.8194, 0.0148881, -2.29027, -0.00282117, 1.90453, 0.815996, 1, -3.97148, -1, -37, 1, -0.306559, 1, 0, 0, 0, 0, 0, 0, 0
0.312, -0.0020395, -0.357909, 0.00314385, -1.03349, 0.000156219, 0.617157, 0.361308, -0.00216145, -0.822353, 0.001876, -2.27695, -0.000377943, 1.89643, 0.847967, 0, -2.97148, 0, -36, 0, 0.693441, 0, 0, 0, 0, 0, 0, 0, 0
0.313, -0.00204952, -0.35873, 0.00315172, -1.03577, 0.000150175, 0.619053, 0.362008, -0.0100225, -0.820445, 0.00787357, -2.28637, -0.00604401, 1.89593, 0.700019, 1, -3.97148, -1, -35, 1, 1.69344, 1, 0, 0, 0, 0, 0, 0, 0
0.314, -0.00203914, -0.359554, 0.00314167, -1.03805, 0.000146926, 0.620945, 0.362761, 0.0103785, -0.824277, -0.0100301, -2.27409, -0.00324848, 1.89186, 0.752423, 0, -2.97148, 0, -36, 0, 0.693441, 2, 0, 0, 0, 0, 0, 0, 0
0.315, -0.00203636, -0.360376, 0.00313807, -1.04033, 0.000140956, 0.622837, 0.363728, 0.00278826, -0.821985, -0.00359624, -2.28372, -0.0059705, 1.89198, 0.96691, 1, -1.97148, -1, -35, 1, -0.306559, 1, 0, 0, 0, 0, 0, 0, 0
0.316, -0.00201812, -0.361199, 0.00312147, -1.0426, 0.000138417, 0.624721, 0.3647, 0.0182353, -0.823248, -0.0166094, -2.26941, -0.00253852, 1.88367, 0.972433, 0, -2.97148, 0, -36, 0, 0.693441, 0, 0, 0, 0, 0, 0, 0, 0
0.317, -0.00201376, -0.362019, 0.00311675, -1.04488, 0.000131842, 0.626604, 0.365503, 0.00435921, -0.819604, -0.00471903, -2.27988, -0.00657569, 1.88333, 0.802481, -1, -1.97148, -1, -35, 1, -0.306559, 1, 0, 0, 0, 0, 0, 0, 0
0.318, -0.00202345, -0.362836, 0.00312496, -1.04715, 0.000129714, 0.628478, 0.36634, -0.00969251, -0.817432, 0.00825449, -2.26727, -0.00212767, 1.87413, 0.837026, 0, -2.97148, -2, -36, 0, 0.693441, 0, 0, 0, 0, 0, 0, 0, 0
0.319, -0.00200127, -0.363658, 0.00310365, -1.04943, 0.00012334, 0.630353, 0.36703, 0.0221817, -0.821374, -0.0213705, -2.27746, -0.00637362, 1.87496, 0.690226, -1, -1.97148, -1, -35, 1, -0.306559, 1, 0, 0, 0, 0, 0, 0, 0
0.32, -0.00200449, -0.364475, 0.00310531, -1.05169, 0.000120893, 0.63222, 0.367774, -0.00321739, -0.817064, 0.00169762, -2.26379, -0.00244759, 1.86639, 0.743929, 0, -2.97148, 0, -34, 0, 0.693441, 2, 0, 0, 0, 0, 0, 0, 0
0.321, -0.00200774, -0.365291, 0.00310665, -1.05397, 0.000115853, 0.634087, 0.368734, -0.0032487, -0.816645, 0.00135998, -2.27498, -0.00503945, 1.86699, 0.96003, 1, -1.97148, -1, -33, 1, -0.306559, 1, 0, 0, 0, 0, 0, 0, 0
0.322, -0.00199145, -0.366111, 0.00309128, -1.05623, 0.000114084, 0.635946, 0.369701, 0.0162924, -0.819179, -0.0153903, -2.26118, -0.00176919, 1.85924, 0.966888, 0, -0.971482, 0, -34, 0, 0.693441, 0, 0, 0, 0, 0, 0, 0, 0
0.323, -0.001986, -0.366926, 0.00308487, -1.0585, 0.000107861, 0.637805, 0.370499, 0.00544113, -0.815636, -0.00641016, -2.27116, -0.00622293, 1.85912, 0.798059, -1, -1.97148, 1, -33, 1, -0.306559, 1, 0, 0, 0, 0, 0, 0, 0
0.324, -0.00201888, -0.367737, 0.00311308, -1.06076, 0.000105658, 0.639655, 0.371333, -0.0328791, -0.810522, 0.0282646, -2.25914, -0.00220309, 1.84997, 0.834285, 0, -2.97148, 0, -34, 0, 0.693441, 0, 0, 0, 0, 0, 0, 0, 0
0.325, -0.00202196, -0.368553, 0.0031136, -1.06303, 9.90254e-05, 0.641506, 0.372022, -0.00307513, -0.815862, 0.000495626, -2.27075, -0.00663255, 1.85108, 0.689377, 1, -1.97148, -1, -33, 1, 1.69344, 1, 0, 0, 0, 0, 0, 0, 0
0.326, -0.00199286, -0.369373, 0.00308587, -1.06528, 9.60493e-05, 0.643354, 0.372766, 0.0291021, -0.820765, -0.0276785, -2.2573, -0.00297613, 1.84806, 0.743659, 0, -0.971482, 0, -32, 0, 0.693441, 2, 0, 0, 0, 0, 0, 0, 0
0.327, -0.00197276, -0.37019, 0.00306616, -1.06755, 9.13067e-05, 0.645203, 0.373725, 0.0200964, -0.816891, -0.0197205, -2.26671, -0.00474277, 1.84915, 0.959343, -1, -1.97148, 1, -31, 1, -0.306559, 1, 0, 0, 0, 0, 0, 0, 0
0.328, -0.00199625, -0.371, 0.00308629, -1.06981, 9.15333e-05, 0.647043, 0.374693, -0.0234876, -0.80996, 0.0201546, -2.25511, 0.000226566, 1.83988, 0.967193, 0, -0.971482, 0, -32, 0, 0.693441, 0, 0, 0, 0, 0, 0, 0, 0
0.329, -0.00199911, -0.371813, 0.00308743, -1.07207, 8.83428e-05, 0.648883, 0.375492, -0.00286269, -0.812615, 0.00111867, -2.2673, -0.0031905, 1.84003, 0.798936, 1, -1.97148, -1, -31, 1, -0.306559, 1, 0, 0, 0, 0, 0, 0, 0
0.33, -0.00197933, -0.372629, 0.00306905, -1.07433, 8.91354e-05, 0.650716, 0.376325, 0.0197834, -0.815858, -0.0183698, -2.25334, 0.00079269, 1.83328, 0.833688, 0, -0.971482, 0, -32, 0, 0.693441, 0, 0, 0, 0, 0, 0, 0, 0
0.331, -0.00197222, -0.373441, 0.00306137, -1.07659, 8.56808e-05, 0.65255, 0.377013, 0.00710512, -0.811938, -0.00769671, -2.26386, -0.00345482, 1.83392, 0.687757, -1, -1.97148, 1, -31, 1, -0.306559, 1, 0, 0, 0, 0, 0, 0, 0
0.332, -0.00200667, -0.374247, 0.00309129, -1.07884, 8.65969e-05, 0.654375, 0.377756, -0.0344519, -0.806169, 0.0299378, -2.25248, 0.000916334, 1.82491, 0.742903, 0, -0.971482, 0, -30, 0, 0.693441, 2, 0, 0, 0, 0, 0, 0, 0
0.333, -0.00201529, -0.375058, 0.00309765, -1.08111, 8.49146e-05, 0.656201, 0.378716, -0.0086145, -0.810664, 0.00631389, -2.26454, -0.00168226, 1.8262, 0.959844, 1, -1.97148, -1, -29, 1, -0.306559, 1, 0, 0, 0, 0, 0, 0, 0
0.334, -0.00199588, -0.375873, 0.00307945, -1.08336, 8.61788e-05, 0.658021, 0.379683, 0.0194046, -0.815075, -0.01815, -2.24992, 0.00126421, 1.82004, 0.966882, 0, -0.971482, 0, -30, 0, 0.693441, 0, 0, 0, 0, 0, 0, 0, 0
0.335, -0.00198493, -0.376684, 0.00306812, -1.08562, 8.31147e-05, 0.659843, 0.380481, 0.01095, -0.811795, -0.0113369, -2.26028, -0.00306433, 1.82127, 0.797936, -1, 0.0285177, 1, -29, 1, -0.306559, 1, 0, 0, 0, 0, 0, 0, 0
0.336, -0.00201437, -0.377489, 0.00309345, -1.08787, 8.48007e-05, 0.661655, 0.381314, -0.0294316, -0.804975, 0.0253377, -2.24788, 0.00168611, 1.81194, 0.833952, 0, -0.971482, 0, -28, 0, 0.693441, 0, 0, 0, 0, 0, 0, 0, 0
0.337, -0.00201984, -0.378298, 0.00309668, -1.09013, 8.27073e-05, 0.663468, 0.382003, -0.00547174, -0.808776, 0.00320236, -2.26037, -0.00209339, 1.81315, 0.688865, 1, 0.0285177, -1, -27, 1, -0.306559, 1, 0, 0, 0, 0, 0, 0, 0
0.338, -0.00200093, -0.37911, 0.00307894, -1.09237, 8.44697e-05, 0.665274, 0.382746, 0.0189054, -0.811605, -0.0177087, -2.24533, 0.00176241, 1.80647, 0.742687, 0, -0.971482, 0, -28, 0, 0.693441, 2, 0, 0, 0, 0, 0, 0, 0
0.339, -0.0019941, -0.379918, 0.00307176, -1.09463, 8.40596e-05, 0.667083, 0.383705, 0.00683142, -0.808016, -0.00719719, -2.25638, -0.00041031, 1.8084, 0.958527, -1, 0.0285177, 1, -27, 1, -0.306559, 1, 0, 0, 0, 0, 0, 0, 0
0.34, -0.00202917, -0.380719, 0.00310254, -1.09687, 8.79765e-05, 0.668882, 0.384671, -0.0350663, -0.801054, 0.0307958, -2.24447, 0.00391705, 1.79905, 0.966694, 0, -0.971482, 0, -28, 0, 0.693441, 0, 0, 0, 0, 0, 0, 0, 0
0.341, -0.00204029, -0.381524, 0.00311118, -1.09913, 8.78026e-05, 0.670682, 0.38547, -0.0111217, -0.805276, 0.00861233, -2.25761, -0.000173845, 1.80046, 0.79869, 1, 0.0285177, -1, -27, -0.176035, -0.306559, 1, 0, 0, 0, 0, 0, 0, 0
0.342, -0.00202556, -0.382333, 0.0030976, -1.10137, 8.9808e-05, 0.672476, 0.386303, 0.0147293, -0.80867, -0.0135519, -2.24268, 0.00200554, 1.79402, 0.832691, 0, 1.02852, 0, -26, -1.17604, 0.693441, 0, 0, 0, 0, 0, 0, 0, 0
0.343, -0.00201952, -0.383138, 0.00309128, -1.10363, 8.55891e-05, 0.674272, 0.386989, 0.00603468, -0.804801, -0.00633087, -2.25287, -0.00421898, 1.79531, 0.686037, -1, 0.0285177, 1, -25, -0.176035, -0.306559, 1, 0, 0, 0, 0, 0, 0, 0
0.344, -0.00205171, -0.383936, 0.00311973, -1.10587, 8.42729e-05, 0.676058, 0.387729, -0.0321892, -0.798427, 0.0284587, -2.24051, -0.00131609, 1.78655, 0.74049, 0, -0.971482, 0, -26, 0.823965, 0.693441, 2, 0, 0, 0, 0, 0, 0, 0
0.345, -0.00205869, -0.384739, 0.00312545, -1.10812, 8.14634e-05, 0.677847, 0.388687, -0.00697743, -0.802978, 0.00570599, -2.25381, -0.00280965, 1.78886, 0.958213, 1, 0.0285177, -1, -25, -0.176035, -0.306559, 1, 0, 0, 0, 0, 0, 0, 0
0.346, -0.00204136, -0.385545, 0.00311048, -1.11036, 8.14611e-05, 0.679629, 0.389652, 0.0173352, -0.805956, -0.0149467, -2.23916, -2.24471e-06, 1.78255, 0.964516, 0, 1.02852, 0, -26, 0.823965, 0.693441, 0, 0, 0, 0, 0, 0, 0, 0
0.347, -0.0020367, -0.386346, 0.00310617, -1.11261, 7.7898e-05, 0.681413, 0.390448, 0.00465526, -0.801423, -0.00432634, -2.25024, -0.00356349, 1.7838, 0.796449, -1, 0.0285177, -1, -25, -0.176035, -0.306559, -1, 0, 0, 0, 0, 0, 0, 0
0.348, -0.00204857, -0.387144, 0.0031167, -1.11485, 7.66684e-05, 0.683189, 0.390933, -0.0118702, -0.797976, 0.0105393, -2.23782, -0.00122936, 1.77531, 0.484923, 0, 1.02852, -2, -24, 0.823965, 0.693441, 0, 0, 0, 0, 0, 0, 0, 0
0.349, -0.0020342, -0.387945, 0.00310335, -1.1171, 7.23385e-05, 0.684966, 0.391333, 0.0143675, -0.800726, -0.0134195, -2.25004, -0.00433015, 1.77716, 0.399475, -1, 0.0285177, -1, -23, -0.176035, -0.306559, 1, 0, 0, 0, 0, 0, 0, 0
0.35, -0.00204926, -0.388741, 0.00311635, -1.11933, 7.14133e-05, 0.686735, 0.391835, -0.0150591, -0.795546, 0.013027, -2.23718, -0.000924797, 1.76944, 0.502582, 0, 1.02852, -2, -24, 0.823965, 0.693441, 2, 0, 0, 0, 0, 0, 0, 0
0.351, -0.00204016, -0.389539, 0.00310756, -1.12158, 6.8045e-05, 0.688507, 0.392596, 0.00910299, -0.798376, -0.00885211, -2.24932, -0.00336848, 1.77181, 0.760187, -1, 0.0285177, -1, -23, -0.176035, -0.306559, 3, 0, 0, 0, 0, 0, 0, 0
0.352, -0.00205754, -0.390333, 0.0031227, -1.12382, 6.8863e-05, 0.690272, 0.393743, -0.0173852, -0.794091, 0.0151803, -2.23632, 0.00081823, 1.76461, 1.14706, 0, 1.02852, -2, -22, 0.823965, -1.30656, 2, 0, 0, 0, 0, 0, 0, 0
0.353, -0.00204724, -0.39113, 0.00311276, -1.12607, 6.63892e-05, 0.692035, 0.395035, 0.010301, -0.797305, -0.00999143, -2.24669, -0.00247392, 1.76378, 1.2928, -1, 0.0285177, -1, -21, -0.176035, -0.306559, 1, 0, 0, 0, 0, 0, 0, 0
0.354, -0.00206067, -0.391924, 0.00312376, -1.1283, 6.60455e-05, 0.693792, 0.396277, -0.0134271, -0.793217, 0.0110564, -2.23349, -0.000343615, 1.75637, 1.24144, 0, 1.02852, -2, -22, 0.823965, 0.693441, 0, 0, 0, 0, 0, 0, 0, 0
0.355, -0.00204518, -0.39272, 0.00310827, -1.13055, 6.12513e-05, 0.69555, 0.397302, 0.0154942, -0.796663, -0.0155452, -2.24566, -0.00479431, 1.75871, 1.02516, -1, 2.02852, -1, -21, -0.176035, -0.306559, -1, 0, 0, 0, 0, 0, 0, 0
0.356, -0.0020542, -0.393512, 0.00311418, -1.13278, 5.77393e-05, 0.697301, 0.397976, -0.00902575, -0.791223, 0.00594998, -2.23172, -0.00351194, 1.7503, 0.674058, 0, 1.02852, -2, -22, 0.823965, -1.30656, 0, 0, 0, 0, 0, 0, 0, 0
0.357, -0.00203649, -0.394306, 0.00309564, -1.13502, 5.06716e-05, 0.69905, 0.398532, 0.0177171, -0.794016, -0.0185903, -2.24245, -0.00706787, 1.74957, 0.555522, -1, 2.02852, -1, -21, -0.176035, -0.306559, 1, 0, 0, 0, 0, 0, 0, 0
0.358, -0.00204464, -0.395094, 0.00310026, -1.13725, 4.68948e-05, 0.700792, 0.399163, -0.00815375, -0.788546, 0.00466101, -2.22872, -0.00377662, 1.74181, 0.631677, 0, 1.02852, -2, -20, 0.823965, 0.693441, 2, 0, 0, 0, 0, 0, 0, 0
0.359, -0.00202689, -0.395886, 0.00308173, -1.13949, 4.10801e-05, 0.702537, 0.40003, 0.0177534, -0.791772, -0.01859, -2.24147, -0.00581491, 1.74504, 0.866862, -1, 2.02852, -1, -19, -0.176035, -0.306559, 1, 0, 0, 0, 0, 0, 0, 0
0.36, -0.00203556, -0.396672, 0.00308679, -1.14172, 3.82285e-05, 0.704274, 0.400919, -0.00867751, -0.786212, 0.00511875, -2.22799, -0.00285143, 1.73715, 0.889124, 0, 1.02852, -2, -20, 0.823965, -1.30656, 0, 0, 0, 0, 0, 0, 0, 0
0.361, -0.0020184, -0.397461, 0.00306827, -1.14396, 3.1403e-05, 0.706011, 0.401653, 0.0171656, -0.789135, -0.0185815, -2.23941, -0.00682586, 1.73654, 0.733343, -1, 2.02852, -1, -19, -0.176035, -0.306559, 1, 0, 0, 0, 0, 0, 0, 0
0.362, -0.00202688, -0.398245, 0.00307252, -1.14618, 2.76609e-05, 0.70774, 0.402431, -0.00848491, -0.783933, 0.00431054, -2.22599, -0.00374178, 1.72889, 0.778797, 0, 1.02852, -2, -20, 0.823965, 0.693441, 0, 0, 0, 0, 0, 0, 0, 0
0.363, -0.00200822, -0.399033, 0.00305203, -1.14842, 1.98318e-05, 0.709472, 0.403074, 0.0186663, -0.787572, -0.0205453, -2.23911, -0.00782959, 1.73195, 0.642537, -1, 2.02852, -1, -19, -0.176035, -0.306559, 1, 0, 0, 0, 0, 0, 0, 0
0.364, -0.00201433, -0.399815, 0.00305355, -1.15065, 1.52116e-05, 0.711196, 0.403778, -0.00611466, -0.7825, 0.00157336, -2.22564, -0.00461995, 1.72436, 0.703725, 0, 1.02852, 0, -18, 0.823965, -1.30656, 2, 0, 0, 0, 0, 0, 0, 0
0.365, -0.00201685, -0.400598, 0.00305147, -1.15289, 8.2393e-06, 0.71292, 0.404705, -0.00252424, -0.782633, -0.00204874, -2.23801, -0.00697296, 1.72384, 0.92701, 1, 2.02852, -1, -17, -0.176035, -0.306559, 1, 0, 0, 0, 0, 0, 0, 0
0.366, -0.00200103, -0.401382, 0.00303423, -1.15511, 3.44998e-06, 0.714637, 0.405643, 0.0158265, -0.784666, -0.0172522, -2.22376, -0.00478977, 1.7175, 0.938742, 0, 1.02852, 0, -18, 0.823965, -1.30656, 0, 0, 0, 0, 0, 0, 0, 0
0.367, -0.00199347, -0.402164, 0.00302331, -1.15735, -5.27349e-06, 0.716354, 0.406418, 0.00755442, -0.781889, -0.010917, -2.23547, -0.0087198, 1.71678, 0.774975, -1, 2.02852, 1, -17, 1.82396, -0.306559, -1, 0, 0, 0, 0, 0, 0, 0
0.368, -0.00202049, -0.40294, 0.00304255, -1.15957, -1.00521e-05, 0.718062, 0.406888, -0.0270203, -0.775955, 0.0192923, -2.22342, -0.00477966, 1.70806, 0.469818, 0, 1.02852, 0, -16, 0.823965, 0.693441, 0, 0, 0, 0, 0, 0, 0, 0
0.369, -0.00201813, -0.403722, 0.00303491, -1.16181, -1.73485e-05, 0.719774, 0.407277, 0.00236174, -0.781718, -0.00765661, -2.23768, -0.00729691, 1.71159, 0.388624, 1, 2.02852, 1, -15, -0.176035, -0.306559, 1, 0, 0, 0, 0, 0, 0, 0
0.37, -0.00201376, -0.404503, 0.00302646, -1.16403, -2.1828e-05, 0.721479, 0.407771, 0.00437431, -0.781331, -0.00841287, -2.2229, -0.00447993, 1.70548, 0.494438, 0, 1.02852, 0, -16, 0.823965, -1.30656, 2, 0, 0, 0, 0, 0, 0, 0
0.371, -0.00199758, -0.405286, 0.00300751, -1.16626, -2.77494e-05, 0.723185, 0.408525, 0.0161756, -0.782136, -0.0189445, -2.23419, -0.00592122, 1.70612, 0.753764, -1, 2.02852, 1, -15, -0.176035, -0.306559, 1, 0, 0, 0, 0, 0, 0, 0
0.372, -0.0020128, -0.406061, 0.003017, -1.16849, -2.95354e-05, 0.724884, 0.409322, -0.0152143, -0.775966, 0.00949157, -2.22137, -0.00178617, 1.69838, 0.796553, 0, 1.02852, 0, -16, 0.823965, -1.30656, 0, 0, 0, 0, 0, 0, 0, 0
0.373, -0.00200515, -0.406841, 0.00300605, -1.17072, -3.38634e-05, 0.726582, 0.409979, 0.00764516, -0.779264, -0.0109534, -2.23448, -0.00432753, 1.69827, 0.657812, -1, 2.02852, 1, -15, -0.176035, -0.306559, 1, 0, 0, 0, 0, 0, 0, 0
0.374, -0.00202598, -0.407615, 0.00302073, -1.17294, -3.38351e-05, 0.728273, 0.410697, -0.0208294, -0.774106, 0.0146688, -2.2218, 2.78419e-05, 1.69083, 0.717406, 0, 1.02852, 0, -14, 0.823965, -1.30656, 2, 0, 0, 0, 0, 0, 0, 0
0.375, -0.00202278, -0.408393, 0.00301416, -1.17518, -3.52158e-05, 0.729964, 0.411635, 0.00320115, -0.777962, -0.0065686, -2.23443, -0.00138056, 1.69155, 0.93847, 1, 2.02852, 1, -13, -0.176035, -0.306559, 1, 0, 0, 0, 0, 0, 0, 0
0.376, -0.0020258, -0.409168, 0.0030143, -1.1774, -3.36556e-05, 0.731649, 0.412584, -0.00301923, -0.775644, 0.000158043, -2.22033, 0.00156019, 1.68502, 0.948828, 0, 3.02852, 0, -14, 0.823965, -1.30656, 0, 0, 0, 0, 0, 0, 0, 0
0.377, -0.00202329, -0.409943, 0.00300901, -1.17963, -3.52777e-05, 0.733334, 0.413368, 0.00250434, -0.774598, -0.00528933, -2.23217, -0.00162165, 1.68432, 0.783498, 1, 2.02852, -1, -13, -0.176035, -0.306559, -1, 0, 0, 0, 0, 0, 0, 0
0.378, -0.00201147, -0.410717, 0.00299645, -1.18185, -3.5095e-05, 0.735012, 0.413841, 0.0118218, -0.774423, -0.0125873, -2.21829, 0.000182642, 1.67774, 0.473708, 0, 3.02852, 0, -14, 0.823965, -1.30656, 0, 0, 0, 0, 0, 0, 0, 0
0.379, -0.00201615, -0.411487, 0.00299767, -1.18408, -3.78665e-05, 0.736688, 0.414232, -0.00467336, -0.769497, 0.00120511, -2.23103, -0.00277124, 1.67659, 0.390306, 1, 2.02852, -1, -13, -0.176035, -0.306559, 1, 0, 0, 0, 0, 0, 0, 0
0.38, -0.00201634, -0.412256, 0.00299617, -1.1863, -3.76055e-05, 0.738358, 0.414726, -0.000190595, -0.769399, -0.00152552, -2.21837, 0.00026028, 1.67001, 0.494736, 0, 3.02852, 0, -12, 0.823965, -1.30656, 2, 0, 0, 0, 0, 0, 0, 0
0.381, -0.00202922, -0.413023, 0.00300513, -1.18853, -4.0072e-05, 0.740028, 0.41548, -0.0128837, -0.766335, 0.00896285, -2.23151, -0.00246663, 1.66946, 0.754019, 1, 2.02852, -1, -11, -0.176035, -0.306559, 1, 0, 0, 0, 0, 0, 0, 0
0.382, -0.00203039, -0.413791, 0.00300454, -1.19075, -4.1174e-05, 0.741691, 0.416276, -0.00117073, -0.76813, -0.00059835, -2.21808, -0.00110211, 1.66335, 0.795774, 0, 3.02852, 0, -12, 0.823965, -1.30656, 0, 0, 0, 0, 0, 0, 0, 0
0.383, -0.00203668, -0.414557, 0.00300703, -1.19298, -4.74127e-05, 0.743354, 0.416933, -0.00628925, -0.766332, 0.0024897, -2.23022, -0.00623867, 1.66298, 0.657084, 1, 2.02852, -1, -11, -0.176035, -0.306559, 1, 0, 0, 0, 0, 0, 0, 0
0.384, -0.00202722, -0.415326, 0.00299651, -1.19519, -5.15927e-05, 0.745011, 0.417649, 0.00946053, -0.768472, -0.0105139, -2.21606, -0.00417997, 1.65736, 0.715599, 0, 3.02852, 0, -10, 0.823965, -1.30656, 2, 0, 0, 0, 0, 0, 0, 0
0.385, -0.0020236, -0.416092, 0.00299055, -1.19742, -5.82395e-05, 0.746669, 0.418585, 0.00362488, -0.766089, -0.00596242, -2.22828, -0.0066469, 1.65761, 0.93659, 1, 2.02852, -1, -9, -0.176035, -0.306559, 1, 0, 0, 0, 0, 0, 0, 0
0.386, -0.0020088, -0.416859, 0.00297605, -1.19964, -6.22395e-05, 0.748321, 0.419532, 0.0147987, -0.766842, -0.0145163, -2.21472, -0.00400001, 1.65166, 0.946445, 0, 3.02852, 0, -10, 0.823965, -1.30656, 0, 0, 0, 0, 0, 0, 0, 0
0.387, -0.00200496, -0.417622, 0.00297033, -1.20186, -6.97677e-05, 0.749972, 0.420313, 0.00383752, -0.763206, -0.00571525, -2.22798, -0.00752813, 1.65102, 0.781332, 1, 2.02852, -1, -9, -0.176035, -0.306559, -1, 0, 0, 0, 0, 0, 0, 0
0.388, -0.00199346, -0.418385, 0.00295872, -1.20408, -7.57912e-05, 0.751616, 0.420785, 0.0115019, -0.763442, -0.0116436, -2.21522, -0.00602354, 1.64434, 0.472089, 0, 3.02852, 0, -8, 0.823965, -1.30656, 0, 0, 0, 0, 0, 0, 0, 0
0.389, -0.0019933, -0.419145, 0.00295608, -1.20631, -8.54786e-05, 0.75326, 0.421174, 0.000152599, -0.760268, -0.00261995, -2.2289, -0.00968734, 1.64377, 0.389186, 1, 2.02852, -1, -7, 1.82396, -0.306559, 1, 0, 0, 0, 0, 0, 0, 0
0.39, -0.001985, -0.419907, 0.00294718, -1.20852, -9.00606e-05, 0.754897, 0.42167, 0.00830153, -0.761284, -0.00891536, -2.21594, -0.00458205, 1.63778, 0.495413, 0, 3.02852, 0, -8, 0.823965, -1.30656, 2, 0, 0, 0, 0, 0, 0, 0
0.391, -0.00198514, -0.420666, 0.00294473, -1.21075, -9.64524e-05, 0.756536, 0.422425, -0.000140385, -0.759118, -0.00243764, -2.22917, -0.00639188, 1.63814, 0.75477, 1, 2.02852, -1, -7, -0.176035, -0.306559, 1, 0, 0, 0, 0, 0, 0, 0
0.392, -0.0019726, -0.421427, 0.00293216, -1.21297, -0.000101131, 0.758168, 0.423221, 0.0125452, -0.760819, -0.0125684, -2.21556, -0.0046788, 1.63238, 0.796269, 0, 3.02852, 0, -8, 0.823965, -1.30656, 0, 0, 0, 0, 0, 0, 0, 0
0.393, -0.00196606, -0.422185, 0.00292373, -1.2152, -0.000110265, 0.7598, 0.423878, 0.00653575, -0.758613, -0.00841964, -2.22855, -0.00913382, 1.63232, 0.657325, -1, 4.02852, 1, -7, 1.82396, -0.306559, 1, 0, 0, 0, 0, 0, 0, 0
0.394, -0.00199003, -0.422938, 0.00294183, -1.21741, -0.000114092, 0.761425, 0.424597, -0.0239714, -0.753065, 0.0181458, -2.21571, -0.00382694, 1.62447, 0.718728, 0, 3.02852, 0, -6, 0.823965, -1.30656, 0, 0, 0, 0, 0, 0, 0, 0
0.395, -0.00198201, -0.423697, 0.00293096, -1.21964, -0.000121336, 0.763051, 0.425191, 0.00802789, -0.759017, -0.0108873, -2.22857, -0.00724367, 1.62579, 0.594054, -1, 4.02852, 1, -5, -0.176035, -0.306559, 1, 0, 0, 0, 0, 0, 0, 0
0.396, -0.00199137, -0.424453, 0.0029354, -1.22185, -0.000125405, 0.76467, 0.425856, -0.00936724, -0.755272, 0.00444003, -2.21347, -0.00406961, 1.6194, 0.664908, 0, 3.02852, 0, -6, 0.823965, -1.30656, 2, 0, 0, 0, 0, 0, 0, 0
0.397, -0.00196983, -0.425212, 0.00291296, -1.22408, -0.000130906, 0.766292, 0.426751, 0.0215474, -0.759638, -0.022401, -2.22518, -0.00550035, 1.62157, 0.894919, -1, 4.02852, 1, -5, -0.176035, -0.306559, 1, 0, 0, 0, 0, 0, 0, 0
0.398, -0.00197439, -0.425965, 0.00291425, -1.22629, -0.000131668, 0.767906, 0.427664, -0.00456773, -0.752986, 0.00129927, -2.21077, -0.00076237, 1.6146, 0.913175, 0, 3.02852, 0, -4, 0.823965, -1.30656, 0, 0, 0, 0, 0, 0, 0, 0
0.399, -0.00195913, -0.42672, 0.00289841, -1.22851, -0.000134025, 0.769522, 0.428418, 0.0152642, -0.754772, -0.0158179, -2.22447, -0.00235725, 1.61543, 0.753943, -1, 4.02852, 1, -3, -0.176035, -0.306559, -1, 0, 0, 0, 0, 0, 0, 0
0.4, -0.00197802, -0.427467, 0.00291282, -1.23073, -0.000132614, 0.771129, 0.428869, -0.0188884, -0.746975, 0.0144055, -2.21185, 0.00141143, 1.6073, 0.450656, 0, 3.02852, 0, -4, 0.823965, -1.30656, 0, 0, 0, 0, 0, 0, 0, 0
0.401, -0.00197889, -0.428217, 0.00291131, -1.23295, -0.000133288, 0.772737, 0.42924, -0.000872498, -0.749513, -0.00150946, -2.2264, -0.000673849, 1.60806, 0.371755, 1, 4.02852, -1, -3, -0.176035, -0.306559, 1, 0, 0, 0, 0, 0, 0, 0
0.402, -0.00196991, -0.428966, 0.00290267, -1.23516, -0.000130462, 0.774339, 0.42972, 0.00898236, -0.749305, -0.00866172, -2.21175, 0.0028259, 1.60236, 0.479321, 0, 3.02852, 0, -4, -1.17604, -1.30656, 2, 0, 0, 0, 0, 0, 0, 0
0.403, -0.00197439, -0.429711, 0.00290545, -1.23739, -0.000131728, 0.775942, 0.430459, -0.00447785, -0.745367, 0.0027727, -2.22541, -0.00126626, 1.60314, 0.739542, 1, 4.02852, -1, -3, -0.176035, -2.30656, 1, 0, 0, 0, 0, 0, 0, 0
0.404, -0.00197436, -0.430455, 0.0029058, -1.2396, -0.000131407, 0.777535, 0.431242, 3.02894e-05, -0.744132, 0.000321377, -2.21034, 0.000321258, 1.59306, 0.782964, 0, 3.02852, 0, -2, 0.823965, -1.30656, 0, 0, 0, 0, 0, 0, 0, 0
0.405, -0.00198547, -0.431197, 0.00291454, -1.24183, -0.000135365, 0.779129, 0.431889, -0.0111129, -0.741609, 0.00874127, -2.22506, -0.00395872, 1.59332, 0.646369, 1, 4.02852, -1, -1, -0.176035, -0.306559, 1, 0, 0, 0, 0, 0, 0, 0
0.406, -0.00198644, -0.43194, 0.00291527, -1.24404, -0.000137288, 0.780716, 0.432595, -0.000968864, -0.742582, 0.000722878, -2.21133, -0.00192305, 1.58727, 0.706856, 0, 3.02852, 0, -2, 0.823965, -1.30656, 0, 0, 0, 0, 0, 0, 0, 0
0.407, -0.00199239, -0.432681, 0.00291884, -1.24626, -0.000144132, 0.782304, 0.433179, -0.0059503, -0.741354, 0.00356546, -2.22518, -0.00684337, 1.58807, 0.583549, 1, 4.02852, -1, -1, -0.176035, -0.306559, 1, 0, 0, 0, 0, 0, 0, 0
0.408, -0.00198462, -0.433424, 0.00291141, -1.24847, -0.000148987, 0.783887, 0.433834, 0.00776332, -0.742684, -0.00743157, -2.21063, -0.00485535, 1.58239, 0.654825, 0, 3.02852, 0, 0, 0.823965, -1.30656, 2, 0, 0, 0, 0, 0, 0, 0
0.409, -0.00198193, -0.434165, 0.00290768, -1.2507, -0.000156367, 0.78547, 0.43472, 0.00269645, -0.741044, -0.00372926, -2.22436, -0.00737984, 1.58382, 0.886339, 1, 4.02852, -1, 1, -0.176035, -2.30656, 1, 0, 0, 0, 0, 0, 0, 0
0.41, -0.00196902, -0.434906, 0.00289637, -1.25291, -0.000161307, 0.787045, 0.435625, 0.0129096, -0.740889, -0.0113201, -2.2086, -0.00494039, 1.57447, 0.904554, 0, 3.02852, 0, 0, 0.823965, -1.30656, 0, 0, 0, 0, 0, 0, 0, 0
0.411, -0.00196512, -0.435644, 0.00289189, -1.25513, -0.000169926, 0.78862, 0.436371, 0.00390017, -0.738191, -0.00447952, -2.22316, -0.00861846, 1.57517, 0.746739, 1, 4.02852, -1, 1, 1.82396, -0.306559, -1, 0, 0, 0, 0, 0, 0, 0
0.412, -0.00195531, -0.436381, 0.00288302, -1.25734, -0.000174827, 0.790188, 0.436816, 0.00981045, -0.737599, -0.00889739, -2.20976, -0.00490088, 1.56848, 0.444958, 0, 3.02852, 0, 2, 0.823965, -1.30656, 0, 0, 0, 0, 0, 0, 0, 0
0.413, -0.00195568, -0.437116, 0.00288168, -1.25956, -0.000182216, 0.791757, 0.437183, -0.000367915, -0.734718, -0.00133555, -2.22388, -0.00738935, 1.56875, 0.36697, 1, 4.02852, -1, 3, -0.176035, -0.306559, 1, 0, 0, 0, 0, 0, 0, 0
0.414, -0.00194736, -0.43785, 0.00287403, -1.26177, -0.00018711, 0.793319, 0.437659, 0.00831466, -0.734447, -0.00765536, -2.20878, -0.00489443, 1.56192, 0.475591, 0, 3.02852, 0, 2, 0.823965, -1.30656, 2, 0, 0, 0, 0, 0, 0, 0
0.415, -0.00194614, -0.438583, 0.0028718, -1.26399, -0.000194686, 0.794882, 0.438397, 0.00121953, -0.732478, -0.00221792, -2.22264, -0.00757596, 1.56286, 0.738143, 1, 4.02852, -1, 3, -0.176035, -0.306559, 1, 0, 0, 0, 0, 0, 0, 0
0.416, -0.00193401, -0.439316, 0.00286124, -1.2662, -0.000200359, 0.796438, 0.43918, 0.0121271, -0.732555, -0.0105669, -2.20706, -0.0056723, 1.55619, 0.782538, 0, 5.02852, 0, 2, 0.823965, -1.30656, 0, 0, 0, 0, 0, 0, 0, 0
0.417, -0.00192784, -0.440045, 0.00285459, -1.26842, -0.000210331, 0.797994, 0.439826, 0.00617122, -0.729613, -0.00663663, -2.2198, -0.0099724, 1.55628, 0.646072, -1, 4.02852, 1, 3, 1.82396, -0.306559, 1, 0, 0, 0, 0, 0, 0, 0
0.418, -0.00195053, -0.440769, 0.00287272, -1.27063, -0.000214905, 0.799543, 0.440535, -0.0226859, -0.723635, 0.0181671, -2.20547, -0.00457433, 1.54823, 0.709376, 0, 3.02852, 0, 4, 0.823965, -1.30656, 0, 0, 0, 0, 0, 0, 0, 0
0.419, -0.00194067, -0.441497, 0.00286184, -1.27284, -0.000222907, 0.801091, 0.441121, 0.00985554, -0.728566, -0.0108824, -2.21598, -0.00800133, 1.54853, 0.586177, -1, 4.02852, 1, 5, 1.82396, -0.306559, 1, 0, 0, 0, 0, 0, 0, 0
0.42, -0.00195057, -0.44222, 0.00286816, -1.27504, -0.000225179, 0.802631, 0.441781, -0.00989627, -0.722413, 0.00632901, -2.19705, -0.0022727, 1.5399, 0.659599, 0, 3.02852, 0, 4, 0.823965, -1.30656, 2, 0, 0, 0, 0, 0, 0, 0
0.421, -0.00193259, -0.442945, 0.0028505, -1.27725, -0.000227994, 0.804172, 0.442671, 0.0179797, -0.725373, -0.0176397, -2.20699, -0.00281468, 1.54081, 0.89054, -1, 4.02852, 1, 5, -0.176035, -0.306559, 1, 0, 0, 0, 0, 0, 0, 0
0.422, -0.0019417, -0.443662, 0.00285712, -1.27944, -0.00022635, 0.805703, 0.443581, -0.00910902, -0.716709, 0.00663149, -2.18868, 0.00164426, 1.53148, 0.909512, 0, 3.02852, 0, 4, 0.823965, 0.693441, 0, 0, 0, 0, 0, 0, 0, 0
0.423, -0.00193083, -0.44438, 0.00284666, -1.28164, -0.000226818, 0.807238, 0.444332, 0.0108661, -0.718027, -0.010448, -2.20177, -0.000467966, 1.53442, 0.751342, -1, 4.02852, 1, 5, -0.176035, -0.306559, -1, 0, 0, 0, 0, 0, 0, 0
0.424, -0.00195216, -0.445089, 0.00286426, -1.28382, -0.000223821, 0.808762, 0.444781, -0.021326, -0.708776, 0.0175941, -2.18489, 0.00299685, 1.52412, 0.448613, 0, 3.02852, 0, 4, -1.17604, 0.693441, 0, 0, 0, 0, 0, 0, 0, 0
0.425, -0.0019521, -0.4458, 0.00286328, -1.28602, -0.00022557, 0.810289, 0.44515, 5.47911e-05, -0.711301, -0.000985365, -2.19854, -0.00174957, 1.52728, 0.369159, 1, 4.02852, -1, 5, -0.176035, -0.306559, 1, 0, 0, 0, 0, 0, 0, 0
0.426, -0.0019427, -0.446509, 0.00285591, -1.2882, -0.000224642, 0.811809, 0.445627, 0.00940732, -0.709178, -0.00738061, -2.17959, 0.000928829, 1.51946, 0.476963, 0, 3.02852, 0, 4, 0.823965, 0.693441, 2, 0, 0, 0, 0, 0, 0, 0
0.427, -0.0019469, -0.447213, 0.00285989, -1.29039, -0.000225273, 0.813331, 0.446366, -0.00420131, -0.70412, 0.00395941, -2.1926, -0.000631642, 1.52229, 0.739361, 1, 2.02852, -1, 5, -0.176035, -0.306559, 1, 0, 0, 0, 0, 0, 0, 0
0.428, -0.00194869, -0.447915, 0.0028632, -1.29257, -0.000222973, 0.814845, 0.44715, -0.0017871, -0.70188, 0.00328049, -2.17621, 0.00230007, 1.51391, 0.783294, 0, 3.02852, 0, 4, -1.17604, 0.693441, 0, 0, 0, 0, 0, 0, 0, 0
0.429, -0.00195978, -0.448614, 0.00287343, -1.29476, -0.000227137, 0.816361, 0.447795, -0.0110899, -0.6987, 0.0102249, -2.19087, -0.00416418, 1.51594, 0.645759, 1, 2.02852, -1, 5, -0.176035, -0.306559, 1, 0, 0, 0, 0, 0, 0, 0
0.43, -0.00196254, -0.449312, 0.00287751, -1.29693, -0.000230041, 0.817869, 0.448502, -0.00276601, -0.698588, 0.0040738, -2.17439, -0.00290378, 1.508, 0.706116, 0, 3.02852, 0, 6, 0.823965, 0.693441, 0, 0, 0, 0, 0, 0, 0, 0
0.431, -0.00196906, -0.450008, 0.00288329, -1.29912, -0.000237973, 0.819378, 0.449085, -0.00652292, -0.695408, 0.00577226, -2.18487, -0.00793144, 1.50908, 0.583389, 1, 2.02852, -1, 7, 1.82396, -0.306559, 1, 0, 0, 0, 0, 0, 0, 0
0.432, -0.00196481, -0.450702, 0.00288055, -1.30128, -0.000241542, 0.820878, 0.449741, 0.00425124, -0.694272, -0.00273107, -2.16447, -0.00356978, 1.50001, 0.655954, 0, 3.02852, 0, 6, 0.823965, 0.693441, 2, 0, 0, 0, 0, 0, 0, 0
0.433, -0.00196483, -0.451393, 0.00288057, -1.30346, -0.000247159, 0.82238, 0.450629, -1.4162e-05, -0.690811, 9.94467e-06, -2.17497, -0.00561654, 1.50179, 0.887869, 1, 2.02852, -1, 7, -0.176035, -0.306559, 1, 0, 0, 0, 0, 0, 0, 0
0.434, -0.0019554, -0.452082, 0.00287369, -1.30561, -0.000250648, 0.823872, 0.451535, 0.00943121, -0.688872, -0.0068819, -2.1548, -0.00348897, 1.49247, 0.90616, 0, 3.02852, 0, 6, 0.823965, 0.693441, 0, 0, 0, 0, 0, 0, 0, 0
0.435, -0.00195295, -0.452766, 0.00287181, -1.30778, -0.000258135, 0.825366, 0.452283, 0.00244741, -0.684408, -0.00188701, -2.16596, -0.00748738, 1.49337, 0.748542, 1, 2.02852, -1, 7, -0.176035, -0.306559, -1, 0, 0, 0, 0, 0, 0, 0
0.436, -0.00194379, -0.453448, 0.00286496, -1.30993, -0.000264212, 0.826849, 0.452728, 0.00915937, -0.681883, -0.00686305, -2.14644, -0.00607647, 1.4834, 0.445042, 0, 1.02852, 0, 6, 0.823965, 0.693441, 0, 0, 0, 0, 0, 0, 0, 0
0.437, -0.00194251, -0.454126, 0.00286382, -1.31208, -0.000273566, 0.828334, 0.453096, 0.00128185, -0.678405, -0.00113646, -2.159, -0.00935424, 1.48487, 0.36724, 1, 2.02852, -1, 7, 1.82396, -0.306559, 1, 0, 0, 0, 0, 0, 0, 0
0.438, -0.00193584, -0.454803, 0.00285932, -1.31422, -0.000277779, 0.829809, 0.453573, 0.00666863, -0.676178, -0.00451402, -2.14003, -0.00421287, 1.47529, 0.477054, 0, 1.02852, 0, 6, 0.823965, 0.693441, 2, 0, 0, 0, 0, 0, 0, 0
0.439, -0.00193672, -0.455476, 0.00286039, -1.31638, -0.000283764, 0.831287, 0.454313, -0.000881797, -0.67334, 0.00106901, -2.15272, -0.00598513, 1.47748, 0.739874, 1, 2.02852, -1, 7, -0.176035, -0.306559, 1, 0, 0, 0, 0, 0, 0, 0
0.44, -0.00192868, -0.456148, 0.00285492, -1.31851, -0.000288045, 0.832755, 0.455097, 0.00804356, -0.671916, -0.00546995, -2.13334, -0.00428109, 1.46809, 0.783919, 0, 1.02852, 0, 6, 0.823965, 0.693441, 0, 0, 0, 0, 0, 0, 0, 0
0.441, -0.00192512, -0.456817, 0.00285197, -1.32066, -0.000296854, 0.834225, 0.455744, 0.00355918, -0.669436, -0.00295126, -2.14565, -0.00880912, 1.46991, 0.647552, 1, 2.02852, -1, 7, 1.82396, -0.306559, 1, 0, 0, 0, 0, 0, 0, 0
0.442, -0.00191349, -0.457485, 0.00284318, -1.32278, -0.00030086, 0.835685, 0.456453, 0.0116291, -0.66774, -0.00878201, -2.12614, -0.00400601, 1.46065, 0.70891, 0, 1.02852, 0, 6, 0.823965, 0.693441, 0, 0, 0, 0, 0, 0, 0, 0
0.443, -0.00190785, -0.45815, 0.00283818, -1.32492, -0.000308151, 0.837148, 0.457039, 0.00563898, -0.664874, -0.00500857, -2.13868, -0.00729069, 1.46257, 0.585615, -1, 2.02852, -1, 7, -0.176035, -0.306559, 1, 0, 0, 0, 0, 0, 0, 0
0.444, -0.0019107, -0.458811, 0.00284077, -1.32704, -0.00031233, 0.8386, 0.457696, -0.00285195, -0.660775, 0.00263761, -2.12024, -0.00417872, 1.45249, 0.656945, 0, 1.02852, 0, 6, 0.823965, 0.693441, 0, 0, 0, 0, 0, 0, 0, 0
0.445, -0.00190238, -0.459473, 0.00283298, -1.32917, -0.000320827, 0.840055, 0.458238, 0.00832199, -0.661839, -0.00780549, -2.13282, -0.00849735, 1.45507, 0.542664, -1, 0.0285177, 1, 7, 1.82396, -0.306559, 1, 0, 0, 0, 0, 0, 0, 0
0.446, -0.00191848, -0.460128, 0.00284609, -1.33129, -0.000323425, 0.841501, 0.458862, -0.0161009, -0.655841, 0.0131374, -2.11497, -0.00259764, 1.44525, 0.623565, 0, 1.02852, 0, 6, 0.823965, 0.693441, 2, 0, 0, 0, 0, 0, 0, 0
0.447, -0.00190568, -0.460789, 0.00283453, -1.33342, -0.000327361, 0.84295, 0.459723, 0.0127965, -0.660727, -0.0115617, -2.12763, -0.0039367, 1.44899, 0.861322, -1, 2.02852, 1, 7, -0.176035, -0.306559, 1, 0, 0, 0, 0, 0, 0, 0
0.448, -0.00191583, -0.461443, 0.00284292, -1.33552, -0.000327813, 0.844389, 0.460609, -0.010145, -0.653547, 0.008415, -2.10815, -0.000451598, 1.43904, 0.885571, 0, 1.02852, 0, 6, 0.823965, 0.693441, 0, 0, 0, 0, 0, 0, 0, 0
0.449, -0.00190103, -0.462099, 0.00282989, -1.33765, -0.000331308, 0.845831, 0.46134, 0.0148035, -0.656632, -0.013013, -2.12034, -0.00349567, 1.44218, 0.731611, -1, 0.0285177, 1, 7, -0.176035, 1.69344, -1, 0, 0, 0, 0, 0, 0, 0
0.45, -0.00191342, -0.462748, 0.0028403, -1.33975, -0.00033133, 0.847266, 0.461773, -0.0123958, -0.649102, 0.0104186, -2.10384, -2.15566e-05, 1.43521, 0.432603, 0, 1.02852, 0, 8, 0.823965, 0.693441, 0, 0, 0, 0, 0, 0, 0, 0
0.451, -0.00190513, -0.463398, 0.00283331, -1.34186, -0.000333163, 0.848702, 0.46213, 0.0082893, -0.650036, -0.00699199, -2.1145, -0.00183336, 1.43622, 0.356997, -1, 0.0285177, 1, 9, -0.176035, 1.69344, 1, 0, 0, 0, 0, 0, 0, 0
0.452, -0.00192741, -0.46404, 0.00285309, -1.34396, -0.000330001, 0.85013, 0.462599, -0.0222756, -0.641212, 0.0197788, -2.09616, 0.00316262, 1.42794, 0.468788, 0, -0.971482, 0, 8, -1.17604, 0.693441, 2, 0, 0, 0, 0, 0, 0, 0
0.453, -0.00192742, -0.464684, 0.00285435, -1.34607, -0.000330521, 0.85156, 0.46333, -1.4665e-05, -0.644178, 0.00125392, -2.10817, -0.000519967, 1.43005, 0.731627, 1, 0.0285177, -1, 9, -0.176035, 1.69344, 1, 0, 0, 0, 0, 0, 0, 0
0.454, -0.00192042, -0.465325, 0.00285136, -1.34816, -0.00032881, 0.852984, 0.464107, 0.00700163, -0.64165, -0.00299825, -2.08819, 0.0017109, 1.42327, 0.776944, 0, 1.02852, 0, 8, 0.823965, 0.693441, 0, 0, 0, 0, 0, 0, 0, 0
0.455, -0.00192621, -0.465961, 0.00285831, -1.35026, -0.00033035, 0.854407, 0.464749, -0.00579073, -0.635688, 0.00692137, -2.09909, -0.00154042, 1.42326, 0.641555, 1, 0.0285177, -1, 9, -0.176035, 1.69344, -1, 0, 0, 0, 0, 0, 0, 0
0.456, -0.00193058, -0.466594, 0.0028648, -1.35234, -0.000330429, 0.855822, 0.465106, -0.00436903, -0.632562, 0.00646788, -2.08061, -7.912e-05, 1.41529, 0.357009, 0, -0.971482, -2, 8, 0.823965, 0.693441, 0, 0, 0, 0, 0, 0, 0, 0
0.457, -0.00192555, -0.467226, 0.0028623, -1.35443, -0.000334322, 0.857239, 0.465399, 0.00502567, -0.632578, -0.0025735, -2.09272, -0.00389243, 1.41675, 0.293579, -1, 0.0285177, -1, 9, -0.176035, 1.69344, 1, 0, 0, 0, 0, 0, 0, 0
0.458, -0.00194794, -0.467851, 0.00288277, -1.3565, -0.000335786, 0.858647, 0.465815, -0.0223862, -0.624972, 0.020513, -2.07489, -0.00146387, 1.40835, 0.415727, 0, -0.971482, -2, 8, 0.823965, 0.693441, 2, 0, 0, 0, 0, 0, 0, 0
0.459, -0.0019421, -0.468481, 0.0028788, -1.35859, -0.000341007, 0.860058, 0.466504, 0.00583622, -0.629923, -0.00402055, -2.08696, -0.00522164, 1.41105, 0.688385, -1, 0.0285177, -1, 9, -0.176035, 1.69344, 1, 0, 0, 0, 0, 0, 0, 0
0.46, -0.00195527, -0.469105, 0.00289046, -1.36066, -0.000344624, 0.861462, 0.467246, -0.0131615, -0.623969, 0.0117045, -2.06766, -0.00361637, 1.4035, 0.742205, 0, -0.971482, -2, 8, 0.823965, 0.693441, 0, 0, 0, 0, 0, 0, 0, 0
0.461, -0.00193813, -0.469734, 0.00287559, -1.36274, -0.00035301, 0.862868, 0.467858, 0.0171387, -0.628377, -0.0148983, -2.07861, -0.00838649, 1.40604, 0.612237, -1, 0.0285177, -1, 9, 1.82396, 1.69344, 1, 0, 0, 0, 0, 0, 0, 0
0.462, -0.00194457, -0.470354, 0.00288077, -1.3648, -0.00035564, 0.864266, 0.468538, -0.00644458, -0.620615, 0.00522586, -2.05938, -0.00263012, 1.39825, 0.68026, 0, -0.971482, -2, 8, 0.823965, 0.693441, 0, 0, 0, 0, 0, 0, 0, 0
0.463, -0.00192733, -0.470977, 0.00286548, -1.36687, -0.00036105, 0.865666, 0.469099, 0.0172383, -0.623274, -0.0153518, -2.07143, -0.00541012, 1.40039, 0.560932, -1, 0.0285177, -1, 9, -0.176035, 1.69344, 1, 0, 0, 0, 0, 0, 0, 0
0.464, -0.00193737, -0.471592, 0.00287359, -1.36892, -0.000362646, 0.867059, 0.469736, -0.0100353, -0.614752, 0.00815855, -2.05333, -0.00159555, 1.39218, 0.636489, 0, -0.971482, -2, 8, 0.823965, 0.693441, 0, 0, 0, 0, 0, 0, 0, 0
0.465, -0.00192514, -0.47221, 0.00286253, -1.37099, -0.00036809, 0.868453, 0.47026, 0.0122265, -0.617498, -0.0111311, -2.06613, -0.00544375, 1.3941, 0.524665, -1, 0.0285177, -1, 9, -0.176035, 1.69344, 1, 0, 0, 0, 0, 0, 0, 0
