martinandrovich/hric-system/assets/data/pd-test-gazebo-nolim-nokdl.csv
t, q0, q1, q2, q3, q4, q5, q6, qdot0, qdot1, qdot2, qdot3, qdot4, qdot5, qdot6, tau_des0, tau_des1, tau_des2, tau_des3, tau_des4, tau_des5, tau_des6, g0, g1, g2, g3, g4, g5, g6
0.001, -0.000248084, -0.019101, 0.0013009, -0.0406156, 0.000225071, 0.0210471, -0.000992361, -0.029337, -6.28586, -0.0506324, -13.2417, 0.0475992, 7.28124, -0.207667, 0.305774, 21.2823, 0.422264, 13.795, -0.470918, 6.36058, 41.3962, 0, -3.26147, -0.0190151, -2.84288, 0.0163283, 1.68556, -1.04533e-06
0.002, -0.000150675, -0.0252927, -0.00169653, -0.0538536, 0.000338146, 0.028345, 0.00735723, 0.0972544, -6.18974, -0.17509, -13.2381, 0.111686, 7.29765, 8.34964, -0.96501, 20.6972, 1.81088, 14.5406, -1.11198, 5.8318, -44.5943, 0, -3.19486, -0.0248409, -2.72318, 0.021787, 1.68577, -4.15062e-06
0.003, 2.02784e-05, -0.031409, -0.00174551, -0.0672177, 0.000439708, 0.0355864, 0.00621969, 0.170163, -6.11684, -0.234499, -13.3641, 0.100971, 7.24146, -1.13754, -1.70264, 20.3381, 2.40143, 16.5921, -1.00437, 6.03168, 50.3343, 0, -3.13087, -0.0308344, -2.60005, 0.027324, 1.68576, -5.29341e-06
0.004, 0.000187415, -0.037475, -0.00151326, -0.0806797, 0.00062477, 0.0427545, 0.015485, 0.167688, -6.06796, -0.215885, -13.4621, 0.185697, 7.16819, 9.26542, -1.68625, 20.2129, 2.19771, 18.3706, -1.85527, 6.40587, -54.1586, 0, -3.07051, -0.0368046, -2.47433, 0.0329379, 1.68565, -6.84868e-06
0.005, 0.000275857, -0.043501, -0.00115587, -0.0942032, 0.000768272, 0.0498683, 0.0133402, 0.0884672, -6.02758, -0.120987, -13.5236, 0.144241, 7.11404, -2.1448, -0.898465, 20.1681, 1.22486, 19.7894, -1.44218, 6.59135, 60.0509, 0, -3.01289, -0.0427997, -2.34676, 0.0386417, 1.68538, -8.76935e-06
0.006, 0.000239848, -0.0495105, -0.000844498, -0.107712, 0.000976012, 0.0569529, 0.0237359, -0.0360012, -6.01023, 0.0142336, -13.5091, 0.208206, 7.0847, 10.3958, 0.34802, 20.3521, -0.148873, 20.4484, -2.08656, 6.53035, -65.8746, 0, -2.95587, -0.0487624, -2.21896, 0.0443085, 1.68514, -1.02005e-05
0.007, 7.16353e-05, -0.0555088, -0.000674001, -0.121207, 0.00110107, 0.0640359, 0.0203529, -0.168229, -5.99835, 0.154115, -13.4952, 0.125264, 7.08306, -3.38304, 1.67871, 20.5897, -1.56218, 21.1121, -1.25767, 6.19226, 72.0826, 0, -2.89933, -0.0547293, -2.09098, 0.0500195, 1.68486, -1.26047e-05
0.008, -0.000201583, -0.0615105, -0.000675592, -0.134638, 0.00128426, 0.0711242, 0.0320803, -0.273174, -6.00144, 0.26164, -13.4301, 0.183243, 7.08834, 11.7276, 2.74182, 20.9783, -2.64322, 21.259, -1.84101, 5.78489, -79.6101, 0, -2.84177, -0.060604, -1.9639, 0.0556352, 1.68467, -1.39487e-05
0.009, -0.000534664, -0.0675051, 0.000771141, -0.14803, 0.00136058, 0.078223, 0.0271768, -0.333087, -5.99448, 0.322481, -13.392, 0.0763244, 7.09883, -4.90359, 3.35761, 21.2676, -3.33048, 21.6751, -0.770147, 5.32478, 86.9469, 0, -2.78255, -0.0671081, -1.83709, 0.0611266, 1.68445, -1.07114e-05
0.01, -0.000876149, -0.0735058, 0.000905321, -0.161349, 0.00151094, 0.0853291, 0.0404984, -0.341485, -6.00064, 0.328745, -13.3193, 0.150347, 7.10609, 13.3218, 3.45866, 21.6887, -3.40581, 21.7396, -1.51242, 4.8968, -95.9735, 0, -2.72316, -0.0730961, -1.7114, 0.0666029, 1.68435, -9.85692e-06
0.011, -0.00118291, -0.0794921, 0.00103258, -0.174633, 0.00154132, 0.092438, 0.0337569, -0.306765, -5.98639, 0.291869, -13.2841, 0.0303786, 7.10902, -6.74156, 3.12679, 21.9047, -3.04948, 22.1771, -0.308704, 4.51192, 87, 0, -2.66394, -0.0791559, -1.58583, 0.0721478, 1.6842, -1.13074e-05
0.012, -0.00142509, -0.0854778, 0.00113068, -0.18785, 0.00165368, 0.0995468, 0.0452415, -0.242178, -5.9858, 0.223912, -13.2174, 0.112366, 7.10883, 11.4847, 2.49304, 22.2584, -2.38079, 22.2958, -1.1288, 4.15832, -77.8395, 0, -2.60367, -0.0851344, -1.4612, 0.0775469, 1.68415, -1.0149e-05
0.013, -0.0015848, -0.0914438, 0.0011789, -0.201035, 0.00167494, 0.106652, 0.0404459, -0.159712, -5.96614, 0.138834, -13.1846, 0.0212673, 7.10495, -4.79566, 1.67636, 22.4198, -1.53843, 22.7518, -0.213398, 3.84179, 85.2042, 0, -2.54389, -0.0911447, -1.3366, 0.0830228, 1.68406, -1.14296e-05
0.014, -0.00165948, -0.0974002, 0.00117136, -0.214158, 0.00178498, 0.11375, 0.0534897, -0.0746818, -5.9565, 0.0514581, -13.1231, 0.110042, 7.09843, 13.044, 0.829792, 22.6815, -0.670174, 22.916, -1.10131, 3.552, -93.845, 0, -2.48358, -0.0970245, -1.21274, 0.0883577, 1.68404, -1.03189e-05
0.015, -0.001655, -0.103326, 0.00110669, -0.227252, 0.00179335, 0.120837, 0.0468937, 0.00448508, -5.92568, -0.0292433, -13.0941, 0.00836926, 7.08671, -6.59606, 0.0378991, 22.7288, 0.13417, 23.4057, -0.0795413, 3.31487, 87, 0, -2.42436, -0.102928, -1.08867, 0.0938187, 1.68398, -1.25174e-05
0.016, -0.00158819, -0.109235, 0.0009969, -0.240287, 0.00189833, 0.127912, 0.0585066, 0.0668069, -5.90953, -0.0921405, -13.0355, 0.104977, 7.07566, 11.613, -0.58866, 22.9222, 0.76289, 23.5939, -1.04556, 3.07158, -79.7858, 0, -2.36495, -0.10867, -0.965214, 0.0991333, 1.68396, -1.23342e-05
0.017, -0.00147681, -0.11511, 0.000853338, -0.253292, 0.00192115, 0.134973, 0.0534167, 0.111385, -5.875, -0.136945, -13.0052, 0.0228187, 7.06035, -5.08988, -1.04001, 22.9289, 1.21236, 24.0651, -0.219675, 2.87158, 87, 0, -2.30675, -0.114427, -0.841529, 0.104569, 1.68391, -1.50866e-05
0.018, -0.00134281, -0.120965, 0.000695148, -0.266239, 0.00204279, 0.142019, 0.0665329, 0.134002, -5.85429, -0.158467, -12.947, 0.121633, 7.04651, 13.1163, -1.27288, 23.0727, 1.42989, 24.2539, -1.20862, 2.65765, -95.2201, 0, -2.24854, -0.120017, -0.718401, 0.109845, 1.68389, -1.53143e-05
0.019, -0.00120229, -0.126778, 0.000533449, -0.279156, 0.00206522, 0.149046, 0.059714, 0.140518, -5.81379, -0.164627, -12.9162, 0.0224268, 7.02655, -6.81889, -1.34506, 23.0151, 1.49394, 24.7148, -0.21225, 2.50584, 87, 0, -2.19182, -0.125663, -0.594953, 0.115279, 1.68383, -1.88542e-05
0.02, -0.00107173, -0.13257, 0.000384907, -0.292012, 0.00218543, 0.156057, 0.0711022, 0.130563, -5.79175, -0.152782, -12.857, 0.120206, 7.01116, 11.3883, -1.25204, 23.141, 1.37742, 24.8887, -1.19079, 2.30915, -78.1679, 0, -2.13509, -0.131155, -0.472077, 0.120534, 1.68381, -1.96238e-05
0.021, -0.000958195, -0.138323, 0.000253349, -0.304833, 0.00222341, 0.163048, 0.0661256, 0.11353, -5.75332, -0.135411, -12.8208, 0.0379869, 6.99089, -4.97658, -1.08739, 23.0998, 1.20472, 25.2913, -0.365119, 2.16225, 85.7294, 0, -2.07963, -0.136717, -0.349022, 0.125921, 1.68375, -2.30092e-05
0.022, -0.000867479, -0.144055, 0.0001483, -0.317592, 0.0023555, 0.170023, 0.0790922, 0.0907163, -5.73127, -0.110485, -12.7592, 0.132083, 6.97519, 12.9668, -0.863789, 23.2214, 0.955299, 25.4348, -1.30749, 1.97049, -94.3526, 0, -2.02412, -0.142135, -0.226601, 0.13111, 1.68372, -2.34347e-05
0.023, -0.000796153, -0.149745, 6.84978e-05, -0.330312, 0.00238465, 0.176975, 0.0723083, 0.0713255, -5.6907, -0.0916451, -12.7201, 0.0291538, 6.95218, -6.78395, -0.673447, 23.1544, 0.765352, 25.8033, -0.274302, 1.85289, 87, 0, -1.96994, -0.147675, -0.104006, 0.136469, 1.68367, -2.69218e-05
0.024, -0.000742751, -0.155416, -5.55032e-05, -0.342968, 0.00250721, 0.183912, 0.0837364, 0.053402, -5.6703, -0.0717094, -12.6559, 0.122563, 6.93657, 11.4282, -0.496882, 23.2882, 0.5669, 25.9158, -1.20937, 1.66215, -79.199, 0, -1.91565, -0.152969, 0.017865, 0.141629, 1.68364, -2.79468e-05
0.025, -0.000699313, -0.161049, -0.000102142, -0.35558, 0.0025422, 0.190826, 0.0785875, 0.0434383, -5.63301, -0.0627792, -12.6114, 0.034991, 6.91407, -5.14888, -0.399417, 23.2502, 0.474445, 26.2228, -0.330101, 1.5414, 86.8293, 0, -1.86239, -0.158454, 0.139744, 0.146919, 1.68359, -3.10393e-05
0.026, -0.000662237, -0.166662, -0.000152702, -0.368125, 0.0026697, 0.197724, 0.0916162, 0.0370763, -5.6131, -0.0542346, -12.545, 0.127504, 6.89853, 13.0289, -0.337652, 23.3852, 0.386236, 26.307, -1.25654, 1.35185, -95.5999, 0, -1.80891, -0.163745, 0.260833, 0.151983, 1.68357, -3.12221e-05
0.027, -0.000623627, -0.172235, -0.00020983, -0.380623, 0.00269092, 0.204597, 0.0846351, 0.0386097, -5.57298, -0.057649, -12.4987, 0.0212245, 6.87296, -6.9811, -0.354916, 23.3149, 0.417838, 26.59, -0.189544, 1.26394, 87, 0, -1.75667, -0.169144, 0.381956, 0.157247, 1.68353, -3.48331e-05
0.028, -0.000583398, -0.177788, -0.000265703, -0.393055, 0.0028052, 0.211454, 0.095868, 0.0402292, -5.55306, -0.0567461, -12.4314, 0.114279, 6.85684, 11.233, -0.373122, 23.4459, 0.406401, 26.6597, -1.12078, 1.08219, -77.8536, 0, -1.70418, -0.174345, 0.502254, 0.16227, 1.68351, -3.54762e-05
0.029, -0.000538404, -0.183302, -0.000329017, -0.405436, 0.00283368, 0.218285, 0.0908054, 0.0449943, -5.51475, -0.06323, -12.3813, 0.0284777, 6.83138, -5.06264, -0.423023, 23.3899, 0.469122, 26.8973, -0.259, 0.995253, 85.356, 0, -1.65277, -0.179629, 0.622467, 0.167461, 1.68349, -3.89673e-05
0.03, -0.000491958, -0.188796, -0.000389899, -0.41775, 0.00295431, 0.2251, 0.103612, 0.0464459, -5.49316, -0.0615974, -12.3138, 0.12063, 6.8144, 12.8066, -0.439861, 23.5003, 0.450762, 26.9573, -1.18161, 0.824319, -93.9769, 0, -1.60118, -0.184706, 0.741859, 0.172403, 1.68347, -3.95691e-05
0.031, -0.000443058, -0.194246, -0.000456344, -0.430013, 0.00297163, 0.231885, 0.0967466, 0.0488993, -5.4506, -0.0665341, -12.2634, 0.0173181, 6.78512, -6.8653, -0.46684, 23.3975, 0.498252, 27.1858, -0.144195, 0.777871, 87, 0, -1.55088, -0.189906, 0.86124, 0.177568, 1.68346, -4.35275e-05
0.032, -0.000397188, -0.199674, -0.000515797, -0.442209, 0.0030835, 0.238652, 0.108094, 0.0458702, -5.42829, -0.0599314, -12.196, 0.111867, 6.76733, 11.3478, -0.438842, 23.4963, 0.430209, 27.241, -1.09038, 0.617333, -79.6133, 0, -1.50042, -0.194895, 0.979797, 0.182466, 1.68345, -4.45298e-05
0.033, -0.000354332, -0.205061, -0.00057494, -0.454352, 0.00310828, 0.24539, 0.102777, 0.0428567, -5.38673, -0.0593189, -12.1428, 0.0247869, 6.73782, -5.31779, -0.41085, 23.3994, 0.421937, 27.4344, -0.215727, 0.575602, 87, 0, -1.45114, -0.199999, 1.09826, 0.187557, 1.68344, -4.82917e-05
0.034, -0.000318392, -0.210425, -0.000623176, -0.466427, 0.00322767, 0.252109, 0.115671, 0.0359401, -5.36348, -0.0483952, -12.0753, 0.119381, 6.71955, 12.8951, -0.343481, 23.4844, 0.310219, 27.4804, -1.16283, 0.42232, -95.4642, 0, -1.40174, -0.204892, 1.21588, 0.192367, 1.68343, -4.90985e-05
0.035, -0.000286353, -0.215743, -0.000671075, -0.478448, 0.00324176, 0.258796, 0.108582, 0.0320381, -5.31873, -0.0480657, -12.0216, 0.0140967, 6.68663, -7.08911, -0.306063, 23.3509, 0.304267, 27.6621, -0.105629, 0.417158, 87, 0, -1.35368, -0.209944, 1.33347, 0.197426, 1.68343, -5.31041e-05
0.036, -0.00026038, -0.221039, -0.000708798, -0.490402, 0.00335017, 0.265464, 0.119706, 0.0259731, -5.2957, -0.037722, -11.954, 0.108405, 6.66804, 11.1243, -0.246712, 23.4336, 0.197881, 27.7007, -1.04937, 0.269653, -77.9584, 0, -1.30548, -0.214779, 1.4502, 0.202193, 1.68341, -5.42036e-05
0.037, -0.000237275, -0.226293, -0.000746854, -0.502299, 0.00337245, 0.2721, 0.114512, 0.0231051, -5.25355, -0.0381608, -11.8969, 0.0222824, 6.63604, -5.19489, -0.219187, 23.3218, 0.199207, 27.8413, -0.18428, 0.257876, 85.4931, 0, -1.25843, -0.219743, 1.56677, 0.207167, 1.68342, -5.78705e-05
0.038, -0.000217625, -0.231523, -0.000776999, -0.514128, 0.00348719, 0.278717, 0.127215, 0.0196506, -5.23015, -0.0300373, -11.8289, 0.11474, 6.61736, 12.7032, -0.185625, 23.3965, 0.114743, 27.8684, -1.10992, 0.113741, -94.1226, 0, -1.21123, -0.224481, 1.68247, 0.211839, 1.6834, -5.87779e-05
0.039, -0.000196981, -0.236708, -0.000812476, -0.5259, 0.00349743, 0.2853, 0.120215, 0.020644, -5.18528, -0.0356058, -11.7714, 0.0102452, 6.58224, -6.99994, -0.196591, 23.2529, 0.1673, 27.9968, -0.0605419, 0.13583, 87, 0, -1.16535, -0.229381, 1.79806, 0.216782, 1.68341, -6.27338e-05
0.04, -0.000177029, -0.24187, -0.000842323, -0.537603, 0.00360205, 0.291863, 0.131429, 0.0199513, -5.16236, -0.0297485, -11.7034, 0.104618, 6.56367, 11.2139, -0.190662, 23.328, 0.105563, 28.017, -1.00488, -0.00663712, -79.4408, 0, -1.11929, -0.234038, 1.91275, 0.221408, 1.6834, -6.39927e-05
0.041, -0.000155871, -0.24699, -0.000877376, -0.549246, 0.00361869, 0.298392, 0.126013, 0.0211585, -5.11935, -0.0351422, -11.6432, 0.0166347, 6.52931, -5.41563, -0.203791, 23.1987, 0.156459, 28.1118, -0.121014, 0.0105457, 87, 0, -1.07438, -0.238831, 2.02723, 0.226267, 1.68342, -6.77705e-05
0.042, -0.000135675, -0.252085, -0.000906004, -0.560821, 0.00373, 0.304903, 0.138811, 0.0201959, -5.09587, -0.0284705, -11.5753, 0.111312, 6.51077, 12.798, -0.195175, 23.2638, 0.0866317, 28.1248, -1.06882, -0.129622, -95.6504, 0, -1.02933, -0.243373, 2.14081, 0.230797, 1.6834, -6.89476e-05
0.043, -0.000113871, -0.257135, -0.000941591, -0.572336, 0.00373523, 0.311376, 0.131585, 0.0218042, -5.0498, -0.0357191, -11.5151, 0.00523271, 6.47311, -7.22531, -0.212348, 23.0993, 0.156176, 28.2128, -0.00346211, -0.0767009, 87, 0, -0.985598, -0.248094, 2.25424, 0.235627, 1.68343, -7.30296e-05
0.044, -9.32027e-05, -0.262162, -0.000970223, -0.583784, 0.00383555, 0.317831, 0.142574, 0.0206684, -5.02636, -0.0284937, -11.4479, 0.100314, 6.45447, 10.9884, -0.202024, 23.1601, 0.0808897, 28.2249, -0.954797, -0.213061, -77.743, 0, -0.941719, -0.252559, 2.36677, 0.240117, 1.68341, -7.46019e-05
0.045, -7.32153e-05, -0.267144, -0.00100288, -0.59517, 0.00384979, 0.324249, 0.137288, 0.0199874, -4.98257, -0.0327615, -11.3854, 0.0142477, 6.41816, -5.28599, -0.196213, 23.014, 0.120585, 28.2816, -0.0901134, -0.170817, 85.2653, 0, -0.898993, -0.257173, 2.47906, 0.244854, 1.68344, -7.84299e-05
0.046, -5.53909e-05, -0.272103, -0.0010272, -0.606488, 0.00395719, 0.330648, 0.149852, 0.0178248, -4.95844, -0.0241424, -11.3184, 0.107396, 6.39945, 12.5643, -0.175479, 23.0635, 0.0312508, 28.2894, -1.02257, -0.303649, -93.8659, 0, -0.856149, -0.261533, 2.59044, 0.249244, 1.68342, -7.98916e-05
0.047, -3.71961e-05, -0.277015, -0.00105816, -0.617744, 0.00396028, 0.337008, 0.142766, 0.0181948, -4.91201, -0.0311228, -11.2561, 0.00309362, 6.35997, -7.08551, -0.180088, 22.8863, 0.0980504, 28.3404, 0.0250017, -0.226845, 87, 0, -0.814618, -0.266086, 2.70164, 0.253952, 1.68346, -8.39457e-05
0.048, -2.00941e-05, -0.281903, -0.00108137, -0.628934, 0.00405872, 0.34335, 0.153894, 0.0171036, -4.88854, -0.0230677, -11.1897, 0.0984428, 6.34165, 11.1282, -0.170031, 22.9378, 0.0143744, 28.3461, -0.929067, -0.360705, -79.7067, 0, -0.772936, -0.270371, 2.81192, 0.258297, 1.68343, -8.57081e-05
0.049, -3.27763e-06, -0.286747, -0.00111002, -0.640059, 0.00406847, 0.349653, 0.148337, 0.0168236, -4.84416, -0.0287885, -11.1255, 0.00974258, 6.30338, -5.55726, -0.168072, 22.7767, 0.0685648, 28.3698, -0.0379335, -0.293177, 87, 0, -0.732415, -0.274821, 2.92194, 0.262916, 1.68347, -8.95672e-05
0.05, 1.25821e-05, -0.291568, -0.0011305, -0.651119, 0.00417351, 0.355939, 0.160993, 0.0158463, -4.82053, -0.0203225, -11.0593, 0.105042, 6.28541, 12.6562, -0.159092, 22.8221, -0.0192492, 28.3707, -0.991931, -0.427789, -95.3423, 0, -0.691747, -0.278999, 3.03102, 0.267159, 1.68345, -9.12591e-05
0.051, 2.98925e-05, -0.296342, -0.00115989, -0.662114, 0.00417221, 0.362183, 0.153691, 0.0173134, -4.7738, -0.0295575, -10.9953, -0.00129493, 6.24414, -7.30252, -0.174629, 22.6327, 0.0701891, 28.3891, 0.0760882, -0.327248, 87, 0, -0.652389, -0.28338, 3.13991, 0.27175, 1.6835, -9.53328e-05
0.052, 4.75768e-05, -0.301092, -0.00118205, -0.673044, 0.00426668, 0.368409, 0.164602, 0.0176842, -4.75062, -0.0220348, -10.93, 0.0944638, 6.22648, 10.9111, -0.179221, 22.678, -0.00802939, 28.3906, -0.882015, -0.461956, -78.0718, 0, -0.612871, -0.287479, 3.24786, 0.275956, 1.68347, -9.73816e-05
0.053, 6.51036e-05, -0.305798, -0.00121051, -0.683908, 0.00427401, 0.374596, 0.15917, 0.0175274, -4.70627, -0.0285889, -10.8642, 0.00733742, 6.18707, -5.43193, -0.178529, 22.5082, 0.0546667, 28.3831, -0.0066264, -0.377179, 85.6306, 0, -0.574487, -0.291748, 3.35551, 0.280448, 1.68352, -0.00010126
0.054, 8.21265e-05, -0.310481, -0.00123046, -0.694707, 0.00437553, 0.380766, 0.171665, 0.0170227, -4.68257, -0.0197911, -10.7995, 0.101512, 6.16958, 12.4947, -0.174334, 22.5438, -0.0363025, 28.3827, -0.949346, -0.510791, -94.2606, 0, -0.535971, -0.295737, 3.46223, 0.284551, 1.68349, -0.000103261
0.055, 9.99888e-05, -0.315117, -0.00125965, -0.705442, 0.00437178, 0.386893, 0.164427, 0.0178626, -4.63579, -0.0293477, -10.7342, -0.00374858, 6.12704, -7.23753, -0.183625, 22.3451, 0.0565204, 28.373, 0.107915, -0.391683, 87, 0, -0.498749, -0.299939, 3.56873, 0.289018, 1.68355, -0.000107325
0.056, 0.000118002, -0.31973, -0.00128048, -0.716112, 0.0044643, 0.393003, 0.175403, 0.0180132, -4.61275, -0.0207066, -10.6704, 0.0925196, 6.11012, 10.9759, -0.186032, 22.3827, -0.0327623, 28.3745, -0.85533, -0.52798, -79.2592, 0, -0.46137, -0.303852, 3.6743, 0.293081, 1.68352, -0.000109623
0.057, 0.00013509, -0.324298, -0.00130786, -0.726716, 0.00446807, 0.399072, 0.169787, 0.0170884, -4.5681, -0.0274998, -10.6037, 0.0037763, 6.06931, -5.61571, -0.177638, 22.2008, 0.0324422, 28.3431, 0.0362861, -0.423312, 86.9376, 0, -0.425131, -0.307949, 3.77955, 0.297453, 1.68358, -0.000113514
0.058, 0.000151586, -0.328843, -0.00132561, -0.737256, 0.00456785, 0.405125, 0.182371, 0.016496, -4.54488, -0.0176105, -10.5406, 0.0997801, 6.05284, 12.5843, -0.17254, 22.2323, -0.069371, 28.3429, -0.924785, -0.561333, -95.692, 0, -0.388746, -0.311757, 3.88387, 0.301409, 1.68354, -0.000115761
0.059, 0.000168775, -0.333341, -0.00135368, -0.747731, 0.00456039, 0.411134, 0.174924, 0.0171891, -4.49804, -0.0282201, -10.4745, -0.00746345, 6.00891, -7.44739, -0.18033, 22.0239, 0.0340933, 28.31, 0.152373, -0.422416, 87, 0, -0.353653, -0.315791, 3.98796, 0.305758, 1.68361, -0.000119794
0.06, 0.000186862, -0.337816, -0.00137323, -0.758143, 0.00464962, 0.417127, 0.18569, 0.018087, -4.47549, -0.0194435, -10.4124, 0.0892274, 5.99298, 10.7658, -0.190213, 22.0574, -0.0564302, 28.3129, -0.815071, -0.562717, -77.6732, 0, -0.318392, -0.319527, 4.09112, 0.309684, 1.68358, -0.000122348
0.061, 0.000203857, -0.342247, -0.00139986, -0.768488, 0.00465147, 0.423078, 0.180196, 0.0169951, -4.43125, -0.0267444, -10.345, 0.00185364, 5.95151, -5.49352, -0.180144, 21.8707, 0.0139879, 28.2584, 0.062819, -0.445523, 85.1952, 0, -0.284241, -0.323449, 4.19393, 0.313929, 1.68364, -0.000126206
0.062, 0.000221068, -0.346656, -0.00141694, -0.778772, 0.00474766, 0.429014, 0.192537, 0.017211, -4.40826, -0.0169518, -10.2836, 0.0961938, 5.9358, 12.3415, -0.183163, 21.8955, -0.0867148, 28.2612, -0.881574, -0.585288, -93.7721, 0, -0.249951, -0.327079, 4.29583, 0.317747, 1.6836, -0.000128735
0.063, 0.000238659, -0.351017, -0.00144485, -0.788989, 0.00473854, 0.434905, 0.185249, 0.017591, -4.36193, -0.0280434, -10.2169, -0.00912945, 5.89124, -7.28806, -0.187843, 21.6833, 0.0217384, 28.2065, 0.17634, -0.434189, 87, 0, -0.216921, -0.330938, 4.39747, 0.321972, 1.68367, -0.000132708
0.064, 0.000257328, -0.355357, -0.0014635, -0.799145, 0.00482654, 0.440782, 0.196174, 0.0186684, -4.33978, -0.0185533, -10.1567, 0.0880088, 5.87638, 10.9248, -0.199551, 21.712, -0.0757843, 28.2127, -0.795662, -0.579458, -79.7873, 0, -0.183719, -0.334493, 4.49819, 0.325753, 1.68363, -0.000135485
0.065, 0.000274508, -0.359653, -0.00148996, -0.809234, 0.00482451, 0.446616, 0.190397, 0.0171803, -4.29545, -0.0265553, -10.0891, -0.00203819, 5.83378, -5.77695, -0.185528, 21.5156, 0.00180149, 28.1415, 0.109039, -0.44504, 87, 0, -0.151637, -0.338249, 4.59856, 0.329882, 1.6837, -0.000139328
0.066, 0.000291886, -0.363926, -0.00150575, -0.819264, 0.00491927, 0.452435, 0.202833, 0.0173784, -4.27319, -0.0156777, -10.0296, 0.0947673, 5.81947, 12.4356, -0.188379, 21.5389, -0.109638, 28.148, -0.86008, -0.592979, -95.2274, 0, -0.119394, -0.341703, 4.69802, 0.333557, 1.68365, -0.000142092
0.067, 0.000309305, -0.368153, -0.00153324, -0.829227, 0.0049067, 0.458209, 0.195334, 0.0174189, -4.22702, -0.027611, -9.96279, -0.0125738, 5.77387, -7.49839, -0.189655, 21.3195, 0.00737356, 28.0768, 0.21807, -0.425628, 87, 0, -0.0884078, -0.345399, 4.79722, 0.337667, 1.68373, -0.000146
0.068, 0.000328293, -0.372358, -0.0015511, -0.839131, 0.00499175, 0.463969, 0.206048, 0.0189875, -4.20549, -0.0177704, -9.90457, 0.0850508, 5.76022, 10.7142, -0.206289, 21.3456, -0.0935236, 28.088, -0.758781, -0.577153, -78.1746, 0, -0.0572415, -0.348783, 4.89551, 0.341314, 1.6837, -0.000149005
0.069, 0.000345334, -0.37652, -0.00157693, -0.848968, 0.00498815, 0.469686, 0.200399, 0.0170412, -4.16176, -0.0259286, -9.83681, -0.00359986, 5.71731, -5.64974, -0.187678, 21.1465, -0.0142392, 28.0002, 0.13191, -0.433795, 85.7473, 0, -0.0271621, -0.352372, 4.99344, 0.345319, 1.68377, -0.000152784
0.07, 0.000363136, -0.38066, -0.00159195, -0.858748, 0.00508022, 0.47539, 0.212699, 0.0178019, -4.13993, -0.0149066, -9.77944, 0.0920666, 5.70401, 12.3001, -0.196176, 21.1655, -0.126993, 28.0126, -0.825818, -0.586056, -94.3665, 0, 0.00307431, -0.355657, 5.09047, 0.348858, 1.68371, -0.000155781
0.071, 0.000380643, -0.384754, -0.0016192, -0.86846, 0.00506566, 0.481048, 0.205245, 0.017507, -4.09434, -0.0273633, -9.71256, -0.0145605, 5.65794, -7.45327, -0.194102, 20.9433, -0.00459526, 27.9261, 0.24517, -0.408207, 87, 0, 0.0320796, -0.359188, 5.18723, 0.352848, 1.6838, -0.000159599
0.072, 0.000399991, -0.388828, -0.00163623, -0.878117, 0.00514916, 0.486694, 0.216004, 0.0193483, -4.07339, -0.0169515, -9.65643, 0.0835032, 5.64555, 10.7589, -0.213482, 20.9667, -0.111076, 27.9435, -0.736131, -0.56663, -79.1195, 0, 0.0612719, -0.362403, 5.28308, 0.356359, 1.68375, -0.000162801
0.073, 0.000417009, -0.392858, -0.00166181, -0.887705, 0.00514261, 0.492296, 0.210202, 0.0170179, -4.02998, -0.0256588, -9.58892, -0.0065501, 5.60199, -5.8026, -0.19103, 20.7622, -0.0261547, 27.8433, 0.168619, -0.411089, 86.7856, 0, 0.0893833, -0.365833, 5.37859, 0.360248, 1.68383, -0.000166515
0.074, 0.000434954, -0.396867, -0.00167574, -0.897239, 0.00523326, 0.497886, 0.222566, 0.0179448, -4.00891, -0.0138339, -9.53365, 0.0906551, 5.59015, 12.3642, -0.201196, 20.7802, -0.146827, 27.862, -0.804565, -0.572185, -95.5008, 0, 0.117669, -0.368953, 5.47319, 0.363649, 1.68377, -0.000169715
0.075, 0.000452323, -0.40083, -0.00170275, -0.906706, 0.00521566, 0.503429, 0.214939, 0.0173688, -3.96373, -0.027119, -9.46705, -0.017601, 5.54337, -7.62627, -0.196304, 20.5536, -0.016001, 27.7637, 0.282754, -0.381444, 87, 0, 0.144731, -0.372328, 5.56754, 0.367527, 1.68386, -0.00017343
0.076, 0.000471986, -0.404774, -0.00171919, -0.916119, 0.00529662, 0.508962, 0.225525, 0.0196628, -3.94348, -0.0163596, -9.41308, 0.0809551, 5.53231, 10.5855, -0.220227, 20.5756, -0.125828, 27.7881, -0.703473, -0.547553, -77.8616, 0, 0.17199, -0.375383, 5.66099, 0.370909, 1.68381, -0.000176817
0.077, 0.000488838, -0.408675, -0.00174428, -0.925465, 0.00528853, 0.51445, 0.219812, 0.0168523, -3.90078, -0.025171, -9.34588, -0.00808672, 5.48864, -5.7124, -0.192964, 20.3698, -0.0397322, 27.6764, 0.191119, -0.385233, 85.4031, 0, 0.198198, -0.378656, 5.75408, 0.374679, 1.68389, -0.000180441
0.078, 0.000507158, -0.412555, -0.00175764, -0.934758, 0.00537634, 0.519928, 0.231977, 0.0183205, -3.88021, -0.013269, -9.29283, 0.0878135, 5.47786, 12.1646, -0.208563, 20.3845, -0.161047, 27.7028, -0.769, -0.551381, -93.9747, 0, 0.224576, -0.381619, 5.8463, 0.377951, 1.68382, -0.000183833
0.079, 0.000524417, -0.416391, -0.00178431, -0.943984, 0.0053574, 0.525359, 0.224471, 0.0172585, -3.83584, -0.026761, -9.22657, -0.0189488, 5.43097, -7.50609, -0.198806, 20.1578, -0.028013, 27.5934, 0.30333, -0.353962, 87, 0, 0.249764, -0.384839, 5.93825, 0.381712, 1.68392, -0.000187427
0.08, 0.000544147, -0.420207, -0.00179976, -0.953159, 0.00543736, 0.53078, 0.235176, 0.0197297, -3.81623, -0.0153791, -9.17478, 0.0799644, 5.42126, 10.7052, -0.224504, 20.1779, -0.143957, 27.6254, -0.686552, -0.527902, -79.5411, 0, 0.275156, -0.387736, 6.02932, 0.38496, 1.68386, -0.000190965
0.081, 0.000560817, -0.423981, -0.00182465, -0.962267, 0.00542609, 0.536157, 0.229232, 0.0166707, -3.7739, -0.0249629, -9.10819, -0.011274, 5.377, -5.94398, -0.194748, 19.9677, -0.0499991, 27.5056, 0.230058, -0.354129, 87, 0, 0.299497, -0.390861, 6.12004, 0.388622, 1.68395, -0.00019449
0.082, 0.000579127, -0.427735, -0.00183694, -0.971325, 0.00551288, 0.541525, 0.241499, 0.0183098, -3.75423, -0.0122061, -9.0573, 0.0867953, 5.36787, 12.2668, -0.212055, 19.9832, -0.179763, 27.5394, -0.751836, -0.531224, -95.473, 0, 0.324033, -0.393671, 6.2099, 0.391761, 1.68387, -0.000198041
0.083, 0.00059617, -0.431445, -0.00186347, -0.980316, 0.00549085, 0.546845, 0.233782, 0.0170435, -3.71037, -0.0266132, -8.99162, -0.0220297, 5.32037, -7.71708, -0.200244, 19.7534, -0.0374398, 27.4218, 0.34117, -0.32222, 87, 0, 0.347384, -0.396745, 6.29949, 0.395416, 1.68397, -0.000201501
0.084, 0.000616175, -0.435137, -0.00187851, -0.989258, 0.00556822, 0.552158, 0.244275, 0.0200047, -3.69153, -0.0149736, -8.94205, 0.0773725, 5.31205, 10.4938, -0.230856, 19.7731, -0.155833, 27.4619, -0.653593, -0.504622, -77.8818, 0, 0.370952, -0.399494, 6.38822, 0.398543, 1.68391, -0.000205178
0.085, 0.000632634, -0.438787, -0.00190295, -0.998134, 0.00555583, 0.557425, 0.238468, 0.0164586, -3.65006, -0.024513, -8.87602, -0.0123914, 5.26795, -5.80776, -0.196218, 19.5635, -0.0621941, 27.3338, 0.248212, -0.326913, 85.4239, 0, 0.393502, -0.402472, 6.47661, 0.402089, 1.684, -0.000208592
0.086, 0.000651259, -0.442418, -0.00191479, -1.00696, 0.00563991, 0.562685, 0.25054, 0.0186254, -3.6309, -0.0117577, -8.82736, 0.0840817, 5.25985, 12.0726, -0.218816, 19.5763, -0.19182, 27.3761, -0.717706, -0.50901, -93.9829, 0, 0.416242, -0.405136, 6.56414, 0.405107, 1.68392, -0.000212281
0.087, 0.000668098, -0.446006, -0.00194098, -1.01572, 0.00561671, 0.567898, 0.242941, 0.0168385, -3.58792, -0.0262654, -8.76229, -0.0232111, 5.21242, -7.59894, -0.201789, 19.3474, -0.0483625, 27.2508, 0.359926, -0.2952, 87, 0, 0.437829, -0.408065, 6.65141, 0.40865, 1.68402, -0.000215601
0.088, 0.000688017, -0.449575, -0.00195504, -1.02444, 0.00569319, 0.573103, 0.253552, 0.0199198, -3.56973, -0.0139978, -8.71491, 0.0764901, 5.20544, 10.6114, -0.233599, 19.3658, -0.17294, 27.2992, -0.637911, -0.485746, -79.5216, 0, 0.459641, -0.410669, 6.73784, 0.41165, 1.68395, -0.000219385
0.089, 0.000704158, -0.453104, -0.00197928, -1.03309, 0.00567781, 0.578264, 0.247519, 0.0161409, -3.52875, -0.024302, -8.6497, -0.0153808, 5.16087, -6.03306, -0.196617, 19.1532, -0.0715267, 27.1656, 0.285011, -0.298028, 87, 0, 0.480437, -0.41351, 6.82393, 0.415094, 1.68404, -0.000222668
0.09, 0.000722641, -0.456615, -0.00199007, -1.04169, 0.00576101, 0.583418, 0.259696, 0.0184829, -3.51051, -0.0107225, -8.6032, 0.0831934, 5.15444, 12.1766, -0.220962, 19.1674, -0.209306, 27.216, -0.701999, -0.491514, -95.4814, 0, 0.501447, -0.416034, 6.90918, 0.417985, 1.68395, -0.000226468
0.091, 0.000739164, -0.460083, -0.00201613, -1.05023, 0.00573488, 0.588525, 0.251888, 0.0165227, -3.46812, -0.026139, -8.5389, -0.026132, 5.10651, -7.80806, -0.202185, 18.9367, -0.0566321, 27.085, 0.396004, -0.267449, 87, 0, 0.521311, -0.418829, 6.99419, 0.421428, 1.68406, -0.000229628
0.092, 0.000759248, -0.463534, -0.00202985, -1.05872, 0.00580889, 0.593626, 0.262289, 0.0200844, -3.45071, -0.0136561, -8.49369, 0.074021, 5.10092, 10.4018, -0.238807, 18.9553, -0.183242, 27.1418, -0.606341, -0.466642, -77.8626, 0, 0.541412, -0.421296, 7.07836, 0.424313, 1.68398, -0.000233498
0.093, 0.00077511, -0.466944, -0.00205367, -1.06715, 0.00579255, 0.598682, 0.256394, 0.0158617, -3.41065, -0.0238775, -8.42922, -0.0163447, 5.05663, -5.89504, -0.197373, 18.7443, -0.0825425, 27.0024, 0.301467, -0.276493, 85.4004, 0, 0.560531, -0.424001, 7.1622, 0.427647, 1.68407, -0.000236651
0.094, 0.000793837, -0.470337, -0.0020641, -1.07554, 0.00587309, 0.603734, 0.268373, 0.0187265, -3.39294, -0.0103654, -8.3849, 0.0805351, 5.05119, 11.9793, -0.226957, 18.7562, -0.219533, 27.0614, -0.668581, -0.474782, -93.9416, 0, 0.579859, -0.426391, 7.24521, 0.430424, 1.68398, -0.000240533
0.095, 0.000810067, -0.473689, -0.00208981, -1.08386, 0.00584596, 0.608737, 0.260691, 0.0162308, -3.35147, -0.0257821, -8.32135, -0.0271254, 5.00345, -7.68263, -0.202811, 18.5273, -0.0667405, 26.9248, 0.412716, -0.247429, 87, 0, 0.598074, -0.429052, 7.32799, 0.43376, 1.68409, -0.000243539
0.096, 0.00082995, -0.477023, -0.00210256, -1.09214, 0.0059192, 0.613736, 0.271217, 0.0198832, -3.33471, -0.0126887, -8.27829, 0.0732403, 4.99917, 10.5266, -0.240329, 18.5449, -0.199372, 26.99, -0.591837, -0.45466, -79.5574, 0, 0.616533, -0.431387, 7.40995, 0.436525, 1.684, -0.000247465
0.097, 0.000845414, -0.480318, -0.00212621, -1.10035, 0.00589998, 0.618691, 0.265093, 0.0154638, -3.29518, -0.0237025, -8.21476, -0.0192255, 4.95447, -6.12454, -0.196909, 18.3318, -0.0906307, 26.8471, 0.337019, -0.25528, 87, 0, 0.634011, -0.433966, 7.49159, 0.439763, 1.6841, -0.000250462
0.098, 0.000863915, -0.483597, -0.00213565, -1.10853, 0.00597971, 0.623641, 0.277177, 0.0185013, -3.27837, -0.00938453, -8.17253, 0.0797334, 4.95068, 12.084, -0.228208, 18.3454, -0.2356, 26.9142, -0.653899, -0.465083, -95.4292, 0, 0.651724, -0.436228, 7.57242, 0.44242, 1.68399, -0.000254404
0.099, 0.000879758, -0.486834, -0.00216127, -1.11664, 0.00594981, 0.628544, 0.269288, 0.015843, -3.23754, -0.0256819, -8.10985, -0.0298977, 4.90251, -7.88873, -0.202418, 18.1156, -0.0738829, 26.7736, 0.447149, -0.228363, 87, 0, 0.66833, -0.438765, 7.65303, 0.445663, 1.68411, -0.000257229
0.1, 0.000899706, -0.490056, -0.00217372, -1.1247, 0.00602068, 0.633443, 0.279608, 0.019948, -3.22155, -0.012397, -8.06888, 0.0708674, 4.89957, 10.32, -0.244465, 18.1336, -0.208319, 26.8471, -0.561386, -0.44404, -77.9109, 0, 0.685193, -0.440975, 7.73283, 0.448321, 1.68402, -0.000261186
0.101, 0.000914827, -0.493239, -0.00219696, -1.13271, 0.00600062, 0.638299, 0.273622, 0.0151209, -3.18296, -0.0232902, -8.00619, -0.020061, 4.85522, -5.98616, -0.19695, 17.9227, -0.100679, 26.7, 0.352034, -0.243248, 85.4501, 0, 0.701108, -0.443429, 7.81232, 0.451455, 1.68411, -0.000264039
0.102, 0.000933486, -0.496406, -0.00220609, -1.14068, 0.00607779, 0.643151, 0.285519, 0.0186591, -3.16668, -0.00907228, -7.96603, 0.0771774, 4.85238, 11.8974, -0.233266, 17.9344, -0.244541, 26.7754, -0.621659, -0.457493, -93.9803, 0, 0.717255, -0.445568, 7.89102, 0.454005, 1.684, -0.000268001
0.103, 0.00094896, -0.499532, -0.00223135, -1.14858, 0.00604699, 0.647955, 0.277748, 0.0154738, -3.12677, -0.025324, -7.9042, -0.0308048, 4.80445, -7.77153, -0.202186, 17.7067, -0.0831747, 26.6308, 0.462845, -0.218295, 87, 0, 0.732324, -0.447983, 7.96951, 0.457147, 1.68411, -0.000270662
0.104, 0.000968626, -0.502644, -0.00224288, -1.15645, 0.00611707, 0.652758, 0.288184, 0.0196662, -3.1114, -0.0114703, -7.86526, 0.0700829, 4.80276, 10.4366, -0.245094, 17.7239, -0.223224, 26.7124, -0.546992, -0.44164, -79.5055, 0, 0.747658, -0.450072, 8.04719, 0.459691, 1.68401, -0.000274623
0.105, 0.000983285, -0.505717, -0.00226596, -1.16425, 0.00609432, 0.657516, 0.281981, 0.0146584, -3.07338, -0.023133, -7.80356, -0.0227551, 4.75805, -6.20289, -0.195748, 17.5118, -0.107783, 26.5629, 0.385569, -0.23239, 87, 0, 0.762046, -0.452411, 8.12459, 0.462735, 1.68411, -0.000277301
0.106, 0.00100166, -0.508775, -0.00227416, -1.17201, 0.00617075, 0.662273, 0.293986, 0.0183722, -3.05797, -0.00814394, -7.76539, 0.0764307, 4.7568, 12.0044, -0.233805, 17.5253, -0.259286, 26.6461, -0.607673, -0.457836, -95.4741, 0, 0.77669, -0.454433, 8.20121, 0.465172, 1.68399, -0.000281267
0.107, 0.00101669, -0.511794, -0.00229935, -1.17972, 0.0061373, 0.666981, 0.286009, 0.0150302, -3.01872, -0.025251, -7.70448, -0.0334496, 4.70846, -7.97655, -0.201136, 17.2972, -0.0892567, 26.4987, 0.495858, -0.209795, 87, 0, 0.790263, -0.456735, 8.27762, 0.468226, 1.68411, -0.000283733
0.108, 0.00103633, -0.514798, -0.00231062, -1.18739, 0.00620507, 0.671689, 0.29624, 0.0196441, -3.00409, -0.0112246, -7.66752, 0.0677756, 4.70805, 10.231, -0.248258, 17.315, -0.230933, 26.5881, -0.517338, -0.441147, -77.8527, 0, 0.804114, -0.45871, 8.35326, 0.470671, 1.68401, -0.000287667
0.109, 0.00105059, -0.517765, -0.0023333, -1.19499, 0.00618161, 0.676353, 0.290178, 0.0142564, -2.967, -0.0227217, -7.6067, -0.0234623, 4.66375, -6.06214, -0.195093, 17.1054, -0.117052, 26.4355, 0.399159, -0.231231, 85.3821, 0, 0.81705, -0.460934, 8.42861, 0.473617, 1.6841, -0.00029019
0.11, 0.00106905, -0.520717, -0.00234125, -1.20256, 0.00625545, 0.681017, 0.301984, 0.0184656, -2.95209, -0.00790239, -7.57048, 0.0738381, 4.66333, 11.8059, -0.238109, 17.1171, -0.266759, 26.5265, -0.575199, -0.460307, -93.889, 0, 0.830239, -0.462846, 8.5032, 0.475954, 1.68397, -0.000294113
0.111, 0.00108364, -0.523631, -0.00236606, -1.21007, 0.00622131, 0.685632, 0.294141, 0.0145856, -2.91376, -0.0248591, -7.51045, -0.0341406, 4.61531, -7.84273, -0.200038, 16.8916, -0.0981403, 26.3761, 0.509254, -0.210832, 87, 0, 0.842387, -0.465034, 8.57759, 0.478913, 1.68409, -0.00029641
0.112, 0.00110292, -0.52653, -0.0023764, -1.21755, 0.00628839, 0.690248, 0.304505, 0.0192822, -2.89971, -0.0102942, -7.47541, 0.0670794, 4.61607, 10.3642, -0.247968, 16.9086, -0.245138, 26.4731, -0.503963, -0.449279, -79.5976, 0, 0.854819, -0.4669, 8.65122, 0.48125, 1.68398, -0.000300291
0.113, 0.00111667, -0.529394, -0.00239897, -1.22496, 0.00626226, 0.694819, 0.298211, 0.0137448, -2.8632, -0.022609, -7.41558, -0.0261306, 4.57138, -6.29366, -0.193282, 16.6981, -0.122981, 26.3189, 0.432305, -0.230872, 87, 0, 0.866338, -0.46902, 8.72458, 0.484112, 1.68407, -0.000302622
0.114, 0.0011348, -0.532243, -0.00240604, -1.23235, 0.00633539, 0.699392, 0.310124, 0.0181299, -2.84912, -0.00703014, -7.38124, 0.0731297, 4.57251, 11.9124, -0.238039, 16.7116, -0.280222, 26.4172, -0.561723, -0.470956, -95.3605, 0, 0.878134, -0.470825, 8.79719, 0.486344, 1.68394, -0.000306489
0.115, 0.00114889, -0.535054, -0.0024308, -1.23967, 0.00629874, 0.703916, 0.30208, 0.0140892, -2.81144, -0.0248012, -7.32213, -0.0366453, 4.52411, -8.04363, -0.198336, 16.4861, -0.103359, 26.2646, 0.540737, -0.213012, 87, 0, 0.888895, -0.472911, 8.86962, 0.489221, 1.68406, -0.000308584
0.116, 0.00116807, -0.537852, -0.00244092, -1.24696, 0.00636357, 0.708442, 0.312243, 0.0191848, -2.79809, -0.0100847, -7.28893, 0.0648299, 4.52605, 10.1627, -0.250252, 16.5036, -0.25178, 26.3687, -0.475012, -0.45889, -77.9699, 0, 0.899953, -0.474674, 8.9413, 0.491466, 1.68394, -0.000312378
0.117, 0.00118137, -0.540615, -0.00246309, -1.25419, 0.00633683, 0.712924, 0.306089, 0.013298, -2.7625, -0.0222053, -7.23, -0.0267398, 4.48179, -6.15406, -0.192049, 16.2959, -0.131481, 26.2123, 0.444791, -0.240271, 85.5057, 0, 0.910128, -0.476688, 9.01272, 0.494235, 1.68404, -0.000314546
0.118, 0.00119952, -0.543364, -0.00246993, -1.26138, 0.00640751, 0.717407, 0.317827, 0.0181489, -2.74889, -0.00679458, -7.19746, 0.0706769, 4.48369, 11.7386, -0.241464, 16.3078, -0.28695, 26.3175, -0.530772, -0.483515, -94.0079, 0, 0.920577, -0.478392, 9.08341, 0.496373, 1.68389, -0.000318306
0.119, 0.00121311, -0.546076, -0.00249431, -1.26852, 0.00637016, 0.721843, 0.309894, 0.0135925, -2.71209, -0.0244289, -7.13924, -0.0373524, 4.43558, -7.93372, -0.19658, 16.0848, -0.111371, 26.1628, 0.554177, -0.224109, 87, 0, 0.930018, -0.480375, 9.15392, 0.499161, 1.68401, -0.000320226
0.12, 0.0012319, -0.548775, -0.00250358, -1.27563, 0.00643418, 0.726282, 0.320165, 0.0187903, -2.6993, -0.00923241, -7.10783, 0.0640243, 4.43861, 10.272, -0.249497, 16.1016, -0.264536, 26.2738, -0.460647, -0.476469, -79.4583, 0, 0.939763, -0.482039, 9.2237, 0.501305, 1.68388, -0.00032391
0.121, 0.00124463, -0.551439, -0.00252562, -1.28268, 0.00640505, 0.730676, 0.31381, 0.0127331, -2.66429, -0.0220767, -7.04987, -0.0291364, 4.39402, -6.35579, -0.189563, 15.8935, -0.136911, 26.1163, 0.475108, -0.250137, 87, 0, 0.948628, -0.483959, 9.29324, 0.503996, 1.68398, -0.000325877
0.122, 0.00126241, -0.554091, -0.00253163, -1.2897, 0.00647502, 0.735073, 0.325658, 0.0177743, -2.65146, -0.0059618, -7.01908, 0.06998, 4.39736, 11.8489, -0.240863, 15.907, -0.299367, 26.2281, -0.517517, -0.50361, -95.5025, 0, 0.95779, -0.485567, 9.36205, 0.506034, 1.68383, -0.000329518
0.123, 0.00127546, -0.556706, -0.00255597, -1.29666, 0.00643528, 0.739422, 0.317523, 0.0130486, -2.6153, -0.0243862, -6.96175, -0.0397443, 4.34885, -8.13553, -0.194258, 15.6843, -0.115796, 26.0716, 0.584425, -0.235862, 87, 0, 0.965949, -0.487456, 9.43071, 0.508747, 1.68395, -0.000331231
0.124, 0.00129408, -0.559309, -0.00256506, -1.30359, 0.00649709, 0.743775, 0.327592, 0.0186217, -2.60315, -0.00905687, -6.93205, 0.0618057, 4.35299, 10.0696, -0.250921, 15.7015, -0.270204, 26.1891, -0.432107, -0.49501, -77.8057, 0, 0.974422, -0.489026, 9.49864, 0.510805, 1.68381, -0.000334767
0.125, 0.00130631, -0.561878, -0.00258669, -1.31047, 0.00646747, 0.748084, 0.321381, 0.0122357, -2.56903, -0.0216608, -6.87497, -0.029619, 4.30884, -6.21191, -0.187673, 15.4964, -0.144907, 26.0298, 0.486225, -0.268905, 85.3197, 0, 0.982046, -0.49085, 9.56633, 0.513409, 1.68391, -0.000336566
0.126, 0.00132407, -0.564435, -0.00259255, -1.31732, 0.00653482, 0.752396, 0.333021, 0.0177573, -2.55663, -0.0058249, -6.84585, 0.0673519, 4.3128, 11.6405, -0.243777, 15.5081, -0.30449, 26.1478, -0.484899, -0.524297, -93.7862, 0, 0.989963, -0.492367, 9.63332, 0.515361, 1.68375, -0.000340031
0.127, 0.00133656, -0.566956, -0.00261646, -1.3241, 0.00649472, 0.756661, 0.325037, 0.0124889, -2.52135, -0.0239468, -6.78939, -0.0401047, 4.2647, -7.98416, -0.191717, 15.2883, -0.123871, 25.9895, 0.594299, -0.256407, 87, 0, 0.996905, -0.494163, 9.70017, 0.517989, 1.68387, -0.000341573
0.128, 0.00135473, -0.569466, -0.00262466, -1.33087, 0.00655588, 0.760931, 0.335257, 0.0181702, -2.5097, -0.00815979, -6.76134, 0.0611626, 4.26983, 10.2202, -0.249439, 15.3046, -0.282812, 26.1132, -0.419469, -0.521298, -79.6953, 0, 1.00417, -0.495643, 9.76629, 0.51995, 1.68372, -0.000344937
0.129, 0.00136637, -0.571942, -0.00264622, -1.33757, 0.00652374, 0.765156, 0.328801, 0.0116361, -2.47612, -0.0216016, -6.70519, -0.0321438, 4.22524, -6.4561, -0.184679, 15.099, -0.149054, 25.953, 0.517734, -0.286556, 87, 0, 1.01058, -0.497381, 9.83221, 0.522483, 1.68382, -0.000346526
0.13, 0.00138371, -0.574407, -0.0026513, -1.34425, 0.00659041, 0.769387, 0.340548, 0.0173456, -2.46447, -0.00504346, -6.6777, 0.0666801, 4.23063, 11.7472, -0.242641, 15.1125, -0.315811, 26.0771, -0.47198, -0.55218, -95.2301, 0, 1.01731, -0.498811, 9.89742, 0.524342, 1.68365, -0.000349807
0.131, 0.0013956, -0.576836, -0.00267516, -1.35087, 0.00654808, 0.773569, 0.332369, 0.0118915, -2.42981, -0.0238977, -6.62209, -0.0423373, 4.18213, -8.17887, -0.188695, 14.8931, -0.127786, 25.9172, 0.622869, -0.276172, 87, 0, 1.02307, -0.500522, 9.96251, 0.526899, 1.68377, -0.000351144
0.132, 0.00141355, -0.579255, -0.0026832, -1.35747, 0.00660706, 0.777757, 0.342394, 0.0179442, -2.41877, -0.00800531, -6.59562, 0.058988, 4.18828, 10.0249, -0.250119, 14.9097, -0.287704, 26.0467, -0.391452, -0.547185, -78.0991, 0, 1.02916, -0.501917, 10.0269, 0.528781, 1.68362, -0.000354299
0.133, 0.00142466, -0.581641, -0.00270437, -1.36401, 0.00657451, 0.781901, 0.336077, 0.0111094, -2.38605, -0.0211968, -6.54033, -0.0325578, 4.14413, -6.31693, -0.182327, 14.707, -0.156382, 25.885, 0.528084, -0.312816, 85.635, 0, 1.03443, -0.503568, 10.0911, 0.531232, 1.68371, -0.000355715
0.134, 0.00144192, -0.584016, -0.00270925, -1.37052, 0.00663886, 0.786051, 0.347677, 0.0172596, -2.37481, -0.00484411, -6.51436, 0.064359, 4.15011, 11.6, -0.244692, 14.719, -0.321011, 26.0145, -0.442525, -0.580356, -94.1148, 0, 1.04001, -0.504914, 10.1546, 0.533008, 1.68353, -0.000358755
0.135, 0.0014538, -0.586357, -0.002734, -1.37698, 0.00660026, 0.790154, 0.339586, 0.0118891, -2.34118, -0.0247875, -6.45944, -0.0386103, 4.1024, -8.09107, -0.191581, 14.5044, -0.121954, 25.8516, 0.591584, -0.308248, 87, 0, 1.04466, -0.506529, 10.2179, 0.535494, 1.68365, -0.000360157
0.136, 0.00147111, -0.588687, -0.00274105, -1.38342, 0.00665869, 0.794263, 0.349697, 0.0173049, -2.33009, -0.00701228, -6.4345, 0.0584354, 4.10897, 10.111, -0.246605, 14.515, -0.300672, 25.9866, -0.380001, -0.57951, -79.3248, 0, 1.04962, -0.507847, 10.2806, 0.537287, 1.68349, -0.000363082
0.137, 0.00148066, -0.590985, -0.00276101, -1.3898, 0.00662335, 0.798327, 0.34321, 0.00954836, -2.29773, -0.0199927, -6.38031, -0.0353459, 4.06428, -6.48702, -0.169516, 14.3104, -0.171455, 25.8262, 0.56196, -0.335771, 86.9793, 0, 1.05376, -0.509433, 10.3431, 0.539669, 1.68358, -0.000364213
0.138, 0.00149651, -0.593272, -0.00276413, -1.39615, 0.00668627, 0.802399, 0.35492, 0.0158512, -2.28732, -0.00309001, -6.35599, 0.0629267, 4.07152, 11.7106, -0.233337, 14.3251, -0.341605, 25.9627, -0.422224, -0.611913, -95.5826, 0, 1.05823, -0.510712, 10.4049, 0.541356, 1.68339, -0.000366921
0.139, 0.00150676, -0.595527, -0.00278719, -1.40245, 0.00664056, 0.806421, 0.346633, 0.010248, -2.25434, -0.0230916, -6.30203, -0.0457141, 4.02296, -8.28766, -0.177818, 14.1116, -0.141991, 25.7999, 0.668883, -0.327388, 87, 0, 1.06177, -0.512267, 10.4666, 0.54377, 1.68351, -0.00036784
0.14, 0.0015243, -0.597771, -0.00279463, -1.40873, 0.00669575, 0.810453, 0.356547, 0.0175472, -2.24461, -0.0074152, -6.2784, 0.0551926, 4.03106, 9.91483, -0.251687, 14.1304, -0.299618, 25.9385, -0.341226, -0.610067, -77.7061, 0, 1.06567, -0.513501, 10.5277, 0.545488, 1.68335, -0.000370468
0.141, 0.001535, -0.599985, -0.00281591, -1.41496, 0.00666022, 0.81444, 0.350204, 0.0106925, -2.2134, -0.0213112, -6.22466, -0.0355326, 3.98715, -6.34365, -0.183675, 13.9321, -0.161078, 25.7731, 0.570108, -0.370245, 85.1959, 0, 1.06879, -0.514986, 10.5885, 0.547793, 1.68343, -0.000371506
0.142, 0.00155257, -0.602188, -0.00282069, -1.42116, 0.00672057, 0.818435, 0.361684, 0.0175744, -2.20313, -0.0047484, -6.20151, 0.0603573, 3.99481, 11.48, -0.253372, 13.943, -0.327649, 25.9119, -0.390193, -0.646818, -93.6147, 0, 1.07224, -0.516168, 10.6487, 0.549409, 1.68324, -0.000373986
0.143, 0.0015631, -0.604358, -0.00284404, -1.42731, 0.00667522, 0.822381, 0.353578, 0.010529, -2.17051, -0.0233775, -6.14838, -0.0453544, 3.94664, -8.10594, -0.183445, 13.7279, -0.141659, 25.7482, 0.671529, -0.362304, 87, 0, 1.07476, -0.517636, 10.7087, 0.551747, 1.68336, -0.000374795
0.144, 0.00157992, -0.606519, -0.00285034, -1.43343, 0.00673037, 0.826337, 0.363673, 0.0168152, -2.16077, -0.00627321, -6.12636, 0.0551561, 3.9554, 10.0956, -0.247148, 13.7414, -0.31355, 25.8936, -0.334701, -0.647814, -79.8703, 0, 1.07763, -0.518799, 10.7682, 0.553379, 1.68318, -0.000377133
0.145, 0.00158891, -0.608649, -0.00287071, -1.43951, 0.00669302, 0.830247, 0.357058, 0.008993, -2.12982, -0.0203963, -6.07368, -0.0373595, 3.91083, -6.61504, -0.169375, 13.5404, -0.172729, 25.7298, 0.594569, -0.397535, 87, 0, 1.0797, -0.520227, 10.8274, 0.555625, 1.68327, -0.000377944
0.146, 0.00160489, -0.610769, -0.00287383, -1.44556, 0.00675321, 0.834167, 0.368643, 0.0159799, -2.12028, -0.00308581, -6.05203, 0.0601944, 3.91979, 11.5854, -0.240043, 13.5535, -0.346801, 25.8745, -0.382446, -0.683421, -95.0165, 0, 1.08212, -0.521351, 10.886, 0.557158, 1.68306, -0.000380079
0.147, 0.00161401, -0.612858, -0.00289654, -1.45156, 0.00670619, 0.838038, 0.36035, 0.00912481, -2.08845, -0.0227478, -5.99965, -0.0470217, 3.87125, -8.29308, -0.171949, 13.3411, -0.150451, 25.7092, 0.694343, -0.391381, 87, 0, 1.08363, -0.522757, 10.9445, 0.559435, 1.68318, -0.000380685
0.148, 0.00163038, -0.614937, -0.00290267, -1.45754, 0.00675929, 0.841919, 0.370258, 0.0163643, -2.07944, -0.0061001, -5.97886, 0.0531027, 3.88092, 9.90786, -0.245162, 13.3569, -0.317718, 25.858, -0.307993, -0.682383, -78.322, 0, 1.08551, -0.523852, 11.0024, 0.560999, 1.68299, -0.000382689
0.149, 0.00163908, -0.616986, -0.00292293, -1.46346, 0.00672166, 0.845756, 0.36378, 0.00870002, -2.04942, -0.0202807, -5.92684, -0.037634, 3.83684, -6.47832, -0.168954, 13.1602, -0.176251, 25.6919, 0.60343, -0.433318, 85.8638, 0, 1.08662, -0.525204, 11.0601, 0.563173, 1.68308, -0.000383339
0.15, 0.00165532, -0.619027, -0.00292621, -1.46937, 0.00677969, 0.849602, 0.375263, 0.0162383, -2.04025, -0.00325624, -5.90641, 0.0580313, 3.8463, 11.4836, -0.245149, 13.172, -0.347381, 25.84, -0.354664, -0.720462, -94.3295, 0, 1.08808, -0.526254, 11.1171, 0.564633, 1.68286, -0.000385112
0.151, 0.00166407, -0.621036, -0.00294886, -1.47522, 0.00673206, 0.8534, 0.367013, 0.00875902, -2.00901, -0.0226742, -5.85479, -0.0476269, 3.7979, -8.25038, -0.170794, 12.9606, -0.153403, 25.6735, 0.70651, -0.426226, 87, 0, 1.08864, -0.527588, 11.1741, 0.566844, 1.68298, -0.000385568
0.152, 0.00168003, -0.623036, -0.00295443, -1.48106, 0.00678408, 0.857209, 0.376963, 0.0159603, -2.00032, -0.00554365, -5.83533, 0.0520148, 3.80831, 9.94976, -0.243605, 12.9747, -0.325459, 25.827, -0.29102, -0.720917, -79.0762, 0, 1.08958, -0.528617, 11.2304, 0.568332, 1.68278, -0.000387208
0.153, 0.00168787, -0.625007, -0.00297435, -1.48684, 0.00674506, 0.860973, 0.370369, 0.00783504, -1.9708, -0.0199437, -5.78415, -0.0390177, 3.76401, -6.59358, -0.162744, 12.7781, -0.181752, 25.6605, 0.623369, -0.466035, 86.6869, 0, 1.08974, -0.529906, 11.2866, 0.570445, 1.68287, -0.000387663
0.154, 0.00170349, -0.626969, -0.00297687, -1.49261, 0.00680211, 0.864747, 0.381909, 0.0156195, -1.96217, -0.00250173, -5.76501, 0.057048, 3.77445, 11.5398, -0.241369, 12.7905, -0.357033, 25.813, -0.338756, -0.7594, -95.2235, 0, 1.09028, -0.530894, 11.3421, 0.571829, 1.68264, -0.000389028
0.155, 0.00171137, -0.628901, -0.00299926, -1.49832, 0.00675304, 0.868473, 0.373528, 0.00787899, -1.93153, -0.0224097, -5.71411, -0.049066, 3.72577, -8.38044, -0.164358, 12.5804, -0.158107, 25.6452, 0.72699, -0.458812, 87, 0, 1.08992, -0.532167, 11.3976, 0.573982, 1.68275, -0.000389313
0.156, 0.00172689, -0.630824, -0.00300457, -1.50402, 0.0068032, 0.87221, 0.383347, 0.0155192, -1.92336, -0.00529178, -5.69587, 0.0501571, 3.73696, 9.819, -0.241536, 12.5948, -0.329987, 25.8024, -0.266327, -0.757743, -78.0879, 0, 1.08995, -0.533133, 11.4525, 0.575404, 1.68255, -0.000390555
0.157, 0.00173412, -0.632718, -0.00302417, -1.50966, 0.00676373, 0.875903, 0.37683, 0.00722802, -1.89457, -0.0196154, -5.6454, -0.0394752, 3.69296, -6.517, -0.158986, 12.4009, -0.186996, 25.6347, 0.634016, -0.502318, 85.598, 0, 1.08922, -0.534358, 11.5072, 0.577451, 1.68263, -0.000390835
0.158, 0.0017496, -0.634605, -0.00302664, -1.51529, 0.00681846, 0.879607, 0.388218, 0.0154809, -1.8863, -0.00245216, -5.62743, 0.0547413, 3.70383, 11.3878, -0.242289, 12.4122, -0.359428, 25.7904, -0.309566, -0.796397, -94.0192, 0, 1.08887, -0.535282, 11.5612, 0.57877, 1.68239, -0.000391757
0.159, 0.00175683, -0.636461, -0.00304866, -1.52087, 0.00676921, 0.883262, 0.379938, 0.00723164, -1.85635, -0.0220399, -5.57725, -0.0492538, 3.65546, -8.2797, -0.160158, 12.2043, -0.16366, 25.6215, 0.734934, -0.495386, 87, 0, 1.08764, -0.536492, 11.6153, 0.580858, 1.6825, -0.000391898
0.16, 0.00177191, -0.63831, -0.00305334, -1.52643, 0.0068184, 0.886929, 0.389857, 0.0150851, -1.84854, -0.00465441, -5.56018, 0.0491856, 3.66732, 9.91891, -0.239447, 12.2177, -0.338187, 25.7822, -0.25057, -0.797607, -79.4124, 0, 1.0868, -0.537398, 11.6687, 0.582205, 1.68229, -0.0003927
0.161, 0.00177838, -0.64013, -0.00307279, -1.53194, 0.00677724, 0.890552, 0.383164, 0.00647148, -1.82021, -0.0194811, -5.51045, -0.0411573, 3.62296, -6.69348, -0.153634, 12.0239, -0.190115, 25.6138, 0.656909, -0.535067, 87, 0, 1.08522, -0.538566, 11.722, 0.584199, 1.68237, -0.000392796
0.162, 0.00179338, -0.641942, -0.00307459, -1.53743, 0.00683125, 0.894187, 0.394667, 0.0149971, -1.81249, -0.00177392, -5.49366, 0.0540124, 3.63492, 11.5038, -0.23964, 12.0362, -0.367962, 25.7732, -0.296243, -0.836623, -95.5018, 0, 1.08402, -0.539431, 11.7746, 0.585444, 1.68212, -0.000393241
0.163, 0.00179981, -0.643725, -0.00309651, -1.54288, 0.00678031, 0.897773, 0.386194, 0.00643044, -1.78304, -0.0219431, -5.44416, -0.0509433, 3.5861, -8.47301, -0.154295, 11.8287, -0.166329, 25.603, 0.757898, -0.5276, 87, 0, 1.08195, -0.540586, 11.8272, 0.587481, 1.68223, -0.00039323
0.164, 0.00181446, -0.645501, -0.00310109, -1.54831, 0.00682739, 0.901372, 0.395919, 0.0146485, -1.77568, -0.00455001, -5.42822, 0.0470781, 3.59868, 9.72491, -0.237208, 11.8422, -0.340881, 25.767, -0.223381, -0.83354, -77.7756, 0, 1.08027, -0.541435, 11.8792, 0.58877, 1.68201, -0.000393577
0.165, 0.00182026, -0.647249, -0.00312008, -1.55369, 0.00678626, 0.904927, 0.389375, 0.00580371, -1.7481, -0.0190121, -5.37919, -0.0411332, 3.55479, -6.54451, -0.14905, 11.6515, -0.196419, 25.5976, 0.662717, -0.572369, 85.2459, 0, 1.07787, -0.542544, 11.9311, 0.590698, 1.68209, -0.000393504
0.166, 0.00183508, -0.64899, -0.00312191, -1.55905, 0.00683758, 0.908494, 0.40066, 0.0148143, -1.74066, -0.0018133, -5.36346, 0.051324, 3.56691, 11.2851, -0.239897, 11.6621, -0.369125, 25.7597, -0.263234, -0.872098, -93.614, 0, 1.07586, -0.543353, 11.9824, 0.591885, 1.68183, -0.000393435
0.167, 0.00184079, -0.650702, -0.00314331, -1.56436, 0.00678697, 0.912012, 0.392364, 0.00571346, -1.71191, -0.0214197, -5.31464, -0.0506077, 3.5186, -8.29604, -0.149174, 11.4573, -0.173088, 25.5885, 0.760586, -0.564894, 87, 0, 1.07299, -0.54445, 12.0336, 0.593858, 1.68194, -0.000393292
0.168, 0.00185499, -0.652407, -0.00314712, -1.56966, 0.00683332, 0.915544, 0.402265, 0.0141996, -1.70488, -0.00379114, -5.29978, 0.0463517, 3.53178, 9.90097, -0.234746, 11.4698, -0.349977, 25.7555, -0.210109, -0.87349, -79.8534, 0, 1.07053, -0.545244, 12.0843, 0.595074, 1.6817, -0.000393121
0.169, 0.00186, -0.654084, -0.00316607, -1.57491, 0.00679021, 0.919031, 0.395462, 0.00500382, -1.67768, -0.0189714, -5.25144, -0.0431128, 3.48732, -6.80231, -0.143038, 11.2785, -0.198286, 25.5852, 0.688574, -0.603144, 87, 0, 1.06733, -0.546304, 12.1348, 0.596956, 1.68178, -0.000392879
0.17, 0.00187429, -0.655755, -0.00316726, -1.58015, 0.00684084, 0.922532, 0.406856, 0.0142971, -1.6708, -0.00116782, -5.23681, 0.0506291, 3.50058, 11.3934, -0.236686, 11.2904, -0.377018, 25.7506, -0.250259, -0.911051, -95.0072, 0, 1.06454, -0.547059, 12.1847, 0.598074, 1.68151, -0.000392261
0.171, 0.00187916, -0.657398, -0.00318854, -1.58534, 0.00678873, 0.925984, 0.398377, 0.00487224, -1.64254, -0.0212941, -5.18862, -0.0521143, 3.45184, -8.4783, -0.142681, 11.0862, -0.175739, 25.5782, 0.781706, -0.596145, 87, 0, 1.06091, -0.548107, 12.2346, 0.599999, 1.68161, -0.00039199
0.172, 0.00189292, -0.659034, -0.00319226, -1.59051, 0.00683299, 0.929449, 0.408095, 0.0137558, -1.63593, -0.0036981, -5.1748, 0.0442686, 3.46567, 9.718, -0.232204, 11.0988, -0.352256, 25.7479, -0.183175, -0.907972, -78.3153, 0, 1.05768, -0.54885, 12.2839, 0.60116, 1.68137, -0.000391304
0.173, 0.00189726, -0.660643, -0.00321076, -1.59564, 0.00678994, 0.932871, 0.401432, 0.00433773, -1.60944, -0.0185238, -5.12711, -0.0430538, 3.42166, -6.66296, -0.13824, 10.9104, -0.204079, 25.5766, 0.694022, -0.638927, 85.8275, 0, 1.05374, -0.549855, 12.3331, 0.602981, 1.68144, -0.000390898
0.174, 0.00191135, -0.662246, -0.00321183, -1.60076, 0.0068384, 0.936306, 0.412719, 0.0140964, -1.60285, -0.00105499, -5.11345, 0.0484585, 3.43518, 11.2867, -0.236531, 10.9211, -0.379417, 25.7443, -0.222463, -0.946084, -94.233, 0, 1.05021, -0.550559, 12.3818, 0.604041, 1.68117, -0.000389695
0.175, 0.00191549, -0.663821, -0.00323274, -1.60582, 0.0067861, 0.939693, 0.404297, 0.00413506, -1.57516, -0.0209228, -5.06591, -0.0522992, 3.38664, -8.42224, -0.137125, 10.7186, -0.180691, 25.5708, 0.789597, -0.629991, 87, 0, 1.04584, -0.551556, 12.4304, 0.60591, 1.68126, -0.000389309
0.176, 0.00192878, -0.66539, -0.00323592, -1.61087, 0.00682919, 0.943094, 0.41407, 0.0132903, -1.56888, -0.00316101, -5.05309, 0.0430891, 3.40103, 9.7732, -0.229342, 10.7302, -0.358843, 25.7432, -0.165342, -0.944196, -79.166, 0, 1.04188, -0.552249, 12.4784, 0.607008, 1.68101, -0.000388047
0.177, 0.00193228, -0.666933, -0.00325418, -1.61588, 0.00678498, 0.946451, 0.407285, 0.00349855, -1.54284, -0.0182824, -5.00605, -0.0442085, 3.35679, -6.78496, -0.131599, 10.5424, -0.207676, 25.5711, 0.711617, -0.669545, 86.7549, 0, 1.03722, -0.553209, 12.5263, 0.608781, 1.68108, -0.00038749
0.178, 0.00194591, -0.668469, -0.00325471, -1.62087, 0.0068324, 0.949822, 0.418643, 0.0136317, -1.53671, -0.000506868, -4.99339, 0.0474184, 3.37115, 11.3578, -0.233612, 10.5537, -0.38606, 25.7415, -0.206027, -0.982006, -95.2407, 0, 1.03298, -0.553864, 12.5736, 0.609777, 1.68079, -0.000385656
0.179, 0.00194918, -0.669979, -0.00327542, -1.62582, 0.00677896, 0.953144, 0.410082, 0.00327488, -1.5095, -0.0207331, -4.94644, -0.0534342, 3.3223, -8.56098, -0.130208, 10.3519, -0.183713, 25.5667, 0.806994, -0.659517, 87, 0, 1.02791, -0.554816, 12.621, 0.611601, 1.68089, -0.000385172
0.18, 0.001962, -0.671483, -0.00327844, -1.63075, 0.00682015, 0.956481, 0.419715, 0.0128161, -1.5036, -0.0029939, -4.93458, 0.041184, 3.33728, 9.63371, -0.226261, 10.3635, -0.361602, 25.7416, -0.140202, -0.976394, -78.0534, 0, 1.02325, -0.555463, 12.6677, 0.612645, 1.68063, -0.000383331
0.181, 0.00196478, -0.672961, -0.00329628, -1.63564, 0.00677587, 0.959775, 0.413024, 0.00278383, -1.47821, -0.0178573, -4.88817, -0.0442771, 3.29338, -6.69112, -0.126078, 10.1781, -0.212989, 25.5685, 0.71834, -0.702009, 85.5295, 0, 1.01792, -0.556375, 12.7144, 0.614363, 1.68069, -0.00038262
0.182, 0.00197816, -0.674433, -0.00329677, -1.64052, 0.00682093, 0.963083, 0.424219, 0.0133745, -1.47236, -0.000477794, -4.8764, 0.0450607, 3.30792, 11.1945, -0.232653, 10.1883, -0.387367, 25.7407, -0.176346, -1.01316, -93.8869, 0, 1.01299, -0.556984, 12.7605, 0.615308, 1.68039, -0.000380143
0.183, 0.00198066, -0.675879, -0.003317, -1.64535, 0.00676775, 0.966342, 0.415778, 0.0025026, -1.44574, -0.0202458, -4.83006, -0.0531793, 3.25946, -8.44024, -0.124059, 9.9887, -0.189581, 25.565, 0.810481, -0.691417, 87, 0, 1.00725, -0.557889, 12.8066, 0.617076, 1.68048, -0.000379557
0.184, 0.00199305, -0.677319, -0.00331941, -1.65017, 0.00680793, 0.969617, 0.425532, 0.0123907, -1.44015, -0.00238872, -4.81912, 0.0401849, 3.27493, 9.75353, -0.223559, 9.99952, -0.368633, 25.742, -0.124187, -1.01017, -79.5423, 0, 1.00194, -0.55849, 12.8521, 0.618058, 1.68021, -0.000377059
0.185, 0.00199498, -0.678734, -0.0033371, -1.65494, 0.00676228, 0.972848, 0.41865, 0.00193117, -1.41513, -0.0177125, -4.77331, -0.0456537, 3.23061, -6.8819, -0.119061, 9.81405, -0.215382, 25.568, 0.738157, -0.728443, 87, 0, 0.995938, -0.559362, 12.8975, 0.619734, 1.68027, -0.000376227
0.186, 0.00200788, -0.680144, -0.003337, -1.6597, 0.00680656, 0.976094, 0.42996, 0.0128957, -1.40975, 0.000120003, -4.76248, 0.0442785, 3.24613, 11.3105, -0.229351, 9.82519, -0.394276, 25.7427, -0.162496, -1.04619, -95.3332, 0, 0.990368, -0.559926, 12.9424, 0.620617, 1.67996, -0.000373039
0.187, 0.00200948, -0.681527, -0.00335708, -1.66442, 0.00675214, 0.979291, 0.421334, 0.00159979, -1.38356, -0.0200961, -4.7167, -0.0544206, 3.19721, -8.62593, -0.116472, 9.626, -0.191978, 25.5657, 0.828943, -0.716819, 87, 0, 0.983983, -0.560793, 12.9873, 0.622344, 1.68005, -0.000372393
0.188, 0.00202136, -0.682906, -0.0033594, -1.66913, 0.00679026, 0.982504, 0.430901, 0.0118839, -1.37834, -0.00230647, -4.70665, 0.0381226, 3.21323, 9.56711, -0.219907, 9.6368, -0.370317, 25.7448, -0.0974596, -1.03793, -77.9467, 0, 0.97803, -0.561352, 13.0316, 0.62328, 1.67977, -0.00036927
0.189, 0.00202258, -0.68426, -0.0033766, -1.67379, 0.00674489, 0.985674, 0.424168, 0.00121551, -1.35398, -0.0172104, -4.66143, -0.0453711, 3.16941, -6.734, -0.113284, 9.45425, -0.221247, 25.5699, 0.741367, -0.758105, 85.4012, 0, 0.971409, -0.562181, 13.0759, 0.624901, 1.67982, -0.000368288
0.19, 0.00203524, -0.685609, -0.00337653, -1.67844, 0.00678666, 0.988859, 0.435291, 0.0126589, -1.34883, 7.70991e-05, -4.65141, 0.041766, 3.18494, 11.1232, -0.228351, 9.46406, -0.394646, 25.746, -0.131256, -1.07297, -93.7269, 0, 0.965218, -0.562702, 13.1196, 0.625737, 1.67951, -0.000364398
0.191, 0.00203607, -0.686932, -0.00339609, -1.68305, 0.00673274, 0.991995, 0.426814, 0.000830125, -1.32321, -0.0195651, -4.60621, -0.0539177, 3.1365, -8.4764, -0.110105, 9.26702, -0.198071, 25.5681, 0.829951, -0.745377, 87, 0, 0.958228, -0.563526, 13.1633, 0.627411, 1.67959, -0.000363664
0.192, 0.00204755, -0.68825, -0.00339778, -1.68764, 0.00676994, 0.995148, 0.43653, 0.0114837, -1.31828, -0.00167708, -4.597, 0.0371995, 3.15296, 9.71568, -0.217215, 9.27704, -0.377384, 25.749, -0.0822059, -1.06791, -79.7138, 0, 0.951676, -0.564043, 13.2065, 0.628286, 1.6793, -0.000359805
0.193, 0.00204786, -0.689544, -0.00341484, -1.6922, 0.00672319, 0.998257, 0.429576, 0.00031091, -1.29423, -0.0170715, -4.55235, -0.0467465, 3.10863, -6.95413, -0.105502, 9.09403, -0.22338, 25.5732, 0.761176, -0.780005, 87, 0, 0.944447, -0.564837, 13.2496, 0.62987, 1.67935, -0.000358737
0.194, 0.00206001, -0.690834, -0.00341417, -1.69674, 0.00676419, 1.00138, 0.440812, 0.0121495, -1.28955, 0.000675373, -4.54322, 0.0409972, 3.12513, 11.2366, -0.224496, 9.10494, -0.401363, 25.7516, -0.117533, -1.10157, -95.1369, 0, 0.937667, -0.565318, 13.2921, 0.630648, 1.67902, -0.00035406
0.195, 0.00205989, -0.692098, -0.00343354, -1.70124, 0.00670919, 1.00446, 0.432155, -0.000118565, -1.26433, -0.0193756, -4.49855, -0.055, 3.07626, -8.65699, -0.101809, 8.90841, -0.200674, 25.5724, 0.846826, -0.766591, 87, 0, 0.930086, -0.566107, 13.3347, 0.632285, 1.6791, -0.000353303
0.196, 0.00207086, -0.693358, -0.00343515, -1.70573, 0.00674435, 1.00755, 0.44169, 0.0109657, -1.25976, -0.00159777, -4.49016, 0.0351598, 3.09322, 9.53436, -0.2132, 8.91851, -0.378852, 25.755, -0.0556983, -1.09114, -78.1585, 0, 0.922951, -0.566587, 13.3767, 0.633117, 1.6788, -0.000348766
0.197, 0.00207046, -0.694594, -0.00345171, -1.71017, 0.00669795, 1.0106, 0.43488, -0.000400534, -1.23634, -0.0165741, -4.44606, -0.046403, 3.04939, -6.80959, -0.0995176, 8.73839, -0.229014, 25.5783, 0.763782, -0.805256, 85.6215, 0, 0.91516, -0.56734, 13.4187, 0.634649, 1.67884, -0.000347559
0.198, 0.00208238, -0.695826, -0.00345105, -1.71461, 0.00673663, 1.01367, 0.445972, 0.0119239, -1.2319, 0.000671621, -4.43767, 0.0386855, 3.06592, 11.092, -0.223358, 8.74819, -0.401945, 25.7577, -0.0883044, -1.12419, -93.9492, 0, 0.907814, -0.567782, 13.4601, 0.635382, 1.6785, -0.000342112
0.199, 0.00208148, -0.697033, -0.00346994, -1.71901, 0.00668201, 1.01668, 0.43742, -0.000898074, -1.20719, -0.0188951, -4.39355, -0.0546207, 3.01742, -8.5523, -0.0950935, 8.55334, -0.206086, 25.5776, 0.849077, -0.789965, 87, 0, 0.899681, -0.568534, 13.5016, 0.63697, 1.67858, -0.000341298
0.2, 0.00209205, -0.698236, -0.00347101, -1.72339, 0.00671609, 1.01972, 0.447058, 0.0105621, -1.20288, -0.0010579, -4.38595, 0.0340776, 3.03478, 9.63811, -0.210223, 8.56274, -0.384846, 25.7618, -0.0388334, -1.11566, -79.4644, 0, 0.891999, -0.568976, 13.5425, 0.637747, 1.67827, -0.000335965
0.201, 0.00209072, -0.699416, -0.00348734, -1.72773, 0.00666869, 1.02271, 0.44008, -0.00132733, -1.1798, -0.0163449, -4.3424, -0.0474026, 2.99058, -6.97809, -0.0912627, 8.38251, -0.231882, 25.5843, 0.779834, -0.823185, 87, 0, 0.883655, -0.569698, 13.5834, 0.639243, 1.6783, -0.000334696
0.202, 0.00210216, -0.700592, -0.0034861, -1.73207, 0.00670655, 1.02572, 0.45129, 0.0114458, -1.17578, 0.00125485, -4.33482, 0.0378652, 3.00797, 11.2109, -0.219566, 8.39329, -0.408346, 25.7656, -0.0740586, -1.14784, -95.4042, 0, 0.875775, -0.570102, 13.6237, 0.639921, 1.67795, -0.00032838
0.203, 0.00210029, -0.701743, -0.00350478, -1.73636, 0.00665097, 1.02868, 0.442554, -0.00187162, -1.15144, -0.0186916, -4.29119, -0.0555804, 2.95903, -8.73672, -0.0862984, 8.1988, -0.208669, 25.5843, 0.86473, -0.806269, 87, 0, 0.867102, -0.570824, 13.6641, 0.641475, 1.67802, -0.000327588
0.204, 0.00211031, -0.702891, -0.00350577, -1.74064, 0.00668302, 1.03165, 0.452007, 0.0100187, -1.14748, -0.000981579, -4.28436, 0.0320545, 2.97685, 9.45294, -0.205703, 8.20829, -0.386127, 25.77, -0.0124855, -1.13364, -77.8602, 0, 0.858888, -0.571231, 13.7039, 0.642211, 1.67771, -0.000321532
0.205, 0.00210826, -0.704016, -0.00352158, -1.74489, 0.00663607, 1.03459, 0.445179, -0.00205226, -1.12501, -0.0158173, -4.24134, -0.0469527, 2.93318, -6.82718, -0.0848904, 8.03097, -0.237666, 25.5917, 0.781381, -0.843566, 85.2825, 0, 0.850033, -0.571918, 13.7437, 0.643658, 1.67774, -0.000320132
0.206, 0.00211945, -0.705137, -0.00352044, -1.74912, 0.00667139, 1.03754, 0.456181, 0.0111928, -1.1212, 0.00114522, -4.23444, 0.0353172, 2.95046, 11.0019, -0.217901, 8.04053, -0.407717, 25.7737, -0.0424446, -1.16425, -93.5583, 0, 0.841636, -0.572287, 13.783, 0.644297, 1.67738, -0.000313012
0.207, 0.00211681, -0.706234, -0.00353853, -1.75331, 0.00661662, 1.04044, 0.447622, -0.00263998, -1.09739, -0.0181002, -4.19134, -0.0547719, 2.9021, -8.55893, -0.0794408, 7.84818, -0.215045, 25.5916, 0.86269, -0.825707, 87, 0, 0.832465, -0.572974, 13.8223, 0.645802, 1.67744, -0.000312163
0.208, 0.0021265, -0.707328, -0.00353891, -1.7575, 0.00664779, 1.04336, 0.457252, 0.0096915, -1.09368, -0.000366449, -4.18523, 0.0311772, 2.92028, 9.62974, -0.20324, 7.85706, -0.392735, 25.7785, 0.00232116, -1.15383, -79.8904, 0, 0.823757, -0.573346, 13.8611, 0.646483, 1.67711, -0.000305212
0.209, 0.00212348, -0.708399, -0.00355457, -1.76164, 0.00659962, 1.04624, 0.450178, -0.00302101, -1.07144, -0.0156705, -4.14271, -0.0481741, 2.87603, -7.074, -0.075964, 7.67884, -0.239571, 25.5992, 0.799661, -0.855089, 87, 0, 0.814396, -0.574005, 13.8999, 0.6479, 1.67714, -0.000303815
0.21, 0.00213415, -0.709468, -0.00355286, -1.76578, 0.00663417, 1.04913, 0.461291, 0.0106723, -1.06806, 0.00172668, -4.1366, 0.0345535, 2.89425, 11.1134, -0.213431, 7.6896, -0.413965, 25.7832, -0.0287569, -1.18235, -94.9285, 0, 0.805512, -0.574341, 13.9381, 0.648487, 1.67677, -0.000295756
0.211, 0.0021305, -0.710512, -0.00357069, -1.76987, 0.00657861, 1.05198, 0.452558, -0.00365268, -1.04463, -0.0178457, -4.09397, -0.0555685, 2.84547, -8.73306, -0.0699983, 7.4978, -0.218009, 25.5999, 0.876716, -0.836835, 87, 0, 0.79585, -0.575001, 13.9764, 0.649961, 1.67683, -0.000294971
0.212, 0.00213965, -0.711553, -0.00357099, -1.77396, 0.0066078, 1.05484, 0.462013, 0.00915184, -1.04125, -0.000286987, -4.08857, 0.0291948, 2.86407, 9.45487, -0.198501, 7.50693, -0.393922, 25.788, 0.0282658, -1.16637, -78.3797, 0, 0.786659, -0.575342, 14.0141, 0.650604, 1.67649, -0.000287247
0.213, 0.00213592, -0.712573, -0.00358614, -1.778, 0.0065601, 1.05766, 0.455081, -0.00373124, -1.0196, -0.0151601, -4.04655, -0.0477003, 2.82033, -6.93237, -0.0694838, 7.33154, -0.245061, 25.6079, 0.800973, -0.869996, 85.8393, 0, 0.776834, -0.575969, 14.0519, 0.651975, 1.67651, -0.000285735
0.214, 0.00214639, -0.713589, -0.0035844, -1.78205, 0.00659257, 1.0605, 0.466092, 0.0104657, -1.01645, 0.00174857, -4.04107, 0.0324706, 2.83857, 11.0115, -0.211976, 7.34154, -0.414537, 25.7923, -0.00181286, -1.19466, -94.1495, 0, 0.767484, -0.576271, 14.0891, 0.652521, 1.67613, -0.00027678
0.215, 0.00214194, -0.714583, -0.00360179, -1.78604, 0.00653736, 1.06329, 0.457421, -0.00444789, -0.993428, -0.0173955, -3.99892, -0.05521, 2.79007, -8.6712, -0.0626181, 7.15088, -0.222857, 25.6081, 0.879186, -0.849085, 87, 0, 0.757366, -0.576902, 14.1264, 0.653954, 1.67618, -0.000276002
0.216, 0.0021507, -0.715573, -0.00360165, -1.79004, 0.00656534, 1.0661, 0.466937, 0.00875758, -0.9903, 0.000152995, -3.99422, 0.0279781, 2.80901, 9.51582, -0.195111, 7.15947, -0.398658, 25.7975, 0.0465022, -1.17927, -79.2354, 0, 0.747723, -0.577211, 14.1631, 0.65455, 1.67583, -0.000267368
0.217, 0.00214601, -0.716542, -0.00361646, -1.79399, 0.00651711, 1.06886, 0.459887, -0.00468431, -0.968961, -0.0148247, -3.95269, -0.048235, 2.76505, -7.04951, -0.0604576, 6.98425, -0.248743, 25.6166, 0.812383, -0.877957, 86.7704, 0, 0.737442, -0.577813, 14.1999, 0.655888, 1.67584, -0.000265852
0.218, 0.00215603, -0.717508, -0.00361424, -1.79794, 0.00654853, 1.07165, 0.470975, 0.0100189, -0.966188, 0.00223061, -3.94791, 0.0314222, 2.78394, 11.0881, -0.207991, 6.99504, -0.419678, 25.8025, 0.0147386, -1.20648, -95.1605, 0, 0.727651, -0.578084, 14.2361, 0.656387, 1.67545, -0.000255892
0.219, 0.00215059, -0.718452, -0.00363132, -1.80185, 0.00649284, 1.07438, 0.46217, -0.00544356, -0.943517, -0.0170849, -3.90621, -0.0556906, 2.73516, -8.80496, -0.0530939, 6.80494, -0.226276, 25.6171, 0.890052, -0.855303, 87, 0, 0.717088, -0.578691, 14.2724, 0.657788, 1.6755, -0.000255216
0.22, 0.00215882, -0.719393, -0.00363103, -1.80575, 0.006519, 1.07714, 0.471552, 0.00823107, -0.940697, 0.000295269, -3.90217, 0.026162, 2.75447, 9.38128, -0.190252, 6.81369, -0.400373, 25.8076, 0.0707778, -1.18653, -78.1207, 0, 0.707007, -0.578972, 14.3082, 0.658348, 1.67514, -0.000245749
0.221, 0.00215338, -0.720312, -0.00364535, -1.80961, 0.00647113, 1.07985, 0.464601, -0.00543749, -0.919882, -0.0143269, -3.86112, -0.0478675, 2.71092, -6.95035, -0.0532942, 6.64084, -0.25401, 25.6259, 0.814762, -0.886563, 85.5431, 0, 0.696304, -0.579546, 14.344, 0.659644, 1.67515, -0.000244148
0.222, 0.00216312, -0.72123, -0.00364316, -1.81347, 0.00650035, 1.08258, 0.475531, 0.0097331, -0.917327, 0.00219806, -3.85694, 0.0292238, 2.72978, 10.9299, -0.205487, 6.65094, -0.41961, 25.8122, 0.0428527, -1.21209, -93.8061, 0, 0.686088, -0.579787, 14.3792, 0.660108, 1.67475, -0.000233271
0.223, 0.00215688, -0.722125, -0.00365968, -1.81728, 0.00644537, 1.08526, 0.466852, -0.00623593, -0.89511, -0.0165233, -3.81571, -0.0549835, 2.68146, -8.67917, -0.0454847, 6.46254, -0.23215, 25.626, 0.889034, -0.862871, 87, 0, 0.675114, -0.580367, 14.4146, 0.661467, 1.67479, -0.000232597
0.224, 0.00216481, -0.723017, -0.0036589, -1.82109, 0.00647049, 1.08796, 0.476358, 0.00792537, -0.892541, 0.000786677, -3.8123, 0.0251222, 2.70108, 9.50613, -0.187494, 6.471, -0.405539, 25.8174, 0.0872327, -1.19449, -79.6096, 0, 0.664627, -0.580618, 14.4494, 0.66198, 1.67442, -0.00022212
0.225, 0.0021584, -0.723889, -0.00367297, -1.82487, 0.00642191, 1.09062, 0.469222, -0.00640675, -0.871957, -0.0140775, -3.7717, -0.0485855, 2.65712, -7.13588, -0.0438524, 6.29764, -0.256746, 25.6348, 0.828008, -0.887792, 87, 0, 0.653508, -0.58117, 14.4842, 0.663249, 1.67442, -0.000220595
0.226, 0.00216769, -0.724759, -0.00367024, -1.82863, 0.00645032, 1.09329, 0.48027, 0.00929316, -0.869792, 0.00273229, -3.7682, 0.0284108, 2.67678, 11.0481, -0.201316, 6.30886, -0.425194, 25.8225, 0.0570415, -1.21865, -95.225, 0, 0.642894, -0.581383, 14.5185, 0.663666, 1.67401, -0.000208622
0.227, 0.00216042, -0.725607, -0.00368648, -1.83236, 0.00639477, 1.09592, 0.471413, -0.00727005, -0.847878, -0.0162384, -3.7274, -0.0555544, 2.62805, -8.8567, -0.0353206, 6.12074, -0.235234, 25.6353, 0.900804, -0.862661, 87, 0, 0.631514, -0.581943, 14.553, 0.664999, 1.67405, -0.000208124
0.228, 0.00216778, -0.726453, -0.00368562, -1.83609, 0.00641798, 1.09857, 0.480741, 0.007357, -0.845612, 0.000868425, -3.72461, 0.0232136, 2.64802, 9.32787, -0.181959, 6.12947, -0.406572, 25.8276, 0.112444, -1.19519, -78.0461, 0, 0.620629, -0.582168, 14.5869, 0.665479, 1.67367, -0.000196802
0.229, 0.00216065, -0.727278, -0.00369913, -1.83977, 0.00637002, 1.10117, 0.473755, -0.00712373, -0.825579, -0.0135166, -3.68447, -0.0479599, 2.60463, -6.98668, -0.0367955, 5.95893, -0.262572, 25.6443, 0.827805, -0.891455, 85.4487, 0, 0.60913, -0.582695, 14.6208, 0.666707, 1.67366, -0.000195181
0.23, 0.0021697, -0.728102, -0.00369649, -1.84345, 0.00639616, 1.1038, 0.484627, 0.00904107, -0.823605, 0.0026397, -3.68151, 0.0261466, 2.62412, 10.8723, -0.198896, 5.96936, -0.424452, 25.8321, 0.0858177, -1.21806, -93.6842, 0, 0.598132, -0.58288, 14.6542, 0.667092, 1.67324, -0.000182259
0.231, 0.00216167, -0.728904, -0.00371214, -1.84709, 0.00634147, 1.10637, 0.475917, -0.00802699, -0.802121, -0.015652, -3.64115, -0.0546973, 2.57593, -8.70962, -0.0278135, 5.78288, -0.241288, 25.6442, 0.898284, -0.864865, 87, 0, 0.586381, -0.583415, 14.6877, 0.668384, 1.67327, -0.000181775
0.232, 0.00216877, -0.729704, -0.00371078, -1.85073, 0.00636372, 1.10897, 0.485391, 0.00709668, -0.800093, 0.00136917, -3.63896, 0.022254, 2.59617, 9.47401, -0.179405, 5.79135, -0.411765, 25.8372, 0.128093, -1.19753, -79.7399, 0, 0.575131, -0.583612, 14.7207, 0.668819, 1.67288, -0.000169363
0.233, 0.00216063, -0.730484, -0.00372403, -1.85433, 0.00631508, 1.11152, 0.478197, -0.00813279, -0.780241, -0.0132562, -3.59926, -0.0486459, 2.55231, -7.19375, -0.0267038, 5.61997, -0.265357, 25.6531, 0.840728, -0.886557, 87, 0, 0.563254, -0.584121, 14.7537, 0.670023, 1.67287, -0.000167881
0.234, 0.00216921, -0.731263, -0.00372085, -1.85793, 0.00634044, 1.11409, 0.489186, 0.00858167, -0.778651, 0.00318344, -3.59694, 0.0253666, 2.57262, 10.9886, -0.194277, 5.63164, -0.430073, 25.8423, 0.0996756, -1.21863, -95.0759, 0, 0.551895, -0.584281, 14.7862, 0.670364, 1.67243, -0.000153794
0.235, 0.00216013, -0.73202, -0.00373618, -1.86149, 0.00628529, 1.11662, 0.480303, -0.00908565, -0.757463, -0.0153279, -3.55699, -0.0551528, 2.52403, -8.88328, -0.0171499, 5.44552, -0.24471, 25.6533, 0.908895, -0.858932, 87, 0, 0.539777, -0.584798, 14.8188, 0.671632, 1.67246, -0.00015354
0.236, 0.00216666, -0.732776, -0.00373474, -1.86504, 0.00630568, 1.11916, 0.489602, 0.00653112, -0.755736, 0.00145053, -3.55539, 0.0203973, 2.54461, 9.29964, -0.173644, 5.45442, -0.412741, 25.8471, 0.15278, -1.19234, -78.2067, 0, 0.528167, -0.584973, 14.8509, 0.672037, 1.67206, -0.00014025
0.237, 0.00215783, -0.733513, -0.00374743, -1.86856, 0.0062577, 1.12166, 0.482555, -0.00882686, -0.736417, -0.0127006, -3.51611, -0.0479899, 2.50131, -7.04701, -0.019623, 5.28583, -0.27108, 25.6623, 0.840215, -0.884462, 85.6121, 0, 0.515948, -0.585458, 14.8831, 0.673201, 1.67204, -0.000138689
0.238, 0.00216619, -0.734248, -0.00374432, -1.87207, 0.00628097, 1.12419, 0.4934, 0.00836081, -0.735021, 0.00311435, -3.51429, 0.0232799, 2.52147, 10.8445, -0.191918, 5.29693, -0.429519, 25.8514, 0.126664, -1.21261, -93.8452, 0, 0.504244, -0.585592, 14.9147, 0.673512, 1.6716, -0.000123594
0.239, 0.00215636, -0.734962, -0.00375909, -1.87555, 0.00622659, 1.12666, 0.48463, -0.0098382, -0.714213, -0.0147762, -3.47477, -0.0543862, 2.47334, -8.76932, -0.00943581, 5.1121, -0.250371, 25.6617, 0.907275, -0.854913, 87, 0, 0.491791, -0.586087, 14.9464, 0.674743, 1.67162, -0.000123401
0.24, 0.00216262, -0.735674, -0.00375721, -1.87902, 0.00624596, 1.12915, 0.494043, 0.00626359, -0.712712, 0.001893, -3.47373, 0.0193754, 2.49417, 9.41269, -0.170767, 5.12079, -0.417306, 25.8562, 0.169054, -1.18835, -79.5592, 0, 0.47985, -0.586236, 14.9777, 0.675106, 1.6712, -0.000108981
0.241, 0.00215279, -0.736368, -0.00376957, -1.88245, 0.00619754, 1.1316, 0.486827, -0.00982809, -0.693584, -0.0123718, -3.43487, -0.0484287, 2.45052, -7.21585, -0.00935869, 4.95162, -0.274509, 25.6707, 0.850657, -0.874426, 87, 0, 0.46729, -0.586705, 15.009, 0.676247, 1.67118, -0.000107587
0.242, 0.00216073, -0.737061, -0.00376594, -1.88589, 0.00622003, 1.13408, 0.497792, 0.00794347, -0.692557, 0.00364044, -3.43366, 0.0224937, 2.47141, 10.9649, -0.187471, 4.96395, -0.434923, 25.861, 0.140577, -1.20738, -95.2693, 0, 0.455262, -0.586815, 15.0397, 0.676515, 1.67072, -9.1251e-05
0.243, 0.00214983, -0.737733, -0.00378037, -1.88928, 0.00616528, 1.1365, 0.488846, -0.0109, -0.672014, -0.0144377, -3.39452, -0.0547526, 2.42289, -8.94565, 0.00150847, 4.77934, -0.253901, 25.6702, 0.916986, -0.843255, 87, 0, 0.442478, -0.587296, 15.0707, 0.677724, 1.67074, -9.13544e-05
0.244, 0.00215552, -0.738403, -0.0037784, -1.89268, 0.00618285, 1.13894, 0.498082, 0.00568822, -0.670802, 0.00197559, -3.39403, 0.0175724, 2.44403, 9.23566, -0.164658, 4.78849, -0.418261, 25.8655, 0.193194, -1.17726, -77.9909, 0, 0.430212, -0.587425, 15.101, 0.678061, 1.67032, -7.60344e-05
0.245, 0.00214501, -0.739056, -0.00379019, -1.89603, 0.00613513, 1.14134, 0.491018, -0.0105118, -0.652192, -0.0117951, -3.35559, -0.0477189, 2.40097, -7.06446, -0.00213219, 4.62214, -0.280412, 25.6793, 0.849596, -0.866739, 85.3635, 0, 0.417344, -0.587873, 15.1315, 0.679164, 1.67028, -7.45693e-05
0.246, 0.0021527, -0.739707, -0.00378669, -1.89939, 0.00615545, 1.14377, 0.501791, 0.00768894, -0.651338, 0.00350668, -3.35484, 0.0203189, 2.42162, 10.7736, -0.184524, 4.63382, -0.433692, 25.8694, 0.168445, -1.19484, -93.5553, 0, 0.405004, -0.587959, 15.1614, 0.679407, 1.66982, -5.72341e-05
0.247, 0.00214109, -0.740338, -0.0038005, -1.9027, 0.00610171, 1.14614, 0.493013, -0.0116048, -0.631194, -0.0138142, -3.31611, -0.0537464, 2.37372, -8.77803, 0.00899338, 4.45086, -0.260252, 25.6781, 0.912957, -0.83447, 87, 0, 0.39192, -0.58842, 15.1915, 0.680578, 1.66982, -5.73769e-05
0.248, 0.00214661, -0.740968, -0.00379806, -1.90602, 0.00611842, 1.14853, 0.502415, 0.00551726, -0.630209, 0.00245232, -3.31614, 0.0167198, 2.39508, 9.40238, -0.162503, 4.45996, -0.423144, 25.8738, 0.207753, -1.16833, -79.8747, 0, 0.37936, -0.588524, 15.2211, 0.680872, 1.66939, -4.08175e-05
0.249, 0.00213506, -0.74158, -0.00380956, -1.9093, 0.00607015, 1.15089, 0.495125, -0.0115475, -0.61171, -0.0115146, -3.27809, -0.0482738, 2.35151, -7.29063, 0.00872222, 4.29238, -0.283335, 25.6868, 0.861186, -0.850211, 87, 0, 0.366183, -0.588959, 15.2508, 0.681956, 1.66935, -3.96278e-05
0.25, 0.00214231, -0.742191, -0.00380553, -1.91258, 0.00608975, 1.15326, 0.506013, 0.00724333, -0.611223, 0.00403961, -3.27794, 0.0195978, 2.37296, 10.8886, -0.179549, 4.30543, -0.439144, 25.8783, 0.181695, -1.18382, -94.9173, 0, 0.353551, -0.589024, 15.2799, 0.68216, 1.66887, -2.09918e-05
0.251, 0.00212963, -0.742783, -0.00381896, -1.91581, 0.00603574, 1.15558, 0.497067, -0.0126798, -0.591346, -0.0134338, -3.23958, -0.0540128, 2.32469, -8.94675, 0.0203163, 4.12285, -0.264186, 25.686, 0.921652, -0.817349, 87, 0, 0.340167, -0.589472, 15.3092, 0.68331, 1.66888, -2.14855e-05
0.252, 0.00213458, -0.743373, -0.00381643, -1.91905, 0.00605072, 1.15793, 0.5063, 0.00495512, -0.590652, 0.00253694, -3.24013, 0.0149897, 2.34635, 9.23298, -0.15628, 4.1326, -0.424106, 25.8823, 0.231147, -1.15169, -78.3749, 0, 0.327316, -0.589558, 15.3379, 0.68358, 1.66843, -3.99543e-06
0.253, 0.00212238, -0.743946, -0.00382738, -1.92226, 0.00600316, 1.16023, 0.499154, -0.0122008, -0.572652, -0.0109538, -3.20247, -0.0475647, 2.30335, -7.14597, 0.0158886, 3.96777, -0.289067, 25.6946, 0.860117, -0.836948, 85.772, 0, 0.313863, -0.589974, 15.3668, 0.684628, 1.66839, -2.75748e-06
0.254, 0.00212944, -0.744518, -0.0038234, -1.92546, 0.00602092, 1.16256, 0.50993, 0.00706213, -0.572358, 0.00398643, -3.20274, 0.0177652, 2.32467, 10.7759, -0.177094, 3.98055, -0.438711, 25.8858, 0.206107, -1.16686, -93.9857, 0, 0.300953, -0.590017, 15.3951, 0.684805, 1.6679, 1.69801e-05
0.255, 0.00211604, -0.745071, -0.0038363, -1.92862, 0.00596763, 1.16483, 0.501066, -0.013408, -0.552793, -0.0129053, -3.16477, -0.0532975, 2.27678, -8.864, 0.0282785, 3.79888, -0.269579, 25.6928, 0.920517, -0.801792, 87, 0, 0.287299, -0.590447, 15.4236, 0.685923, 1.66789, 1.63425e-05
0.256, 0.00212074, -0.745623, -0.0038334, -1.93179, 0.0059816, 1.16713, 0.51038, 0.00470359, -0.552312, 0.00290971, -3.16583, 0.0139705, 2.29866, 9.3149, -0.153073, 3.80856, -0.427938, 25.8897, 0.247373, -1.13597, -79.3981, 0, 0.274181, -0.590511, 15.4516, 0.686157, 1.66744, 3.50431e-05
0.257, 0.00210756, -0.746158, -0.00384394, -1.93492, 0.00593389, 1.16939, 0.503103, -0.0131788, -0.534491, -0.0105469, -3.12855, -0.047711, 2.25543, -7.27713, 0.0264102, 3.64335, -0.29325, 25.7015, 0.8676, -0.816494, 86.8861, 0, 0.260453, -0.590915, 15.4797, 0.687184, 1.66739, 3.60392e-05
0.258, 0.00211425, -0.746692, -0.00383949, -1.93805, 0.00595083, 1.17167, 0.51398, 0.00669132, -0.534534, 0.00445151, -3.12937, 0.0169449, 2.27736, 10.8768, -0.172626, 3.65734, -0.443479, 25.8936, 0.220333, -1.15015, -95.1975, 0, 0.247283, -0.590938, 15.5072, 0.687324, 1.66689, 5.71309e-05
0.259, 0.00209981, -0.747208, -0.00385199, -1.94114, 0.00589742, 1.17389, 0.504965, -0.014447, -0.515208, -0.0125048, -3.09174, -0.053416, 2.22916, -9.01549, 0.0394796, 3.47591, -0.27371, 25.6997, 0.927712, -0.779647, 87, 0, 0.233361, -0.591358, 15.535, 0.688423, 1.66688, 5.60893e-05
0.26, 0.00210396, -0.747723, -0.00384898, -1.94423, 0.00590978, 1.17615, 0.514127, 0.00415878, -0.514997, 0.00302041, -3.0933, 0.0123643, 2.2513, 9.16276, -0.146786, 3.48617, -0.42916, 25.8972, 0.269502, -1.11412, -78.064, 0, 0.219982, -0.591405, 15.5622, 0.688633, 1.66641, 7.57534e-05
0.261, 0.00209012, -0.74822, -0.00385895, -1.94729, 0.00586275, 1.17835, 0.506977, -0.0138444, -0.497638, -0.00997759, -3.0564, -0.0470335, 2.20861, -7.14988, 0.0339381, 3.32349, -0.299068, 25.7083, 0.866825, -0.79765, 85.4199, 0, 0.206007, -0.591792, 15.5896, 0.689627, 1.66635, 7.67683e-05
0.262, 0.00209654, -0.748718, -0.00385462, -1.95035, 0.00587775, 1.18058, 0.517674, 0.0064233, -0.497852, 0.00433909, -3.05762, 0.0150094, 2.23032, 10.697, -0.16906, 3.3371, -0.442455, 25.9002, 0.245763, -1.12678, -93.584, 0, 0.192585, -0.591795, 15.6163, 0.689745, 1.66585, 9.8911e-05
0.263, 0.00208143, -0.749197, -0.00386649, -1.95337, 0.00582533, 1.18277, 0.508817, -0.0151128, -0.478888, -0.011877, -3.02038, -0.0524223, 2.18273, -8.8574, 0.0470567, 3.15725, -0.280104, 25.7058, 0.923767, -0.760055, 87, 0, 0.178424, -0.592199, 15.6434, 0.69081, 1.66583, 9.77834e-05
0.264, 0.00208547, -0.749676, -0.00386306, -1.95639, 0.00583691, 1.18497, 0.518137, 0.00404383, -0.478901, 0.00343963, -3.02239, 0.0115729, 2.20508, 9.32001, -0.144712, 3.16771, -0.433467, 25.9035, 0.283409, -1.09427, -79.8369, 0, 0.164811, -0.592224, 15.6698, 0.690983, 1.66535, 0.000118801
0.265, 0.00207062, -0.750138, -0.00387271, -1.95938, 0.00578952, 1.18713, 0.510775, -0.0148582, -0.461622, -0.00965618, -2.98584, -0.0473833, 2.16192, -7.36235, 0.045051, 3.00378, -0.302405, 25.7139, 0.876319, -0.770783, 87, 0, 0.150586, -0.592602, 15.6964, 0.691961, 1.66528, 0.000119419
0.266, 0.00207665, -0.7506, -0.00386787, -1.96236, 0.00580387, 1.18932, 0.521589, 0.00603582, -0.462181, 0.00484032, -2.98761, 0.0143494, 2.18437, 10.814, -0.164191, 3.01883, -0.447597, 25.907, 0.258357, -1.10508, -94.9496, 0, 0.136933, -0.592587, 15.7225, 0.692044, 1.66476, 0.000142992
0.267, 0.00206048, -0.751043, -0.00387934, -1.96531, 0.00575132, 1.19146, 0.512564, -0.0161726, -0.443447, -0.0114638, -2.9507, -0.0525504, 2.13643, -9.02499, 0.0587015, 2.83925, -0.284378, 25.7118, 0.93103, -0.73253, 87, 0, 0.12253, -0.592982, 15.7488, 0.693092, 1.66474, 0.000141378
0.268, 0.00206396, -0.751487, -0.00387582, -1.96827, 0.00576131, 1.19361, 0.521715, 0.00348406, -0.443732, 0.00352838, -2.95319, 0.00999275, 2.15904, 9.1518, -0.138039, 2.85045, -0.434486, 25.91, 0.305251, -1.06703, -78.3337, 0, 0.108684, -0.592993, 15.7745, 0.693245, 1.66425, 0.000163354
0.269, 0.0020485, -0.751914, -0.00388489, -1.97118, 0.00571468, 1.19573, 0.5145, -0.0154653, -0.426924, -0.00908172, -2.91699, -0.0466365, 2.11647, -7.21589, 0.0522285, 2.68926, -0.308293, 25.7198, 0.874822, -0.74726, 85.704, 0, 0.0942407, -0.593355, 15.8004, 0.69419, 1.66418, 0.000163995
0.27, 0.00205435, -0.752342, -0.00388013, -1.9741, 0.00572733, 1.19787, 0.525188, 0.00585597, -0.427662, 0.00476017, -2.91913, 0.0126519, 2.13875, 10.689, -0.161277, 2.70415, -0.446916, 25.9125, 0.281365, -1.0775, -93.8794, 0, 0.080366, -0.593321, 15.8257, 0.694251, 1.66365, 0.000188704
0.271, 0.00203752, -0.752751, -0.00389104, -1.97699, 0.00567558, 1.19996, 0.516263, -0.0168359, -0.409216, -0.0109087, -2.88258, -0.051747, 2.09125, -8.92567, 0.0664827, 2.52554, -0.290062, 25.7166, 0.92896, -0.707096, 87, 0, 0.0657495, -0.593702, 15.8513, 0.695269, 1.66362, 0.000186907
0.272, 0.00204083, -0.75316, -0.00388717, -1.97987, 0.00568471, 1.20208, 0.525513, 0.00331092, -0.409706, 0.00388056, -2.88551, 0.00912545, 2.11405, 9.25036, -0.135151, 2.53686, -0.43814, 25.9153, 0.319899, -1.04132, -79.5091, 0, 0.0516932, -0.593693, 15.8763, 0.695389, 1.66312, 0.000210213
0.273, 0.0020244, -0.753553, -0.00389583, -1.98272, 0.005638, 1.20415, 0.518151, -0.0164318, -0.393021, -0.00866631, -2.84967, -0.0467144, 2.07121, -7.36224, 0.0630984, 2.37501, -0.312593, 25.7246, 0.881561, -0.716546, 86.9849, 0, 0.0370294, -0.594047, 15.9015, 0.696317, 1.66304, 0.000210478
0.274, 0.00202993, -0.753948, -0.0038906, -1.98557, 0.00564999, 1.20624, 0.52896, 0.00553121, -0.394088, 0.00523269, -2.85231, 0.0119974, 2.09412, 10.8096, -0.156809, 2.3913, -0.451793, 25.9182, 0.293871, -1.05095, -95.2741, 0, 0.0229497, -0.593996, 15.9261, 0.696344, 1.6625, 0.000236685
0.275, 0.00201205, -0.754323, -0.00390109, -1.98839, 0.00559817, 1.20829, 0.519865, -0.0178754, -0.375839, -0.0104925, -2.81607, -0.0518187, 2.04627, -9.09572, 0.0781518, 2.21277, -0.29439, 25.7215, 0.935625, -0.674773, 87, 0, 0.00811801, -0.59437, 15.951, 0.697347, 1.66246, 0.000234322
0.276, 0.0020148, -0.7547, -0.00389713, -1.99121, 0.0056058, 1.21036, 0.528944, 0.00274646, -0.376585, 0.00397382, -2.81946, 0.00762747, 2.06932, 9.07973, -0.128205, 2.22479, -0.43923, 25.9207, 0.340884, -1.00918, -77.9743, 0, -0.0061469, -0.594348, 15.9753, 0.697448, 1.66196, 0.000258586
0.277, 0.00199778, -0.75506, -0.0039052, -1.99399, 0.00555985, 1.21238, 0.521733, -0.0170186, -0.36036, -0.00807469, -2.78397, -0.0459477, 2.02709, -7.21165, 0.070297, 2.06571, -0.318681, 25.7295, 0.87983, -0.688364, 85.3001, 0, -0.0210034, -0.594688, 15.9998, 0.698346, 1.66187, 0.00025887
0.278, 0.00200305, -0.755422, -0.00390012, -1.99678, 0.00557003, 1.21443, 0.53234, 0.00527275, -0.361572, 0.00507106, -2.78695, 0.0101736, 2.04969, 10.6076, -0.15288, 2.08163, -0.450325, 25.9226, 0.318119, -1.01743, -93.4224, 0, -0.035282, -0.59462, 16.0238, 0.698356, 1.66132, 0.000286115
0.279, 0.00198462, -0.755766, -0.00390997, -1.99953, 0.00551928, 1.21644, 0.52343, -0.0184375, -0.343668, -0.00984792, -2.75106, -0.0507451, 2.00254, -8.91024, 0.0851445, 1.90475, -0.301002, 25.7255, 0.930814, -0.646085, 87, 0, -0.0502993, -0.59498, 16.048, 0.699327, 1.66127, 0.00028367
0.28, 0.00198735, -0.75611, -0.00390561, -2.00229, 0.0055263, 1.21846, 0.532694, 0.00273889, -0.344627, 0.00437421, -2.75486, 0.00701772, 2.02577, 9.26443, -0.126757, 1.91713, -0.4434, 25.9248, 0.3529, -0.980163, -80.0088, 0, -0.0647443, -0.594938, 16.0716, 0.699392, 1.66075, 0.000309444
0.281, 0.00196931, -0.756439, -0.00391335, -2.00501, 0.00548005, 1.22044, 0.525243, -0.0180427, -0.328411, -0.00774505, -2.71969, -0.0462481, 1.98299, -7.45132, 0.0819611, 1.75633, -0.322155, 25.7329, 0.888757, -0.651638, 87, 0, -0.0798011, -0.595273, 16.0955, 0.700279, 1.66066, 0.000309145
0.282, 0.0019742, -0.756769, -0.00390777, -2.00773, 0.00548967, 1.22245, 0.535966, 0.00489214, -0.329954, 0.00557253, -2.72319, 0.00962406, 2.00636, 10.7224, -0.147632, 1.7738, -0.455527, 25.9273, 0.329533, -0.98617, -94.7524, 0, -0.0942618, -0.59519, 16.1187, 0.700258, 1.6601, 0.000337931
0.283, 0.00195472, -0.757081, -0.00391717, -2.01042, 0.00543891, 1.22441, 0.526893, -0.0194825, -0.312265, -0.0093901, -2.68761, -0.0507633, 1.95888, -9.07254, 0.0970891, 1.59731, -0.305786, 25.7295, 0.936902, -0.609371, 87, 0, -0.10947, -0.595545, 16.1423, 0.701214, 1.66004, 0.000334866
0.284, 0.00195692, -0.757394, -0.00391271, -2.01311, 0.00544452, 1.22639, 0.535995, 0.002196, -0.313491, 0.00446516, -2.69183, 0.0056085, 1.98234, 9.10159, -0.119806, 1.61061, -0.444508, 25.9293, 0.372952, -0.943664, -78.5454, 0, -0.124099, -0.595492, 16.1653, 0.701263, 1.65952, 0.000361615
0.285, 0.00193834, -0.757692, -0.00391989, -2.01577, 0.00539901, 1.22833, 0.528687, -0.018577, -0.297721, -0.00718745, -2.65697, -0.0455099, 1.94017, -7.30789, 0.0888534, 1.45257, -0.327944, 25.7367, 0.887268, -0.619008, 85.9148, 0, -0.139325, -0.595813, 16.1885, 0.70212, 1.65941, 0.000361306
0.286, 0.00194312, -0.757991, -0.00391438, -2.01843, 0.00540724, 1.2303, 0.539325, 0.00478387, -0.299444, 0.00551241, -2.66079, 0.00822892, 1.9634, 10.6385, -0.144995, 1.47015, -0.455118, 25.9306, 0.349427, -0.950092, -94.0813, 0, -0.153956, -0.595713, 16.2111, 0.702078, 1.65884, 0.000391325
0.287, 0.00192302, -0.758273, -0.00392326, -2.02105, 0.00535715, 1.23221, 0.53031, -0.0201069, -0.281979, -0.00888469, -2.62553, -0.0500879, 1.91624, -9.01558, 0.104918, 1.29422, -0.311046, 25.7322, 0.936031, -0.574359, 87, 0, -0.169331, -0.596056, 16.234, 0.70301, 1.65878, 0.00038795
0.288, 0.00192503, -0.758557, -0.00391852, -2.02368, 0.00536193, 1.23415, 0.539467, 0.00200922, -0.283387, 0.00475188, -2.63017, 0.00478101, 1.93989, 9.15788, -0.116344, 1.30768, -0.44758, 25.9324, 0.387125, -0.908373, -79.2819, 0, -0.184124, -0.595987, 16.2563, 0.703031, 1.65824, 0.000416046
0.289, 0.00190556, -0.758825, -0.00392522, -2.02628, 0.00531657, 1.23605, 0.532063, -0.0194665, -0.267757, -0.00670509, -2.59565, -0.0453636, 1.89758, -7.40486, 0.0993866, 1.14937, -0.33299, 25.7396, 0.891679, -0.580315, 86.7158, 0, -0.199521, -0.596302, 16.2789, 0.703872, 1.65814, 0.000415318
0.29, 0.00191004, -0.759094, -0.00391933, -2.02888, 0.00532408, 1.23797, 0.542771, 0.00448235, -0.269766, 0.00588689, -2.59992, 0.00751242, 1.92129, 10.7083, -0.140326, 1.16816, -0.45909, 25.9342, 0.362474, -0.91399, -94.9512, 0, -0.214311, -0.596188, 16.3009, 0.703802, 1.65755, 0.000446856
0.291, 0.001889, -0.759347, -0.00392774, -2.03144, 0.00527418, 1.23984, 0.533644, -0.0210458, -0.252503, -0.00840081, -2.56495, -0.0499036, 1.87395, -9.12689, 0.116008, 0.992612, -0.316131, 25.735, 0.940046, -0.534418, 87, 0, -0.229853, -0.596526, 16.3231, 0.704719, 1.65749, 0.00044287
0.292, 0.00189055, -0.759601, -0.00392285, -2.03401, 0.00527776, 1.24174, 0.54269, 0.00155158, -0.254152, 0.00489144, -2.56999, 0.00358503, 1.89782, 9.04603, -0.110043, 1.00686, -0.449217, 25.9357, 0.404984, -0.868502, -78.3245, 0, -0.244805, -0.596445, 16.3449, 0.704723, 1.65694, 0.000472025
0.293, 0.0018705, -0.75984, -0.00392901, -2.03655, 0.005233, 1.2436, 0.535374, -0.0200528, -0.238891, -0.00616598, -2.53578, -0.0447628, 1.85595, -7.31619, 0.107003, 0.850646, -0.338639, 25.7423, 0.891516, -0.54274, 85.6636, 0, -0.260352, -0.596749, 16.3668, 0.705538, 1.65682, 0.000471181
0.294, 0.00187474, -0.760081, -0.00392318, -2.03909, 0.00523913, 1.24548, 0.54595, 0.00424855, -0.241068, 0.00583552, -2.54037, 0.00613107, 1.87952, 10.5766, -0.136223, 0.869529, -0.458817, 25.9366, 0.382185, -0.873069, -93.7932, 0, -0.275294, -0.596621, 16.3882, 0.705452, 1.65623, 0.000503881
0.295, 0.00185312, -0.760305, -0.003931, -2.04159, 0.00519005, 1.24731, 0.536934, -0.0216199, -0.224088, -0.0078196, -2.50572, -0.0490824, 1.83267, -9.01606, 0.123543, 0.695249, -0.322203, 25.7371, 0.937664, -0.496277, 87, 0, -0.29098, -0.596949, 16.4098, 0.706343, 1.65615, 0.000499651
0.296, 0.00185461, -0.760531, -0.00392581, -2.04411, 0.00519298, 1.24917, 0.54609, 0.00148534, -0.225942, 0.00519177, -2.51114, 0.0029358, 1.85672, 9.15621, -0.107584, 0.709994, -0.452479, 25.9379, 0.417311, -0.830144, -79.5962, 0, -0.30607, -0.596852, 16.4309, 0.706318, 1.6556, 0.00053029
0.297, 0.00183367, -0.760742, -0.00393157, -2.04658, 0.00514823, 1.25098, 0.538619, -0.020941, -0.210751, -0.0057618, -2.47723, -0.0447519, 1.81455, -7.47109, 0.117727, 0.552923, -0.342955, 25.744, 0.897228, -0.49932, 87, 0, -0.321769, -0.597152, 16.4523, 0.707121, 1.65547, 0.000528859
0.298, 0.00183768, -0.760955, -0.00392531, -2.04907, 0.00515388, 1.25282, 0.54932, 0.00401293, -0.21323, 0.00625778, -2.48227, 0.0056482, 1.83876, 10.7003, -0.132013, 0.573293, -0.463321, 25.9392, 0.39283, -0.833948, -95.1987, 0, -0.336848, -0.597009, 16.473, 0.707006, 1.65487, 0.000563222
0.299, 0.00181509, -0.761151, -0.0039327, -2.05151, 0.00510484, 1.25461, 0.540134, -0.0225933, -0.196403, -0.00738105, -2.44789, -0.0490418, 1.79157, -9.18533, 0.135178, 0.399013, -0.326889, 25.7389, 0.943062, -0.451633, 87, 0, -0.352681, -0.597335, 16.4941, 0.707886, 1.65479, 0.000558203
0.3, 0.00181603, -0.76135, -0.00392742, -2.05397, 0.00510653, 1.25643, 0.549121, 0.00093819, -0.198485, 0.00528781, -2.4537, 0.00169585, 1.81583, 8.98647, -0.100183, 0.414519, -0.453735, 25.9403, 0.435562, -0.785613, -78.0502, 0, -0.367914, -0.597228, 16.5146, 0.707847, 1.65422, 0.000589788
0.301, 0.00179461, -0.761534, -0.00393259, -2.05639, 0.00506254, 1.2582, 0.541803, -0.0214207, -0.183724, -0.00517813, -2.4201, -0.0439906, 1.77429, -7.31744, 0.124476, 0.26027, -0.349106, 25.746, 0.895402, -0.459119, 85.3547, 0, -0.383739, -0.597517, 16.5353, 0.708623, 1.65409, 0.000588347
0.302, 0.00179839, -0.76172, -0.00392649, -2.05881, 0.00506671, 1.26, 0.552313, 0.00378046, -0.18633, 0.00610157, -2.42542, 0.00416966, 1.79818, 10.5098, -0.127724, 0.280434, -0.462053, 25.9406, 0.413464, -0.788504, -93.4428, 0, -0.39895, -0.597361, 16.5555, 0.708496, 1.65348, 0.000623752
0.303, 0.00177535, -0.76189, -0.00393326, -2.0612, 0.00501866, 1.26175, 0.543305, -0.0230318, -0.169806, -0.00677063, -2.39136, -0.0480532, 1.75166, -9.00855, 0.14155, 0.107737, -0.333306, 25.74, 0.938947, -0.41101, 87, 0, -0.414904, -0.597675, 16.576, 0.709348, 1.65339, 0.000618599
0.304, 0.00177637, -0.762062, -0.00392765, -2.0636, 0.00501992, 1.26353, 0.552467, 0.0010162, -0.172081, 0.00561709, -2.39752, 0.00126344, 1.7761, 9.16261, -0.0989806, 0.123745, -0.45734, 25.9414, 0.445649, -0.744734, -79.9789, 0, -0.430252, -0.597552, 16.5959, 0.70928, 1.65281, 0.000651845
0.305, 0.00175399, -0.762219, -0.00393246, -2.06597, 0.00497581, 1.26526, 0.544923, -0.022376, -0.157293, -0.00481114, -2.36419, -0.0441147, 1.73405, -7.5436, 0.13606, -0.0322391, -0.353105, 25.7465, 0.902404, -0.411051, 87, 0, -0.446213, -0.59784, 16.6161, 0.710048, 1.65267, 0.0006496
0.306, 0.00175747, -0.762379, -0.00392589, -2.06834, 0.00497959, 1.26702, 0.55555, 0.00347658, -0.160199, 0.00656787, -2.36997, 0.00377777, 1.75866, 10.6268, -0.122639, -0.0104959, -0.467056, 25.9424, 0.423137, -0.745725, -94.7747, 0, -0.461542, -0.597672, 16.6357, 0.709894, 1.65205, 0.000686702
0.307, 0.00173346, -0.762523, -0.00393218, -2.07067, 0.00493162, 1.26873, 0.546381, -0.0240089, -0.143855, -0.00629033, -2.33618, -0.0479697, 1.71182, -9.16917, 0.153415, -0.182825, -0.338472, 25.7413, 0.943852, -0.363052, 87, 0, -0.477625, -0.597985, 16.6556, 0.710735, 1.65196, 0.000680705
0.308, 0.00173396, -0.76267, -0.00392648, -2.07301, 0.00493173, 1.27047, 0.555383, 0.000493548, -0.146371, 0.00571122, -2.34271, 0.000116902, 1.73647, 9.00156, -0.0916333, -0.165818, -0.458641, 25.943, 0.462899, -0.696967, -78.5141, 0, -0.493095, -0.597853, 16.6749, 0.710655, 1.65137, 0.000714907
0.309, 0.00171116, -0.762802, -0.00393075, -2.07532, 0.00488834, 1.27216, 0.547984, -0.0227953, -0.132002, -0.00427187, -2.30967, -0.0433948, 1.69503, -7.39825, 0.142395, -0.31897, -0.358873, 25.7476, 0.900928, -0.367453, 85.8539, 0, -0.509162, -0.59813, 16.6945, 0.711397, 1.65122, 0.000712619
0.31, 0.00171456, -0.762937, -0.00392427, -2.07764, 0.00489097, 1.27388, 0.558516, 0.00339456, -0.135063, 0.00647375, -2.31571, 0.00263263, 1.71948, 10.5322, -0.119673, -0.297048, -0.466472, 25.9429, 0.440353, -0.69851, -93.9774, 0, -0.524601, -0.597948, 16.7136, 0.711228, 1.65059, 0.000750961
0.311, 0.00169006, -0.763056, -0.00393007, -2.07992, 0.0048437, 1.27556, 0.54942, -0.0244952, -0.118922, -0.00579357, -2.2822, -0.0472724, 1.67301, -9.09666, 0.160449, -0.468702, -0.343813, 25.7412, 0.942587, -0.31756, 87, 0, -0.54079, -0.598252, 16.7329, 0.712048, 1.65049, 0.000744586
0.312, 0.00169047, -0.763177, -0.00392411, -2.08221, 0.00484324, 1.27725, 0.558493, 0.00041232, -0.1216, 0.00596144, -2.28909, -0.000460554, 1.69783, 9.07351, -0.0886468, -0.451419, -0.461516, 25.9434, 0.474388, -0.651264, -79.3891, 0, -0.556362, -0.598107, 16.7517, 0.711944, 1.64989, 0.000780262
0.313, 0.00166686, -0.763284, -0.00392791, -2.08447, 0.00480003, 1.27891, 0.550985, -0.0236118, -0.107315, -0.00379911, -2.25634, -0.0432101, 1.65621, -7.50857, 0.152775, -0.605077, -0.363994, 25.7478, 0.904774, -0.318084, 86.8071, 0, -0.572542, -0.598381, 16.7707, 0.712674, 1.64974, 0.00077735
0.314, 0.00167002, -0.763395, -0.00392106, -2.08673, 0.00480219, 1.28059, 0.561605, 0.0031643, -0.110642, 0.0068428, -2.26278, 0.00216638, 1.68116, 10.6205, -0.115144, -0.581814, -0.470563, 25.9438, 0.450708, -0.652258, -95.0148, 0, -0.58808, -0.598188, 16.7892, 0.712481, 1.64909, 0.000817371
0.315, 0.00164465, -0.76349, -0.00392638, -2.08896, 0.00475512, 1.28223, 0.552381, -0.0253739, -0.0946625, -0.00531162, -2.22953, -0.0470732, 1.63447, -9.2245, 0.171507, -0.753173, -0.349055, 25.7415, 0.946266, -0.267152, 87, 0, -0.604377, -0.598491, 16.808, 0.71329, 1.64898, 0.000810145
0.316, 0.00164461, -0.763587, -0.0039203, -2.0912, 0.00475368, 1.28389, 0.561326, -4.40238e-05, -0.0975559, 0.00608248, -2.23677, -0.00144358, 1.65949, 8.94526, -0.0817901, -0.735036, -0.463146, 25.9441, 0.489926, -0.600974, -78.2481, 0, -0.620051, -0.598337, 16.8263, 0.713174, 1.64838, 0.000846833
0.317, 0.00162055, -0.763671, -0.00392357, -2.0934, 0.00471111, 1.2855, 0.553928, -0.0240572, -0.083638, -0.00326906, -2.2043, -0.04257, 1.61838, -7.3981, 0.159544, -0.886304, -0.369733, 25.7481, 0.904026, -0.270945, 85.5553, 0, -0.636323, -0.598602, 16.8448, 0.713881, 1.64822, 0.000843791
0.318, 0.00162351, -0.763758, -0.00391682, -2.09561, 0.00471211, 1.28715, 0.564397, 0.00295987, -0.0870969, 0.00674174, -2.211, 0.0010045, 1.64312, 10.4691, -0.110774, -0.862994, -0.469975, 25.9436, 0.468026, -0.601177, -93.64, 0, -0.651956, -0.598398, 16.8628, 0.713677, 1.64757, 0.000884916
0.319, 0.00159773, -0.763829, -0.00392158, -2.09779, 0.00466588, 1.28874, 0.555309, -0.025775, -0.0713857, -0.00475232, -2.17803, -0.0462351, 1.59699, -9.0883, 0.177863, -1.03292, -0.35509, 25.7411, 0.94352, -0.219789, 87, 0, -0.668339, -0.598692, 16.881, 0.714462, 1.64745, 0.000877437
0.32, 0.00159776, -0.763904, -0.00391524, -2.09998, 0.00466405, 1.29037, 0.56439, 2.36712e-05, -0.0744598, 0.00634417, -2.18559, -0.00183045, 1.62218, 9.08091, -0.0801246, -1.01421, -0.466203, 25.9437, 0.499423, -0.553488, -79.7578, 0, -0.684094, -0.598524, 16.8988, 0.714321, 1.64683, 0.000915787
0.321, 0.00157286, -0.763964, -0.00391812, -2.10213, 0.00462152, 1.29195, 0.556812, -0.0248931, -0.0605436, -0.00287604, -2.15338, -0.0425298, 1.58069, -7.57728, 0.170288, -1.16671, -0.374122, 25.7472, 0.909243, -0.217746, 87, 0, -0.700463, -0.598788, 16.9168, 0.71502, 1.64667, 0.000911884
0.322, 0.00157563, -0.764029, -0.00391096, -2.10429, 0.00462222, 1.29355, 0.567403, 0.00276199, -0.0642769, 0.00714868, -2.16049, 0.000706971, 1.60609, 10.5912, -0.106401, -1.14188, -0.474512, 25.9439, 0.476611, -0.552683, -95.0114, 0, -0.716179, -0.598573, 16.9342, 0.714792, 1.646, 0.000954809
0.323, 0.00154895, -0.764077, -0.00391526, -2.10642, 0.00457611, 1.29511, 0.558151, -0.0266748, -0.0487055, -0.00429109, -2.12777, -0.046113, 1.55962, -9.25211, 0.189301, -1.31164, -0.360193, 25.7408, 0.947894, -0.166101, 87, 0, -0.732654, -0.598867, 16.952, 0.71557, 1.64588, 0.000946319
0.324, 0.00154846, -0.764129, -0.00390883, -2.10855, 0.0045733, 1.2967, 0.567068, -0.000489685, -0.0519879, 0.00644056, -2.13568, -0.00281047, 1.58502, 8.91675, -0.0725263, -1.29206, -0.467657, 25.9439, 0.514858, -0.499988, -78.25, 0, -0.748497, -0.598692, 16.9692, 0.715418, 1.64525, 0.000985576
0.325, 0.00152322, -0.764168, -0.00391117, -2.11066, 0.00453149, 1.29824, 0.559642, -0.0252375, -0.0384798, -0.00234138, -2.10373, -0.0418154, 1.54415, -7.42615, 0.176214, -1.44165, -0.379976, 25.747, 0.907674, -0.168687, 85.5503, 0, -0.764938, -0.598948, 16.9867, 0.716094, 1.64508, 0.00098163
0.326, 0.00152584, -0.76421, -0.00390416, -2.11277, 0.00453109, 1.29981, 0.570081, 0.00261712, -0.0423293, 0.00700436, -2.11107, -0.000390308, 1.56928, 10.4391, -0.102463, -1.41684, -0.473558, 25.9429, 0.493205, -0.499086, -93.6245, 0, -0.780732, -0.598722, 17.0036, 0.715856, 1.64441, 0.00102564
0.327, 0.00149884, -0.764237, -0.00390793, -2.11485, 0.00448581, 1.30133, 0.560967, -0.027001, -0.0270028, -0.00376599, -2.07861, -0.0452895, 1.52337, -9.11409, 0.195068, -1.5853, -0.365951, 25.7395, 0.945215, -0.116297, 87, 0, -0.797276, -0.599007, 17.0208, 0.716611, 1.64428, 0.00101689
0.328, 0.00149845, -0.764268, -0.00390125, -2.11693, 0.00448268, 1.30288, 0.570021, -0.000388536, -0.0304455, 0.00668762, -2.08683, -0.00312331, 1.54894, 9.05426, -0.0710373, -1.56525, -0.470632, 25.9428, 0.523535, -0.450074, -79.7727, 0, -0.813183, -0.598818, 17.0376, 0.716436, 1.64364, 0.00105785
0.329, 0.00147239, -0.764285, -0.00390318, -2.11899, 0.00444094, 1.30439, 0.562415, -0.0260594, -0.0169222, -0.00193555, -2.05514, -0.0417461, 1.50768, -7.60623, 0.186974, -1.71616, -0.384559, 25.7456, 0.912519, -0.113035, 87, 0, -0.829706, -0.599074, 17.0545, 0.717105, 1.64346, 0.00105296
0.33, 0.00147482, -0.764306, -0.00389576, -2.12105, 0.00444031, 1.30592, 0.572976, 0.00242263, -0.0210374, 0.00741673, -2.06289, -0.000626128, 1.53346, 10.5614, -0.0979671, -1.68982, -0.478217, 25.9426, 0.50109, -0.448193, -94.9921, 0, -0.845566, -0.598838, 17.071, 0.716844, 1.64278, 0.00109881
0.331, 0.00144694, -0.764311, -0.00389906, -2.12308, 0.00439516, 1.30741, 0.563699, -0.0278799, -0.00584949, -0.0032972, -2.03066, -0.0451455, 1.48722, -9.27695, 0.206452, -1.85803, -0.371199, 25.7387, 0.949289, -0.0602866, 87, 0, -0.862187, -0.599124, 17.0877, 0.717592, 1.64264, 0.00108897
0.332, 0.00144604, -0.764321, -0.00389229, -2.12512, 0.00439114, 1.30892, 0.57259, -0.00089179, -0.00949583, 0.00678337, -2.03921, -0.00402397, 1.51299, 8.89108, -0.0633843, -1.83707, -0.472149, 25.9424, 0.538091, -0.394293, -78.2693, 0, -0.878166, -0.59893, 17.104, 0.717408, 1.642, 0.00113082
0.333, 0.00141969, -0.764317, -0.00389371, -2.12713, 0.00435009, 1.3104, 0.565135, -0.0263534, 0.00362257, -0.00142293, -2.00777, -0.0410473, 1.47235, -7.45508, 0.192549, -1.98501, -0.390262, 25.7448, 0.911024, -0.0617451, 85.5651, 0, -0.894745, -0.599177, 17.1204, 0.718055, 1.64181, 0.00112588
0.334, 0.00142199, -0.764318, -0.00388644, -2.12914, 0.00434846, 1.31189, 0.575548, 0.00230184, -0.000601089, 0.00726247, -2.01572, -0.0016315, 1.49786, 10.4125, -0.094118, -1.95867, -0.477233, 25.9411, 0.516677, -0.392448, -93.6314, 0, -0.910667, -0.598931, 17.1364, 0.717785, 1.64112, 0.00117281
0.335, 0.00139384, -0.764304, -0.00388924, -2.13113, 0.00430411, 1.31335, 0.566407, -0.0281533, 0.0143518, -0.00279782, -1.98375, -0.0443483, 1.45217, -9.14129, 0.211841, -2.12559, -0.376768, 25.7369, 0.946789, -0.00829406, 87, 0, -0.927342, -0.599208, 17.1527, 0.718511, 1.64097, 0.00116268
0.336, 0.00139308, -0.764293, -0.00388224, -2.13312, 0.00429983, 1.31482, 0.575433, -0.0007634, 0.0105561, 0.00700874, -1.9926, -0.00427964, 1.47811, 9.02627, -0.0620198, -2.10419, -0.474976, 25.9407, 0.54611, -0.342244, -79.7632, 0, -0.94337, -0.599001, 17.1684, 0.718305, 1.64032, 0.00120626
0.337, 0.00136594, -0.764269, -0.00388326, -2.13508, 0.00425889, 1.31626, 0.567801, -0.0271379, 0.0236966, -0.00101915, -1.9614, -0.0409486, 1.43709, -7.63148, 0.203082, -2.25342, -0.394894, 25.7428, 0.915488, -0.00407768, 87, 0, -0.960016, -0.599248, 17.1844, 0.718946, 1.64013, 0.00120032
0.338, 0.00136807, -0.76425, -0.00387559, -2.13705, 0.00425707, 1.31773, 0.578337, 0.00213253, 0.0192187, 0.00766239, -1.96975, -0.00181396, 1.46325, 10.5354, -0.0897288, -2.22558, -0.481837, 25.9403, 0.52394, -0.339532, -94.9997, 0, -0.975988, -0.598993, 17.1999, 0.718654, 1.63942, 0.00124913
0.339, 0.00133907, -0.764216, -0.00387793, -2.13899, 0.00421289, 1.31914, 0.569033, -0.0289991, 0.03404, -0.00233275, -1.93801, -0.0441865, 1.41723, -9.30372, 0.223038, -2.39223, -0.382048, 25.7356, 0.950595, 0.0496978, 87, 0, -0.992725, -0.599272, 17.2157, 0.719375, 1.63927, 0.00123783
0.34, 0.00133781, -0.764186, -0.00387083, -2.14094, 0.00420778, 1.32059, 0.577896, -0.00125659, 0.0300509, 0.00710406, -1.94717, -0.00510394, 1.44336, 8.86355, -0.0543248, -2.36993, -0.476559, 25.9399, 0.559812, -0.284513, -78.2591, 0, -1.00881, -0.59906, 17.231, 0.719161, 1.63861, 0.00128227
0.341, 0.00131043, -0.764143, -0.00387135, -2.14285, 0.00416752, 1.32199, 0.570417, -0.0273865, 0.0427908, -0.000523787, -1.91621, -0.0402612, 1.40297, -7.47977, 0.208344, -2.51615, -0.400493, 25.7416, 0.914016, 0.0491073, 85.5481, 0, -1.0255, -0.599299, 17.2466, 0.71978, 1.63841, 0.00127627
0.342, 0.00131245, -0.764105, -0.00386385, -2.14478, 0.00416478, 1.32342, 0.5808, 0.0020214, 0.0382142, 0.00749905, -1.92476, -0.00274346, 1.42885, 10.3835, -0.0858364, -2.48832, -0.480832, 25.9383, 0.538677, -0.281876, -93.6042, 0, -1.04152, -0.599034, 17.2616, 0.719481, 1.6377, 0.00132612
0.343, 0.00128323, -0.764052, -0.0038657, -2.14667, 0.00412138, 1.3248, 0.571636, -0.0292153, 0.0528024, -0.00185289, -1.89326, -0.0433996, 1.38339, -9.16378, 0.227992, -2.65362, -0.387491, 25.7334, 0.948108, 0.103444, 87, 0, -1.05829, -0.599305, 17.277, 0.72018, 1.63754, 0.00131454
